P2
320 128
255
18 18 18 18 18 18 18 18 18 18 18 18 18 18 18 18 18 18 18 18 18 18 18 18 18 18 18 18 18 18 18 18 18 18 18 18 18 18 18 230 230 18 18 18 18 18 18 18 230 230 18 18 18 18 18 18 18 18 18 18 18 18 230 230 18 18 18 18 18 18 18 18 18 18 18 18 18 18 18 18 18 18 18 18 18 18 18 18 18 18 18 18 18 18 18 18 18 18 18 18 18 18 18 230 230 18 18 18 18 18 18 18 230 230 18 18 18 18 18 18 18 18 18 18 18 18 230 230 18 18 18 18 18 18 18 18 18 18 18 18 18 18 18 18 18 18 18 18 18 18 18 18 18 18 18 18 18 18 18 18 18 18 18 18 18 18 18 230 230 18 18 18 18 18 18 18 230 230 18 18 18 18 18 18 18 18 18 18 18 18 230 230 18 18 18 18 18 18 18 18 18 18 18 18 18 18 18 18 18 18 18 18 18 18 18 18 18 18 18 18 18 18 18 18 18 18 18 18 18 18 18 230 230 18 18 18 18 18 18 18 230 230 18 18 18 18 18 18 18 18 18 18 18 18 230 230 18 18 18 18 18 18 18 18 18 18 18 18 18 18 18 18 18 18 18 18 18 18 18 18 18 18 18 18 18 18 18 18 18 18 18 18 18 18 18 230 230 18 18 18 18 18 18 18 230 230 18 18 18 18 18 18 18 18 18 18 18 18 230 230
18 18 18 18 18 18 18 18 18 18 18 18 18 18 18 18 18 18 18 18 18 18 18 18 18 18 18 18 18 18 18 18 18 18 18 18 18 18 18 230 230 18 18 18 18 18 18 18 230 230 230 18 18 18 18 18 18 18 18 18 18 230 230 230 18 18 18 18 18 18 18 18 18 18 18 18 18 18 18 18 18 18 18 18 18 18 18 18 18 18 18 18 18 18 18 18 18 18 18 18 18 18 18 230 230 18 18 18 18 18 18 18 230 230 230 18 18 18 18 18 18 18 18 18 18 230 230 230 18 18 18 18 18 18 18 18 18 18 18 18 18 18 18 18 18 18 18 18 18 18 18 18 18 18 18 18 18 18 18 18 18 18 18 18 18 18 18 230 230 18 18 18 18 18 18 18 230 230 230 18 18 18 18 18 18 18 18 18 18 230 230 230 18 18 18 18 18 18 18 18 18 18 18 18 18 18 18 18 18 18 18 18 18 18 18 18 18 18 18 18 18 18 18 18 18 18 18 18 18 18 18 230 230 18 18 18 18 18 18 18 230 230 230 18 18 18 18 18 18 18 18 18 18 230 230 230 18 18 18 18 18 18 18 18 18 18 18 18 18 18 18 18 18 18 18 18 18 18 18 18 18 18 18 18 18 18 18 18 18 18 18 18 18 18 18 230 230 18 18 18 18 18 18 18 230 230 230 18 18 18 18 18 18 18 18 18 18 230 230 230
18 18 18 18 18 230 230 230 230 230 230 18 18 18 18 18 18 18 230 230 230 230 230 230 230 230 230 230 230 230 18 18 18 18 18 18 18 18 18 230 230 18 18 18 18 18 18 18 18 230 230 230 18 18 18 18 18 18 18 18 230 230 230 18 18 18 18 18 18 230 230 230 230 230 230 18 18 18 18 18 18 18 230 230 230 230 230 230 230 230 230 230 230 230 18 18 18 18 18 18 18 18 18 230 230 18 18 18 18 18 18 18 18 230 230 230 18 18 18 18 18 18 18 18 230 230 230 18 18 18 18 18 18 230 230 230 230 230 230 18 18 18 18 18 18 18 230 230 230 230 230 230 230 230 230 230 230 230 18 18 18 18 18 18 18 18 18 230 230 18 18 18 18 18 18 18 18 230 230 230 18 18 18 18 18 18 18 18 230 230 230 18 18 18 18 18 18 230 230 230 230 230 230 18 18 18 18 18 18 18 230 230 230 230 230 230 230 230 230 230 230 230 18 18 18 18 18 18 18 18 18 230 230 18 18 18 18 18 18 18 18 230 230 230 18 18 18 18 18 18 18 18 230 230 230 18 18 18 18 18 18 230 230 230 230 230 230 18 18 18 18 18 18 18 230 230 230 230 230 230 230 230 230 230 230 230 18 18 18 18 18 18 18 18 18 230 230 18 18 18 18 18 18 18 18 230 230 230 18 18 18 18 18 18 18 18 230 230 230 18
18 18 18 18 230 230 230 230 230 230 230 230 18 18 18 18 18 18 230 18 18 18 18 18 18 18 18 18 18 230 18 18 18 18 18 18 18 18 18 230 230 18 18 18 18 18 18 18 18 18 230 230 230 18 18 18 18 18 18 230 230 230 18 18 18 18 18 18 230 230 230 230 230 230 230 230 18 18 18 18 18 18 230 18 18 18 18 18 18 18 18 18 18 230 18 18 18 18 18 18 18 18 18 230 230 18 18 18 18 18 18 18 18 18 230 230 230 18 18 18 18 18 18 230 230 230 18 18 18 18 18 18 230 230 230 230 230 230 230 230 18 18 18 18 18 18 230 18 18 18 18 18 18 18 18 18 18 230 18 18 18 18 18 18 18 18 18 230 230 18 18 18 18 18 18 18 18 18 230 230 230 18 18 18 18 18 18 230 230 230 18 18 18 18 18 18 230 230 230 230 230 230 230 230 18 18 18 18 18 18 230 18 18 18 18 18 18 18 18 18 18 230 18 18 18 18 18 18 18 18 18 230 230 18 18 18 18 18 18 18 18 18 230 230 230 18 18 18 18 18 18 230 230 230 18 18 18 18 18 18 230 230 230 230 230 230 230 230 18 18 18 18 18 18 230 18 18 18 18 18 18 18 18 18 18 230 18 18 18 18 18 18 18 18 18 230 230 18 18 18 18 18 18 18 18 18 230 230 230 18 18 18 18 18 18 230 230 230 18 18
18 18 18 230 230 18 18 18 18 18 18 230 230 18 18 18 18 18 230 18 18 18 18 18 18 18 18 18 18 230 18 18 18 18 18 18 18 18 18 230 230 18 18 18 18 18 18 18 18 18 18 230 230 230 18 18 18 18 230 230 230 18 18 18 18 18 18 230 230 18 18 18 18 18 18 230 230 18 18 18 18 18 230 18 18 18 18 18 18 18 18 18 18 230 18 18 18 18 18 18 18 18 18 230 230 18 18 18 18 18 18 18 18 18 18 230 230 230 18 18 18 18 230 230 230 18 18 18 18 18 18 230 230 18 18 18 18 18 18 230 230 18 18 18 18 18 230 18 18 18 18 18 18 18 18 18 18 230 18 18 18 18 18 18 18 18 18 230 230 18 18 18 18 18 18 18 18 18 18 230 230 230 18 18 18 18 230 230 230 18 18 18 18 18 18 230 230 18 18 18 18 18 18 230 230 18 18 18 18 18 230 18 18 18 18 18 18 18 18 18 18 230 18 18 18 18 18 18 18 18 18 230 230 18 18 18 18 18 18 18 18 18 18 230 230 230 18 18 18 18 230 230 230 18 18 18 18 18 18 230 230 18 18 18 18 18 18 230 230 18 18 18 18 18 230 18 18 18 18 18 18 18 18 18 18 230 18 18 18 18 18 18 18 18 18 230 230 18 18 18 18 18 18 18 18 18 18 230 230 230 18 18 18 18 230 230 230 18 18 18
18 18 230 230 18 18 18 18 18 18 18 18 230 230 18 18 18 18 230 18 18 18 18 18 18 18 18 18 18 230 18 18 18 18 18 18 18 18 18 230 230 18 18 18 18 18 18 18 18 18 18 18 230 230 230 18 18 230 230 230 18 18 18 18 18 18 230 230 18 18 18 18 18 18 18 18 230 230 18 18 18 18 230 18 18 18 18 18 18 18 18 18 18 230 18 18 18 18 18 18 18 18 18 230 230 18 18 18 18 18 18 18 18 18 18 18 230 230 230 18 18 230 230 230 18 18 18 18 18 18 230 230 18 18 18 18 18 18 18 18 230 230 18 18 18 18 230 18 18 18 18 18 18 18 18 18 18 230 18 18 18 18 18 18 18 18 18 230 230 18 18 18 18 18 18 18 18 18 18 18 230 230 230 18 18 230 230 230 18 18 18 18 18 18 230 230 18 18 18 18 18 18 18 18 230 230 18 18 18 18 230 18 18 18 18 18 18 18 18 18 18 230 18 18 18 18 18 18 18 18 18 230 230 18 18 18 18 18 18 18 18 18 18 18 230 230 230 18 18 230 230 230 18 18 18 18 18 18 230 230 18 18 18 18 18 18 18 18 230 230 18 18 18 18 230 18 18 18 18 18 18 18 18 18 18 230 18 18 18 18 18 18 18 18 18 230 230 18 18 18 18 18 18 18 18 18 18 18 230 230 230 18 18 230 230 230 18 18 18 18
18 18 230 230 18 18 18 18 18 18 18 18 230 230 18 18 18 18 230 18 18 18 18 18 18 18 18 18 18 230 18 18 18 18 18 18 18 18 18 230 230 18 18 18 18 18 18 18 18 18 18 18 18 230 230 230 230 230 230 18 18 18 18 18 18 18 230 230 18 18 18 18 18 18 18 18 230 230 18 18 18 18 230 18 18 18 18 18 18 18 18 18 18 230 18 18 18 18 18 18 18 18 18 230 230 18 18 18 18 18 18 18 18 18 18 18 18 230 230 230 230 230 230 18 18 18 18 18 18 18 230 230 18 18 18 18 18 18 18 18 230 230 18 18 18 18 230 18 18 18 18 18 18 18 18 18 18 230 18 18 18 18 18 18 18 18 18 230 230 18 18 18 18 18 18 18 18 18 18 18 18 230 230 230 230 230 230 18 18 18 18 18 18 18 230 230 18 18 18 18 18 18 18 18 230 230 18 18 18 18 230 18 18 18 18 18 18 18 18 18 18 230 18 18 18 18 18 18 18 18 18 230 230 18 18 18 18 18 18 18 18 18 18 18 18 230 230 230 230 230 230 18 18 18 18 18 18 18 230 230 18 18 18 18 18 18 18 18 230 230 18 18 18 18 230 18 18 18 18 18 18 18 18 18 18 230 18 18 18 18 18 18 18 18 18 230 230 18 18 18 18 18 18 18 18 18 18 18 18 230 230 230 230 230 230 18 18 18 18 18
18 18 230 230 18 18 18 18 18 18 18 18 230 230 18 18 18 18 230 18 18 18 18 18 18 18 18 18 18 230 18 18 230 230 230 230 230 230 230 230 230 230 230 230 230 230 230 230 18 18 18 18 18 18 230 230 230 230 18 18 18 18 18 18 18 18 230 230 18 18 18 18 18 18 18 18 230 230 18 18 18 18 230 18 18 18 18 18 18 18 18 18 18 230 18 18 230 230 230 230 230 230 230 230 230 230 230 230 230 230 230 230 18 18 18 18 18 18 230 230 230 230 18 18 18 18 18 18 18 18 230 230 18 18 18 18 18 18 18 18 230 230 18 18 18 18 230 18 18 18 18 18 18 18 18 18 18 230 18 18 230 230 230 230 230 230 230 230 230 230 230 230 230 230 230 230 18 18 18 18 18 18 230 230 230 230 18 18 18 18 18 18 18 18 230 230 18 18 18 18 18 18 18 18 230 230 18 18 18 18 230 18 18 18 18 18 18 18 18 18 18 230 18 18 230 230 230 230 230 230 230 230 230 230 230 230 230 230 230 230 18 18 18 18 18 18 230 230 230 230 18 18 18 18 18 18 18 18 230 230 18 18 18 18 18 18 18 18 230 230 18 18 18 18 230 18 18 18 18 18 18 18 18 18 18 230 18 18 230 230 230 230 230 230 230 230 230 230 230 230 230 230 230 230 18 18 18 18 18 18 230 230 230 230 18 18 18 18 18 18
18 18 230 230 18 18 18 18 18 18 18 18 230 230 18 18 18 18 230 18 18 18 18 18 18 18 18 18 18 230 18 18 230 230 230 230 230 230 230 230 230 230 230 230 230 230 230 230 18 18 18 18 18 18 230 230 230 230 18 18 18 18 18 18 18 18 230 230 18 18 18 18 18 18 18 18 230 230 18 18 18 18 230 18 18 18 18 18 18 18 18 18 18 230 18 18 230 230 230 230 230 230 230 230 230 230 230 230 230 230 230 230 18 18 18 18 18 18 230 230 230 230 18 18 18 18 18 18 18 18 230 230 18 18 18 18 18 18 18 18 230 230 18 18 18 18 230 18 18 18 18 18 18 18 18 18 18 230 18 18 230 230 230 230 230 230 230 230 230 230 230 230 230 230 230 230 18 18 18 18 18 18 230 230 230 230 18 18 18 18 18 18 18 18 230 230 18 18 18 18 18 18 18 18 230 230 18 18 18 18 230 18 18 18 18 18 18 18 18 18 18 230 18 18 230 230 230 230 230 230 230 230 230 230 230 230 230 230 230 230 18 18 18 18 18 18 230 230 230 230 18 18 18 18 18 18 18 18 230 230 18 18 18 18 18 18 18 18 230 230 18 18 18 18 230 18 18 18 18 18 18 18 18 18 18 230 18 18 230 230 230 230 230 230 230 230 230 230 230 230 230 230 230 230 18 18 18 18 18 18 230 230 230 230 18 18 18 18 18 18
18 18 230 230 18 18 18 18 18 18 18 18 230 230 18 18 18 18 230 18 18 18 18 18 18 18 18 18 18 230 18 18 18 18 18 18 18 18 18 230 230 18 18 18 18 18 18 18 18 18 18 18 18 230 230 230 230 230 230 18 18 18 18 18 18 18 230 230 18 18 18 18 18 18 18 18 230 230 18 18 18 18 230 18 18 18 18 18 18 18 18 18 18 230 18 18 18 18 18 18 18 18 18 230 230 18 18 18 18 18 18 18 18 18 18 18 18 230 230 230 230 230 230 18 18 18 18 18 18 18 230 230 18 18 18 18 18 18 18 18 230 230 18 18 18 18 230 18 18 18 18 18 18 18 18 18 18 230 18 18 18 18 18 18 18 18 18 230 230 18 18 18 18 18 18 18 18 18 18 18 18 230 230 230 230 230 230 18 18 18 18 18 18 18 230 230 18 18 18 18 18 18 18 18 230 230 18 18 18 18 230 18 18 18 18 18 18 18 18 18 18 230 18 18 18 18 18 18 18 18 18 230 230 18 18 18 18 18 18 18 18 18 18 18 18 230 230 230 230 230 230 18 18 18 18 18 18 18 230 230 18 18 18 18 18 18 18 18 230 230 18 18 18 18 230 18 18 18 18 18 18 18 18 18 18 230 18 18 18 18 18 18 18 18 18 230 230 18 18 18 18 18 18 18 18 18 18 18 18 230 230 230 230 230 230 18 18 18 18 18
18 18 230 230 18 18 18 18 18 18 18 18 230 230 18 18 18 18 230 18 18 18 18 18 18 18 18 18 18 230 18 18 18 18 18 18 18 18 18 230 230 18 18 18 18 18 18 18 18 18 18 18 230 230 230 18 18 230 230 230 18 18 18 18 18 18 230 230 18 18 18 18 18 18 18 18 230 230 18 18 18 18 230 18 18 18 18 18 18 18 18 18 18 230 18 18 18 18 18 18 18 18 18 230 230 18 18 18 18 18 18 18 18 18 18 18 230 230 230 18 18 230 230 230 18 18 18 18 18 18 230 230 18 18 18 18 18 18 18 18 230 230 18 18 18 18 230 18 18 18 18 18 18 18 18 18 18 230 18 18 18 18 18 18 18 18 18 230 230 18 18 18 18 18 18 18 18 18 18 18 230 230 230 18 18 230 230 230 18 18 18 18 18 18 230 230 18 18 18 18 18 18 18 18 230 230 18 18 18 18 230 18 18 18 18 18 18 18 18 18 18 230 18 18 18 18 18 18 18 18 18 230 230 18 18 18 18 18 18 18 18 18 18 18 230 230 230 18 18 230 230 230 18 18 18 18 18 18 230 230 18 18 18 18 18 18 18 18 230 230 18 18 18 18 230 18 18 18 18 18 18 18 18 18 18 230 18 18 18 18 18 18 18 18 18 230 230 18 18 18 18 18 18 18 18 18 18 18 230 230 230 18 18 230 230 230 18 18 18 18
18 18 18 230 230 18 18 18 18 18 18 230 230 18 18 18 18 18 230 18 18 18 18 18 18 18 18 18 18 230 18 18 18 18 18 18 18 18 18 230 230 18 18 18 18 18 18 18 18 18 18 230 230 230 18 18 18 18 230 230 230 18 18 18 18 18 18 230 230 18 18 18 18 18 18 230 230 18 18 18 18 18 230 18 18 18 18 18 18 18 18 18 18 230 18 18 18 18 18 18 18 18 18 230 230 18 18 18 18 18 18 18 18 18 18 230 230 230 18 18 18 18 230 230 230 18 18 18 18 18 18 230 230 18 18 18 18 18 18 230 230 18 18 18 18 18 230 18 18 18 18 18 18 18 18 18 18 230 18 18 18 18 18 18 18 18 18 230 230 18 18 18 18 18 18 18 18 18 18 230 230 230 18 18 18 18 230 230 230 18 18 18 18 18 18 230 230 18 18 18 18 18 18 230 230 18 18 18 18 18 230 18 18 18 18 18 18 18 18 18 18 230 18 18 18 18 18 18 18 18 18 230 230 18 18 18 18 18 18 18 18 18 18 230 230 230 18 18 18 18 230 230 230 18 18 18 18 18 18 230 230 18 18 18 18 18 18 230 230 18 18 18 18 18 230 18 18 18 18 18 18 18 18 18 18 230 18 18 18 18 18 18 18 18 18 230 230 18 18 18 18 18 18 18 18 18 18 230 230 230 18 18 18 18 230 230 230 18 18 18
18 18 18 18 230 230 230 230 230 230 230 230 18 18 18 18 18 18 230 18 18 18 18 18 18 18 18 18 18 230 18 18 18 18 18 18 18 18 18 230 230 18 18 18 18 18 18 18 18 18 230 230 230 18 18 18 18 18 18 230 230 230 18 18 18 18 18 18 230 230 230 230 230 230 230 230 18 18 18 18 18 18 230 18 18 18 18 18 18 18 18 18 18 230 18 18 18 18 18 18 18 18 18 230 230 18 18 18 18 18 18 18 18 18 230 230 230 18 18 18 18 18 18 230 230 230 18 18 18 18 18 18 230 230 230 230 230 230 230 230 18 18 18 18 18 18 230 18 18 18 18 18 18 18 18 18 18 230 18 18 18 18 18 18 18 18 18 230 230 18 18 18 18 18 18 18 18 18 230 230 230 18 18 18 18 18 18 230 230 230 18 18 18 18 18 18 230 230 230 230 230 230 230 230 18 18 18 18 18 18 230 18 18 18 18 18 18 18 18 18 18 230 18 18 18 18 18 18 18 18 18 230 230 18 18 18 18 18 18 18 18 18 230 230 230 18 18 18 18 18 18 230 230 230 18 18 18 18 18 18 230 230 230 230 230 230 230 230 18 18 18 18 18 18 230 18 18 18 18 18 18 18 18 18 18 230 18 18 18 18 18 18 18 18 18 230 230 18 18 18 18 18 18 18 18 18 230 230 230 18 18 18 18 18 18 230 230 230 18 18
18 18 18 18 18 230 230 230 230 230 230 18 18 18 18 18 18 18 230 230 230 230 230 230 230 230 230 230 230 230 18 18 18 18 18 18 18 18 18 230 230 18 18 18 18 18 18 18 18 230 230 230 18 18 18 18 18 18 18 18 230 230 230 18 18 18 18 18 18 230 230 230 230 230 230 18 18 18 18 18 18 18 230 230 230 230 230 230 230 230 230 230 230 230 18 18 18 18 18 18 18 18 18 230 230 18 18 18 18 18 18 18 18 230 230 230 18 18 18 18 18 18 18 18 230 230 230 18 18 18 18 18 18 230 230 230 230 230 230 18 18 18 18 18 18 18 230 230 230 230 230 230 230 230 230 230 230 230 18 18 18 18 18 18 18 18 18 230 230 18 18 18 18 18 18 18 18 230 230 230 18 18 18 18 18 18 18 18 230 230 230 18 18 18 18 18 18 230 230 230 230 230 230 18 18 18 18 18 18 18 230 230 230 230 230 230 230 230 230 230 230 230 18 18 18 18 18 18 18 18 18 230 230 18 18 18 18 18 18 18 18 230 230 230 18 18 18 18 18 18 18 18 230 230 230 18 18 18 18 18 18 230 230 230 230 230 230 18 18 18 18 18 18 18 230 230 230 230 230 230 230 230 230 230 230 230 18 18 18 18 18 18 18 18 18 230 230 18 18 18 18 18 18 18 18 230 230 230 18 18 18 18 18 18 18 18 230 230 230 18
18 18 18 18 18 18 18 18 18 18 18 18 18 18 18 18 18 18 18 18 18 18 18 18 18 18 18 18 18 18 18 18 18 18 18 18 18 18 18 230 230 18 18 18 18 18 18 18 230 230 230 18 18 18 18 18 18 18 18 18 18 230 230 230 18 18 18 18 18 18 18 18 18 18 18 18 18 18 18 18 18 18 18 18 18 18 18 18 18 18 18 18 18 18 18 18 18 18 18 18 18 18 18 230 230 18 18 18 18 18 18 18 230 230 230 18 18 18 18 18 18 18 18 18 18 230 230 230 18 18 18 18 18 18 18 18 18 18 18 18 18 18 18 18 18 18 18 18 18 18 18 18 18 18 18 18 18 18 18 18 18 18 18 18 18 18 18 230 230 18 18 18 18 18 18 18 230 230 230 18 18 18 18 18 18 18 18 18 18 230 230 230 18 18 18 18 18 18 18 18 18 18 18 18 18 18 18 18 18 18 18 18 18 18 18 18 18 18 18 18 18 18 18 18 18 18 18 18 18 18 18 230 230 18 18 18 18 18 18 18 230 230 230 18 18 18 18 18 18 18 18 18 18 230 230 230 18 18 18 18 18 18 18 18 18 18 18 18 18 18 18 18 18 18 18 18 18 18 18 18 18 18 18 18 18 18 18 18 18 18 18 18 18 18 18 230 230 18 18 18 18 18 18 18 230 230 230 18 18 18 18 18 18 18 18 18 18 230 230 230
18 18 18 18 18 18 18 18 18 18 18 18 18 18 18 18 18 18 18 18 18 18 18 18 18 18 18 18 18 18 18 18 18 18 18 18 18 18 18 230 230 18 18 18 18 18 18 18 230 230 18 18 18 18 18 18 18 18 18 18 18 18 230 230 18 18 18 18 18 18 18 18 18 18 18 18 18 18 18 18 18 18 18 18 18 18 18 18 18 18 18 18 18 18 18 18 18 18 18 18 18 18 18 230 230 18 18 18 18 18 18 18 230 230 18 18 18 18 18 18 18 18 18 18 18 18 230 230 18 18 18 18 18 18 18 18 18 18 18 18 18 18 18 18 18 18 18 18 18 18 18 18 18 18 18 18 18 18 18 18 18 18 18 18 18 18 18 230 230 18 18 18 18 18 18 18 230 230 18 18 18 18 18 18 18 18 18 18 18 18 230 230 18 18 18 18 18 18 18 18 18 18 18 18 18 18 18 18 18 18 18 18 18 18 18 18 18 18 18 18 18 18 18 18 18 18 18 18 18 18 18 230 230 18 18 18 18 18 18 18 230 230 18 18 18 18 18 18 18 18 18 18 18 18 230 230 18 18 18 18 18 18 18 18 18 18 18 18 18 18 18 18 18 18 18 18 18 18 18 18 18 18 18 18 18 18 18 18 18 18 18 18 18 18 18 230 230 18 18 18 18 18 18 18 230 230 18 18 18 18 18 18 18 18 18 18 18 18 230 230
18 18 18 18 18 18 18 18 18 18 18 18 18 18 18 18 18 18 18 18 18 18 18 18 18 18 18 18 18 18 18 18 18 18 18 18 18 18 18 230 230 18 18 18 18 18 18 18 230 230 18 18 18 18 18 18 18 18 18 18 18 18 230 230 18 18 18 18 18 18 18 18 18 18 18 18 18 18 18 18 18 18 18 18 18 18 18 18 18 18 18 18 18 18 18 18 18 18 18 18 18 18 18 230 230 18 18 18 18 18 18 18 230 230 18 18 18 18 18 18 18 18 18 18 18 18 230 230 18 18 18 18 18 18 18 18 18 18 18 18 18 18 18 18 18 18 18 18 18 18 18 18 18 18 18 18 18 18 18 18 18 18 18 18 18 18 18 230 230 18 18 18 18 18 18 18 230 230 18 18 18 18 18 18 18 18 18 18 18 18 230 230 18 18 18 18 18 18 18 18 18 18 18 18 18 18 18 18 18 18 18 18 18 18 18 18 18 18 18 18 18 18 18 18 18 18 18 18 18 18 18 230 230 18 18 18 18 18 18 18 230 230 18 18 18 18 18 18 18 18 18 18 18 18 230 230 18 18 18 18 18 18 18 18 18 18 18 18 18 18 18 18 18 18 18 18 18 18 18 18 18 18 18 18 18 18 18 18 18 18 18 18 18 18 18 230 230 18 18 18 18 18 18 18 230 230 18 18 18 18 18 18 18 18 18 18 18 18 230 230
18 18 18 18 18 18 18 18 18 18 18 18 18 18 18 18 18 18 18 18 18 18 18 18 18 18 18 18 18 18 18 18 18 18 18 18 18 18 18 230 230 18 18 18 18 18 18 18 230 230 230 18 18 18 18 18 18 18 18 18 18 230 230 230 18 18 18 18 18 18 18 18 18 18 18 18 18 18 18 18 18 18 18 18 18 18 18 18 18 18 18 18 18 18 18 18 18 18 18 18 18 18 18 230 230 18 18 18 18 18 18 18 230 230 230 18 18 18 18 18 18 18 18 18 18 230 230 230 18 18 18 18 18 18 18 18 18 18 18 18 18 18 18 18 18 18 18 18 18 18 18 18 18 18 18 18 18 18 18 18 18 18 18 18 18 18 18 230 230 18 18 18 18 18 18 18 230 230 230 18 18 18 18 18 18 18 18 18 18 230 230 230 18 18 18 18 18 18 18 18 18 18 18 18 18 18 18 18 18 18 18 18 18 18 18 18 18 18 18 18 18 18 18 18 18 18 18 18 18 18 18 230 230 18 18 18 18 18 18 18 230 230 230 18 18 18 18 18 18 18 18 18 18 230 230 230 18 18 18 18 18 18 18 18 18 18 18 18 18 18 18 18 18 18 18 18 18 18 18 18 18 18 18 18 18 18 18 18 18 18 18 18 18 18 18 230 230 18 18 18 18 18 18 18 230 230 230 18 18 18 18 18 18 18 18 18 18 230 230 230
18 18 18 18 18 230 230 230 230 230 230 18 18 18 18 18 18 18 230 230 230 230 230 230 230 230 230 230 230 230 18 18 18 18 18 18 18 18 18 230 230 18 18 18 18 18 18 18 18 230 230 230 18 18 18 18 18 18 18 18 230 230 230 18 18 18 18 18 18 230 230 230 230 230 230 18 18 18 18 18 18 18 230 230 230 230 230 230 230 230 230 230 230 230 18 18 18 18 18 18 18 18 18 230 230 18 18 18 18 18 18 18 18 230 230 230 18 18 18 18 18 18 18 18 230 230 230 18 18 18 18 18 18 230 230 230 230 230 230 18 18 18 18 18 18 18 230 230 230 230 230 230 230 230 230 230 230 230 18 18 18 18 18 18 18 18 18 230 230 18 18 18 18 18 18 18 18 230 230 230 18 18 18 18 18 18 18 18 230 230 230 18 18 18 18 18 18 230 230 230 230 230 230 18 18 18 18 18 18 18 230 230 230 230 230 230 230 230 230 230 230 230 18 18 18 18 18 18 18 18 18 230 230 18 18 18 18 18 18 18 18 230 230 230 18 18 18 18 18 18 18 18 230 230 230 18 18 18 18 18 18 230 230 230 230 230 230 18 18 18 18 18 18 18 230 230 230 230 230 230 230 230 230 230 230 230 18 18 18 18 18 18 18 18 18 230 230 18 18 18 18 18 18 18 18 230 230 230 18 18 18 18 18 18 18 18 230 230 230 18
18 18 18 18 230 230 230 230 230 230 230 230 18 18 18 18 18 18 230 18 18 18 18 18 18 18 18 18 18 230 18 18 18 18 18 18 18 18 18 230 230 18 18 18 18 18 18 18 18 18 230 230 230 18 18 18 18 18 18 230 230 230 18 18 18 18 18 18 230 230 230 230 230 230 230 230 18 18 18 18 18 18 230 18 18 18 18 18 18 18 18 18 18 230 18 18 18 18 18 18 18 18 18 230 230 18 18 18 18 18 18 18 18 18 230 230 230 18 18 18 18 18 18 230 230 230 18 18 18 18 18 18 230 230 230 230 230 230 230 230 18 18 18 18 18 18 230 18 18 18 18 18 18 18 18 18 18 230 18 18 18 18 18 18 18 18 18 230 230 18 18 18 18 18 18 18 18 18 230 230 230 18 18 18 18 18 18 230 230 230 18 18 18 18 18 18 230 230 230 230 230 230 230 230 18 18 18 18 18 18 230 18 18 18 18 18 18 18 18 18 18 230 18 18 18 18 18 18 18 18 18 230 230 18 18 18 18 18 18 18 18 18 230 230 230 18 18 18 18 18 18 230 230 230 18 18 18 18 18 18 230 230 230 230 230 230 230 230 18 18 18 18 18 18 230 18 18 18 18 18 18 18 18 18 18 230 18 18 18 18 18 18 18 18 18 230 230 18 18 18 18 18 18 18 18 18 230 230 230 18 18 18 18 18 18 230 230 230 18 18
18 18 18 230 230 18 18 18 18 18 18 230 230 18 18 18 18 18 230 18 18 18 18 18 18 18 18 18 18 230 18 18 18 18 18 18 18 18 18 230 230 18 18 18 18 18 18 18 18 18 18 230 230 230 18 18 18 18 230 230 230 18 18 18 18 18 18 230 230 18 18 18 18 18 18 230 230 18 18 18 18 18 230 18 18 18 18 18 18 18 18 18 18 230 18 18 18 18 18 18 18 18 18 230 230 18 18 18 18 18 18 18 18 18 18 230 230 230 18 18 18 18 230 230 230 18 18 18 18 18 18 230 230 18 18 18 18 18 18 230 230 18 18 18 18 18 230 18 18 18 18 18 18 18 18 18 18 230 18 18 18 18 18 18 18 18 18 230 230 18 18 18 18 18 18 18 18 18 18 230 230 230 18 18 18 18 230 230 230 18 18 18 18 18 18 230 230 18 18 18 18 18 18 230 230 18 18 18 18 18 230 18 18 18 18 18 18 18 18 18 18 230 18 18 18 18 18 18 18 18 18 230 230 18 18 18 18 18 18 18 18 18 18 230 230 230 18 18 18 18 230 230 230 18 18 18 18 18 18 230 230 18 18 18 18 18 18 230 230 18 18 18 18 18 230 18 18 18 18 18 18 18 18 18 18 230 18 18 18 18 18 18 18 18 18 230 230 18 18 18 18 18 18 18 18 18 18 230 230 230 18 18 18 18 230 230 230 18 18 18
18 18 230 230 18 18 18 18 18 18 18 18 230 230 18 18 18 18 230 18 18 18 18 18 18 18 18 18 18 230 18 18 18 18 18 18 18 18 18 230 230 18 18 18 18 18 18 18 18 18 18 18 230 230 230 18 18 230 230 230 18 18 18 18 18 18 230 230 18 18 18 18 18 18 18 18 230 230 18 18 18 18 230 18 18 18 18 18 18 18 18 18 18 230 18 18 18 18 18 18 18 18 18 230 230 18 18 18 18 18 18 18 18 18 18 18 230 230 230 18 18 230 230 230 18 18 18 18 18 18 230 230 18 18 18 18 18 18 18 18 230 230 18 18 18 18 230 18 18 18 18 18 18 18 18 18 18 230 18 18 18 18 18 18 18 18 18 230 230 18 18 18 18 18 18 18 18 18 18 18 230 230 230 18 18 230 230 230 18 18 18 18 18 18 230 230 18 18 18 18 18 18 18 18 230 230 18 18 18 18 230 18 18 18 18 18 18 18 18 18 18 230 18 18 18 18 18 18 18 18 18 230 230 18 18 18 18 18 18 18 18 18 18 18 230 230 230 18 18 230 230 230 18 18 18 18 18 18 230 230 18 18 18 18 18 18 18 18 230 230 18 18 18 18 230 18 18 18 18 18 18 18 18 18 18 230 18 18 18 18 18 18 18 18 18 230 230 18 18 18 18 18 18 18 18 18 18 18 230 230 230 18 18 230 230 230 18 18 18 18
18 18 230 230 18 18 18 18 18 18 18 18 230 230 18 18 18 18 230 18 18 18 18 18 18 18 18 18 18 230 18 18 18 18 18 18 18 18 18 230 230 18 18 18 18 18 18 18 18 18 18 18 18 230 230 230 230 230 230 18 18 18 18 18 18 18 230 230 18 18 18 18 18 18 18 18 230 230 18 18 18 18 230 18 18 18 18 18 18 18 18 18 18 230 18 18 18 18 18 18 18 18 18 230 230 18 18 18 18 18 18 18 18 18 18 18 18 230 230 230 230 230 230 18 18 18 18 18 18 18 230 230 18 18 18 18 18 18 18 18 230 230 18 18 18 18 230 18 18 18 18 18 18 18 18 18 18 230 18 18 18 18 18 18 18 18 18 230 230 18 18 18 18 18 18 18 18 18 18 18 18 230 230 230 230 230 230 18 18 18 18 18 18 18 230 230 18 18 18 18 18 18 18 18 230 230 18 18 18 18 230 18 18 18 18 18 18 18 18 18 18 230 18 18 18 18 18 18 18 18 18 230 230 18 18 18 18 18 18 18 18 18 18 18 18 230 230 230 230 230 230 18 18 18 18 18 18 18 230 230 18 18 18 18 18 18 18 18 230 230 18 18 18 18 230 18 18 18 18 18 18 18 18 18 18 230 18 18 18 18 18 18 18 18 18 230 230 18 18 18 18 18 18 18 18 18 18 18 18 230 230 230 230 230 230 18 18 18 18 18
18 18 230 230 18 18 18 18 18 18 18 18 230 230 18 18 18 18 230 18 18 18 18 18 18 18 18 18 18 230 18 18 230 230 230 230 230 230 230 230 230 230 230 230 230 230 230 230 18 18 18 18 18 18 230 230 230 230 18 18 18 18 18 18 18 18 230 230 18 18 18 18 18 18 18 18 230 230 18 18 18 18 230 18 18 18 18 18 18 18 18 18 18 230 18 18 230 230 230 230 230 230 230 230 230 230 230 230 230 230 230 230 18 18 18 18 18 18 230 230 230 230 18 18 18 18 18 18 18 18 230 230 18 18 18 18 18 18 18 18 230 230 18 18 18 18 230 18 18 18 18 18 18 18 18 18 18 230 18 18 230 230 230 230 230 230 230 230 230 230 230 230 230 230 230 230 18 18 18 18 18 18 230 230 230 230 18 18 18 18 18 18 18 18 230 230 18 18 18 18 18 18 18 18 230 230 18 18 18 18 230 18 18 18 18 18 18 18 18 18 18 230 18 18 230 230 230 230 230 230 230 230 230 230 230 230 230 230 230 230 18 18 18 18 18 18 230 230 230 230 18 18 18 18 18 18 18 18 230 230 18 18 18 18 18 18 18 18 230 230 18 18 18 18 230 18 18 18 18 18 18 18 18 18 18 230 18 18 230 230 230 230 230 230 230 230 230 230 230 230 230 230 230 230 18 18 18 18 18 18 230 230 230 230 18 18 18 18 18 18
18 18 230 230 18 18 18 18 18 18 18 18 230 230 18 18 18 18 230 18 18 18 18 18 18 18 18 18 18 230 18 18 230 230 230 230 230 230 230 230 230 230 230 230 230 230 230 230 18 18 18 18 18 18 230 230 230 230 18 18 18 18 18 18 18 18 230 230 18 18 18 18 18 18 18 18 230 230 18 18 18 18 230 18 18 18 18 18 18 18 18 18 18 230 18 18 230 230 230 230 230 230 230 230 230 230 230 230 230 230 230 230 18 18 18 18 18 18 230 230 230 230 18 18 18 18 18 18 18 18 230 230 18 18 18 18 18 18 18 18 230 230 18 18 18 18 230 18 18 18 18 18 18 18 18 18 18 230 18 18 230 230 230 230 230 230 230 230 230 230 230 230 230 230 230 230 18 18 18 18 18 18 230 230 230 230 18 18 18 18 18 18 18 18 230 230 18 18 18 18 18 18 18 18 230 230 18 18 18 18 230 18 18 18 18 18 18 18 18 18 18 230 18 18 230 230 230 230 230 230 230 230 230 230 230 230 230 230 230 230 18 18 18 18 18 18 230 230 230 230 18 18 18 18 18 18 18 18 230 230 18 18 18 18 18 18 18 18 230 230 18 18 18 18 230 18 18 18 18 18 18 18 18 18 18 230 18 18 230 230 230 230 230 230 230 230 230 230 230 230 230 230 230 230 18 18 18 18 18 18 230 230 230 230 18 18 18 18 18 18
18 18 230 230 18 18 18 18 18 18 18 18 230 230 18 18 18 18 230 18 18 18 18 18 18 18 18 18 18 230 18 18 18 18 18 18 18 18 18 230 230 18 18 18 18 18 18 18 18 18 18 18 18 230 230 230 230 230 230 18 18 18 18 18 18 18 230 230 18 18 18 18 18 18 18 18 230 230 18 18 18 18 230 18 18 18 18 18 18 18 18 18 18 230 18 18 18 18 18 18 18 18 18 230 230 18 18 18 18 18 18 18 18 18 18 18 18 230 230 230 230 230 230 18 18 18 18 18 18 18 230 230 18 18 18 18 18 18 18 18 230 230 18 18 18 18 230 18 18 18 18 18 18 18 18 18 18 230 18 18 18 18 18 18 18 18 18 230 230 18 18 18 18 18 18 18 18 18 18 18 18 230 230 230 230 230 230 18 18 18 18 18 18 18 230 230 18 18 18 18 18 18 18 18 230 230 18 18 18 18 230 18 18 18 18 18 18 18 18 18 18 230 18 18 18 18 18 18 18 18 18 230 230 18 18 18 18 18 18 18 18 18 18 18 18 230 230 230 230 230 230 18 18 18 18 18 18 18 230 230 18 18 18 18 18 18 18 18 230 230 18 18 18 18 230 18 18 18 18 18 18 18 18 18 18 230 18 18 18 18 18 18 18 18 18 230 230 18 18 18 18 18 18 18 18 18 18 18 18 230 230 230 230 230 230 18 18 18 18 18
18 18 230 230 18 18 18 18 18 18 18 18 230 230 18 18 18 18 230 18 18 18 18 18 18 18 18 18 18 230 18 18 18 18 18 18 18 18 18 230 230 18 18 18 18 18 18 18 18 18 18 18 230 230 230 18 18 230 230 230 18 18 18 18 18 18 230 230 18 18 18 18 18 18 18 18 230 230 18 18 18 18 230 18 18 18 18 18 18 18 18 18 18 230 18 18 18 18 18 18 18 18 18 230 230 18 18 18 18 18 18 18 18 18 18 18 230 230 230 18 18 230 230 230 18 18 18 18 18 18 230 230 18 18 18 18 18 18 18 18 230 230 18 18 18 18 230 18 18 18 18 18 18 18 18 18 18 230 18 18 18 18 18 18 18 18 18 230 230 18 18 18 18 18 18 18 18 18 18 18 230 230 230 18 18 230 230 230 18 18 18 18 18 18 230 230 18 18 18 18 18 18 18 18 230 230 18 18 18 18 230 18 18 18 18 18 18 18 18 18 18 230 18 18 18 18 18 18 18 18 18 230 230 18 18 18 18 18 18 18 18 18 18 18 230 230 230 18 18 230 230 230 18 18 18 18 18 18 230 230 18 18 18 18 18 18 18 18 230 230 18 18 18 18 230 18 18 18 18 18 18 18 18 18 18 230 18 18 18 18 18 18 18 18 18 230 230 18 18 18 18 18 18 18 18 18 18 18 230 230 230 18 18 230 230 230 18 18 18 18
18 18 18 230 230 18 18 18 18 18 18 230 230 18 18 18 18 18 230 18 18 18 18 18 18 18 18 18 18 230 18 18 18 18 18 18 18 18 18 230 230 18 18 18 18 18 18 18 18 18 18 230 230 230 18 18 18 18 230 230 230 18 18 18 18 18 18 230 230 18 18 18 18 18 18 230 230 18 18 18 18 18 230 18 18 18 18 18 18 18 18 18 18 230 18 18 18 18 18 18 18 18 18 230 230 18 18 18 18 18 18 18 18 18 18 230 230 230 18 18 18 18 230 230 230 18 18 18 18 18 18 230 230 18 18 18 18 18 18 230 230 18 18 18 18 18 230 18 18 18 18 18 18 18 18 18 18 230 18 18 18 18 18 18 18 18 18 230 230 18 18 18 18 18 18 18 18 18 18 230 230 230 18 18 18 18 230 230 230 18 18 18 18 18 18 230 230 18 18 18 18 18 18 230 230 18 18 18 18 18 230 18 18 18 18 18 18 18 18 18 18 230 18 18 18 18 18 18 18 18 18 230 230 18 18 18 18 18 18 18 18 18 18 230 230 230 18 18 18 18 230 230 230 18 18 18 18 18 18 230 230 18 18 18 18 18 18 230 230 18 18 18 18 18 230 18 18 18 18 18 18 18 18 18 18 230 18 18 18 18 18 18 18 18 18 230 230 18 18 18 18 18 18 18 18 18 18 230 230 230 18 18 18 18 230 230 230 18 18 18
18 18 18 18 230 230 230 230 230 230 230 230 18 18 18 18 18 18 230 18 18 18 18 18 18 18 18 18 18 230 18 18 18 18 18 18 18 18 18 230 230 18 18 18 18 18 18 18 18 18 230 230 230 18 18 18 18 18 18 230 230 230 18 18 18 18 18 18 230 230 230 230 230 230 230 230 18 18 18 18 18 18 230 18 18 18 18 18 18 18 18 18 18 230 18 18 18 18 18 18 18 18 18 230 230 18 18 18 18 18 18 18 18 18 230 230 230 18 18 18 18 18 18 230 230 230 18 18 18 18 18 18 230 230 230 230 230 230 230 230 18 18 18 18 18 18 230 18 18 18 18 18 18 18 18 18 18 230 18 18 18 18 18 18 18 18 18 230 230 18 18 18 18 18 18 18 18 18 230 230 230 18 18 18 18 18 18 230 230 230 18 18 18 18 18 18 230 230 230 230 230 230 230 230 18 18 18 18 18 18 230 18 18 18 18 18 18 18 18 18 18 230 18 18 18 18 18 18 18 18 18 230 230 18 18 18 18 18 18 18 18 18 230 230 230 18 18 18 18 18 18 230 230 230 18 18 18 18 18 18 230 230 230 230 230 230 230 230 18 18 18 18 18 18 230 18 18 18 18 18 18 18 18 18 18 230 18 18 18 18 18 18 18 18 18 230 230 18 18 18 18 18 18 18 18 18 230 230 230 18 18 18 18 18 18 230 230 230 18 18
18 18 18 18 18 230 230 230 230 230 230 18 18 18 18 18 18 18 230 230 230 230 230 230 230 230 230 230 230 230 18 18 18 18 18 18 18 18 18 230 230 18 18 18 18 18 18 18 18 230 230 230 18 18 18 18 18 18 18 18 230 230 230 18 18 18 18 18 18 230 230 230 230 230 230 18 18 18 18 18 18 18 230 230 230 230 230 230 230 230 230 230 230 230 18 18 18 18 18 18 18 18 18 230 230 18 18 18 18 18 18 18 18 230 230 230 18 18 18 18 18 18 18 18 230 230 230 18 18 18 18 18 18 230 230 230 230 230 230 18 18 18 18 18 18 18 230 230 230 230 230 230 230 230 230 230 230 230 18 18 18 18 18 18 18 18 18 230 230 18 18 18 18 18 18 18 18 230 230 230 18 18 18 18 18 18 18 18 230 230 230 18 18 18 18 18 18 230 230 230 230 230 230 18 18 18 18 18 18 18 230 230 230 230 230 230 230 230 230 230 230 230 18 18 18 18 18 18 18 18 18 230 230 18 18 18 18 18 18 18 18 230 230 230 18 18 18 18 18 18 18 18 230 230 230 18 18 18 18 18 18 230 230 230 230 230 230 18 18 18 18 18 18 18 230 230 230 230 230 230 230 230 230 230 230 230 18 18 18 18 18 18 18 18 18 230 230 18 18 18 18 18 18 18 18 230 230 230 18 18 18 18 18 18 18 18 230 230 230 18
18 18 18 18 18 18 18 18 18 18 18 18 18 18 18 18 18 18 18 18 18 18 18 18 18 18 18 18 18 18 18 18 18 18 18 18 18 18 18 230 230 18 18 18 18 18 18 18 230 230 230 18 18 18 18 18 18 18 18 18 18 230 230 230 18 18 18 18 18 18 18 18 18 18 18 18 18 18 18 18 18 18 18 18 18 18 18 18 18 18 18 18 18 18 18 18 18 18 18 18 18 18 18 230 230 18 18 18 18 18 18 18 230 230 230 18 18 18 18 18 18 18 18 18 18 230 230 230 18 18 18 18 18 18 18 18 18 18 18 18 18 18 18 18 18 18 18 18 18 18 18 18 18 18 18 18 18 18 18 18 18 18 18 18 18 18 18 230 230 18 18 18 18 18 18 18 230 230 230 18 18 18 18 18 18 18 18 18 18 230 230 230 18 18 18 18 18 18 18 18 18 18 18 18 18 18 18 18 18 18 18 18 18 18 18 18 18 18 18 18 18 18 18 18 18 18 18 18 18 18 18 230 230 18 18 18 18 18 18 18 230 230 230 18 18 18 18 18 18 18 18 18 18 230 230 230 18 18 18 18 18 18 18 18 18 18 18 18 18 18 18 18 18 18 18 18 18 18 18 18 18 18 18 18 18 18 18 18 18 18 18 18 18 18 18 230 230 18 18 18 18 18 18 18 230 230 230 18 18 18 18 18 18 18 18 18 18 230 230 230
18 18 18 18 18 18 18 18 18 18 18 18 18 18 18 18 18 18 18 18 18 18 18 18 18 18 18 18 18 18 18 18 18 18 18 18 18 18 18 230 230 18 18 18 18 18 18 18 230 230 18 18 18 18 18 18 18 18 18 18 18 18 230 230 18 18 18 18 18 18 18 18 18 18 18 18 18 18 18 18 18 18 18 18 18 18 18 18 18 18 18 18 18 18 18 18 18 18 18 18 18 18 18 230 230 18 18 18 18 18 18 18 230 230 18 18 18 18 18 18 18 18 18 18 18 18 230 230 18 18 18 18 18 18 18 18 18 18 18 18 18 18 18 18 18 18 18 18 18 18 18 18 18 18 18 18 18 18 18 18 18 18 18 18 18 18 18 230 230 18 18 18 18 18 18 18 230 230 18 18 18 18 18 18 18 18 18 18 18 18 230 230 18 18 18 18 18 18 18 18 18 18 18 18 18 18 18 18 18 18 18 18 18 18 18 18 18 18 18 18 18 18 18 18 18 18 18 18 18 18 18 230 230 18 18 18 18 18 18 18 230 230 18 18 18 18 18 18 18 18 18 18 18 18 230 230 18 18 18 18 18 18 18 18 18 18 18 18 18 18 18 18 18 18 18 18 18 18 18 18 18 18 18 18 18 18 18 18 18 18 18 18 18 18 18 230 230 18 18 18 18 18 18 18 230 230 18 18 18 18 18 18 18 18 18 18 18 18 230 230
18 18 18 18 18 18 18 18 18 18 18 18 18 18 18 18 18 18 18 18 18 18 18 18 18 18 18 18 18 18 18 18 18 18 18 18 18 18 18 230 230 18 18 18 18 18 18 18 230 230 18 18 18 18 18 18 18 18 18 18 18 18 230 230 18 18 18 18 18 18 18 18 18 18 18 18 18 18 18 18 18 18 18 18 18 18 18 18 18 18 18 18 18 18 18 18 18 18 18 18 18 18 18 230 230 18 18 18 18 18 18 18 230 230 18 18 18 18 18 18 18 18 18 18 18 18 230 230 18 18 18 18 18 18 18 18 18 18 18 18 18 18 18 18 18 18 18 18 18 18 18 18 18 18 18 18 18 18 18 18 18 18 18 18 18 18 18 230 230 18 18 18 18 18 18 18 230 230 18 18 18 18 18 18 18 18 18 18 18 18 230 230 18 18 18 18 18 18 18 18 18 18 18 18 18 18 18 18 18 18 18 18 18 18 18 18 18 18 18 18 18 18 18 18 18 18 18 18 18 18 18 230 230 18 18 18 18 18 18 18 230 230 18 18 18 18 18 18 18 18 18 18 18 18 230 230 18 18 18 18 18 18 18 18 18 18 18 18 18 18 18 18 18 18 18 18 18 18 18 18 18 18 18 18 18 18 18 18 18 18 18 18 18 18 18 230 230 18 18 18 18 18 18 18 230 230 18 18 18 18 18 18 18 18 18 18 18 18 230 230
18 18 18 18 18 18 18 18 18 18 18 18 18 18 18 18 18 18 18 18 18 18 18 18 18 18 18 18 18 18 18 18 18 18 18 18 18 18 18 230 230 18 18 18 18 18 18 18 230 230 230 18 18 18 18 18 18 18 18 18 18 230 230 230 18 18 18 18 18 18 18 18 18 18 18 18 18 18 18 18 18 18 18 18 18 18 18 18 18 18 18 18 18 18 18 18 18 18 18 18 18 18 18 230 230 18 18 18 18 18 18 18 230 230 230 18 18 18 18 18 18 18 18 18 18 230 230 230 18 18 18 18 18 18 18 18 18 18 18 18 18 18 18 18 18 18 18 18 18 18 18 18 18 18 18 18 18 18 18 18 18 18 18 18 18 18 18 230 230 18 18 18 18 18 18 18 230 230 230 18 18 18 18 18 18 18 18 18 18 230 230 230 18 18 18 18 18 18 18 18 18 18 18 18 18 18 18 18 18 18 18 18 18 18 18 18 18 18 18 18 18 18 18 18 18 18 18 18 18 18 18 230 230 18 18 18 18 18 18 18 230 230 230 18 18 18 18 18 18 18 18 18 18 230 230 230 18 18 18 18 18 18 18 18 18 18 18 18 18 18 18 18 18 18 18 18 18 18 18 18 18 18 18 18 18 18 18 18 18 18 18 18 18 18 18 230 230 18 18 18 18 18 18 18 230 230 230 18 18 18 18 18 18 18 18 18 18 230 230 230
18 18 18 18 18 230 230 230 230 230 230 18 18 18 18 18 18 18 230 230 230 230 230 230 230 230 230 230 230 230 18 18 18 18 18 18 18 18 18 230 230 18 18 18 18 18 18 18 18 230 230 230 18 18 18 18 18 18 18 18 230 230 230 18 18 18 18 18 18 230 230 230 230 230 230 18 18 18 18 18 18 18 230 230 230 230 230 230 230 230 230 230 230 230 18 18 18 18 18 18 18 18 18 230 230 18 18 18 18 18 18 18 18 230 230 230 18 18 18 18 18 18 18 18 230 230 230 18 18 18 18 18 18 230 230 230 230 230 230 18 18 18 18 18 18 18 230 230 230 230 230 230 230 230 230 230 230 230 18 18 18 18 18 18 18 18 18 230 230 18 18 18 18 18 18 18 18 230 230 230 18 18 18 18 18 18 18 18 230 230 230 18 18 18 18 18 18 230 230 230 230 230 230 18 18 18 18 18 18 18 230 230 230 230 230 230 230 230 230 230 230 230 18 18 18 18 18 18 18 18 18 230 230 18 18 18 18 18 18 18 18 230 230 230 18 18 18 18 18 18 18 18 230 230 230 18 18 18 18 18 18 230 230 230 230 230 230 18 18 18 18 18 18 18 230 230 230 230 230 230 230 230 230 230 230 230 18 18 18 18 18 18 18 18 18 230 230 18 18 18 18 18 18 18 18 230 230 230 18 18 18 18 18 18 18 18 230 230 230 18
18 18 18 18 230 230 230 230 230 230 230 230 18 18 18 18 18 18 230 18 18 18 18 18 18 18 18 18 18 230 18 18 18 18 18 18 18 18 18 230 230 18 18 18 18 18 18 18 18 18 230 230 230 18 18 18 18 18 18 230 230 230 18 18 18 18 18 18 230 230 230 230 230 230 230 230 18 18 18 18 18 18 230 18 18 18 18 18 18 18 18 18 18 230 18 18 18 18 18 18 18 18 18 230 230 18 18 18 18 18 18 18 18 18 230 230 230 18 18 18 18 18 18 230 230 230 18 18 18 18 18 18 230 230 230 230 230 230 230 230 18 18 18 18 18 18 230 18 18 18 18 18 18 18 18 18 18 230 18 18 18 18 18 18 18 18 18 230 230 18 18 18 18 18 18 18 18 18 230 230 230 18 18 18 18 18 18 230 230 230 18 18 18 18 18 18 230 230 230 230 230 230 230 230 18 18 18 18 18 18 230 18 18 18 18 18 18 18 18 18 18 230 18 18 18 18 18 18 18 18 18 230 230 18 18 18 18 18 18 18 18 18 230 230 230 18 18 18 18 18 18 230 230 230 18 18 18 18 18 18 230 230 230 230 230 230 230 230 18 18 18 18 18 18 230 18 18 18 18 18 18 18 18 18 18 230 18 18 18 18 18 18 18 18 18 230 230 18 18 18 18 18 18 18 18 18 230 230 230 18 18 18 18 18 18 230 230 230 18 18
18 18 18 230 230 18 18 18 18 18 18 230 230 18 18 18 18 18 230 18 18 18 18 18 18 18 18 18 18 230 18 18 18 18 18 18 18 18 18 230 230 18 18 18 18 18 18 18 18 18 18 230 230 230 18 18 18 18 230 230 230 18 18 18 18 18 18 230 230 18 18 18 18 18 18 230 230 18 18 18 18 18 230 18 18 18 18 18 18 18 18 18 18 230 18 18 18 18 18 18 18 18 18 230 230 18 18 18 18 18 18 18 18 18 18 230 230 230 18 18 18 18 230 230 230 18 18 18 18 18 18 230 230 18 18 18 18 18 18 230 230 18 18 18 18 18 230 18 18 18 18 18 18 18 18 18 18 230 18 18 18 18 18 18 18 18 18 230 230 18 18 18 18 18 18 18 18 18 18 230 230 230 18 18 18 18 230 230 230 18 18 18 18 18 18 230 230 18 18 18 18 18 18 230 230 18 18 18 18 18 230 18 18 18 18 18 18 18 18 18 18 230 18 18 18 18 18 18 18 18 18 230 230 18 18 18 18 18 18 18 18 18 18 230 230 230 18 18 18 18 230 230 230 18 18 18 18 18 18 230 230 18 18 18 18 18 18 230 230 18 18 18 18 18 230 18 18 18 18 18 18 18 18 18 18 230 18 18 18 18 18 18 18 18 18 230 230 18 18 18 18 18 18 18 18 18 18 230 230 230 18 18 18 18 230 230 230 18 18 18
18 18 230 230 18 18 18 18 18 18 18 18 230 230 18 18 18 18 230 18 18 18 18 18 18 18 18 18 18 230 18 18 18 18 18 18 18 18 18 230 230 18 18 18 18 18 18 18 18 18 18 18 230 230 230 18 18 230 230 230 18 18 18 18 18 18 230 230 18 18 18 18 18 18 18 18 230 230 18 18 18 18 230 18 18 18 18 18 18 18 18 18 18 230 18 18 18 18 18 18 18 18 18 230 230 18 18 18 18 18 18 18 18 18 18 18 230 230 230 18 18 230 230 230 18 18 18 18 18 18 230 230 18 18 18 18 18 18 18 18 230 230 18 18 18 18 230 18 18 18 18 18 18 18 18 18 18 230 18 18 18 18 18 18 18 18 18 230 230 18 18 18 18 18 18 18 18 18 18 18 230 230 230 18 18 230 230 230 18 18 18 18 18 18 230 230 18 18 18 18 18 18 18 18 230 230 18 18 18 18 230 18 18 18 18 18 18 18 18 18 18 230 18 18 18 18 18 18 18 18 18 230 230 18 18 18 18 18 18 18 18 18 18 18 230 230 230 18 18 230 230 230 18 18 18 18 18 18 230 230 18 18 18 18 18 18 18 18 230 230 18 18 18 18 230 18 18 18 18 18 18 18 18 18 18 230 18 18 18 18 18 18 18 18 18 230 230 18 18 18 18 18 18 18 18 18 18 18 230 230 230 18 18 230 230 230 18 18 18 18
18 18 230 230 18 18 18 18 18 18 18 18 230 230 18 18 18 18 230 18 18 18 18 18 18 18 18 18 18 230 18 18 18 18 18 18 18 18 18 230 230 18 18 18 18 18 18 18 18 18 18 18 18 230 230 230 230 230 230 18 18 18 18 18 18 18 230 230 18 18 18 18 18 18 18 18 230 230 18 18 18 18 230 18 18 18 18 18 18 18 18 18 18 230 18 18 18 18 18 18 18 18 18 230 230 18 18 18 18 18 18 18 18 18 18 18 18 230 230 230 230 230 230 18 18 18 18 18 18 18 230 230 18 18 18 18 18 18 18 18 230 230 18 18 18 18 230 18 18 18 18 18 18 18 18 18 18 230 18 18 18 18 18 18 18 18 18 230 230 18 18 18 18 18 18 18 18 18 18 18 18 230 230 230 230 230 230 18 18 18 18 18 18 18 230 230 18 18 18 18 18 18 18 18 230 230 18 18 18 18 230 18 18 18 18 18 18 18 18 18 18 230 18 18 18 18 18 18 18 18 18 230 230 18 18 18 18 18 18 18 18 18 18 18 18 230 230 230 230 230 230 18 18 18 18 18 18 18 230 230 18 18 18 18 18 18 18 18 230 230 18 18 18 18 230 18 18 18 18 18 18 18 18 18 18 230 18 18 18 18 18 18 18 18 18 230 230 18 18 18 18 18 18 18 18 18 18 18 18 230 230 230 230 230 230 18 18 18 18 18
18 18 230 230 18 18 18 18 18 18 18 18 230 230 18 18 18 18 230 18 18 18 18 18 18 18 18 18 18 230 18 18 230 230 230 230 230 230 230 230 230 230 230 230 230 230 230 230 18 18 18 18 18 18 230 230 230 230 18 18 18 18 18 18 18 18 230 230 18 18 18 18 18 18 18 18 230 230 18 18 18 18 230 18 18 18 18 18 18 18 18 18 18 230 18 18 230 230 230 230 230 230 230 230 230 230 230 230 230 230 230 230 18 18 18 18 18 18 230 230 230 230 18 18 18 18 18 18 18 18 230 230 18 18 18 18 18 18 18 18 230 230 18 18 18 18 230 18 18 18 18 18 18 18 18 18 18 230 18 18 230 230 230 230 230 230 230 230 230 230 230 230 230 230 230 230 18 18 18 18 18 18 230 230 230 230 18 18 18 18 18 18 18 18 230 230 18 18 18 18 18 18 18 18 230 230 18 18 18 18 230 18 18 18 18 18 18 18 18 18 18 230 18 18 230 230 230 230 230 230 230 230 230 230 230 230 230 230 230 230 18 18 18 18 18 18 230 230 230 230 18 18 18 18 18 18 18 18 230 230 18 18 18 18 18 18 18 18 230 230 18 18 18 18 230 18 18 18 18 18 18 18 18 18 18 230 18 18 230 230 230 230 230 230 230 230 230 230 230 230 230 230 230 230 18 18 18 18 18 18 230 230 230 230 18 18 18 18 18 18
18 18 230 230 18 18 18 18 18 18 18 18 230 230 18 18 18 18 230 18 18 18 18 18 18 18 18 18 18 230 18 18 230 230 230 230 230 230 230 230 230 230 230 230 230 230 230 230 18 18 18 18 18 18 230 230 230 230 18 18 18 18 18 18 18 18 230 230 18 18 18 18 18 18 18 18 230 230 18 18 18 18 230 18 18 18 18 18 18 18 18 18 18 230 18 18 230 230 230 230 230 230 230 230 230 230 230 230 230 230 230 230 18 18 18 18 18 18 230 230 230 230 18 18 18 18 18 18 18 18 230 230 18 18 18 18 18 18 18 18 230 230 18 18 18 18 230 18 18 18 18 18 18 18 18 18 18 230 18 18 230 230 230 230 230 230 230 230 230 230 230 230 230 230 230 230 18 18 18 18 18 18 230 230 230 230 18 18 18 18 18 18 18 18 230 230 18 18 18 18 18 18 18 18 230 230 18 18 18 18 230 18 18 18 18 18 18 18 18 18 18 230 18 18 230 230 230 230 230 230 230 230 230 230 230 230 230 230 230 230 18 18 18 18 18 18 230 230 230 230 18 18 18 18 18 18 18 18 230 230 18 18 18 18 18 18 18 18 230 230 18 18 18 18 230 18 18 18 18 18 18 18 18 18 18 230 18 18 230 230 230 230 230 230 230 230 230 230 230 230 230 230 230 230 18 18 18 18 18 18 230 230 230 230 18 18 18 18 18 18
18 18 230 230 18 18 18 18 18 18 18 18 230 230 18 18 18 18 230 18 18 18 18 18 18 18 18 18 18 230 18 18 18 18 18 18 18 18 18 230 230 18 18 18 18 18 18 18 18 18 18 18 18 230 230 230 230 230 230 18 18 18 18 18 18 18 230 230 18 18 18 18 18 18 18 18 230 230 18 18 18 18 230 18 18 18 18 18 18 18 18 18 18 230 18 18 18 18 18 18 18 18 18 230 230 18 18 18 18 18 18 18 18 18 18 18 18 230 230 230 230 230 230 18 18 18 18 18 18 18 230 230 18 18 18 18 18 18 18 18 230 230 18 18 18 18 230 18 18 18 18 18 18 18 18 18 18 230 18 18 18 18 18 18 18 18 18 230 230 18 18 18 18 18 18 18 18 18 18 18 18 230 230 230 230 230 230 18 18 18 18 18 18 18 230 230 18 18 18 18 18 18 18 18 230 230 18 18 18 18 230 18 18 18 18 18 18 18 18 18 18 230 18 18 18 18 18 18 18 18 18 230 230 18 18 18 18 18 18 18 18 18 18 18 18 230 230 230 230 230 230 18 18 18 18 18 18 18 230 230 18 18 18 18 18 18 18 18 230 230 18 18 18 18 230 18 18 18 18 18 18 18 18 18 18 230 18 18 18 18 18 18 18 18 18 230 230 18 18 18 18 18 18 18 18 18 18 18 18 230 230 230 230 230 230 18 18 18 18 18
18 18 230 230 18 18 18 18 18 18 18 18 230 230 18 18 18 18 230 18 18 18 18 18 18 18 18 18 18 230 18 18 18 18 18 18 18 18 18 230 230 18 18 18 18 18 18 18 18 18 18 18 230 230 230 18 18 230 230 230 18 18 18 18 18 18 230 230 18 18 18 18 18 18 18 18 230 230 18 18 18 18 230 18 18 18 18 18 18 18 18 18 18 230 18 18 18 18 18 18 18 18 18 230 230 18 18 18 18 18 18 18 18 18 18 18 230 230 230 18 18 230 230 230 18 18 18 18 18 18 230 230 18 18 18 18 18 18 18 18 230 230 18 18 18 18 230 18 18 18 18 18 18 18 18 18 18 230 18 18 18 18 18 18 18 18 18 230 230 18 18 18 18 18 18 18 18 18 18 18 230 230 230 18 18 230 230 230 18 18 18 18 18 18 230 230 18 18 18 18 18 18 18 18 230 230 18 18 18 18 230 18 18 18 18 18 18 18 18 18 18 230 18 18 18 18 18 18 18 18 18 230 230 18 18 18 18 18 18 18 18 18 18 18 230 230 230 18 18 230 230 230 18 18 18 18 18 18 230 230 18 18 18 18 18 18 18 18 230 230 18 18 18 18 230 18 18 18 18 18 18 18 18 18 18 230 18 18 18 18 18 18 18 18 18 230 230 18 18 18 18 18 18 18 18 18 18 18 230 230 230 18 18 230 230 230 18 18 18 18
18 18 18 230 230 18 18 18 18 18 18 230 230 18 18 18 18 18 230 18 18 18 18 18 18 18 18 18 18 230 18 18 18 18 18 18 18 18 18 230 230 18 18 18 18 18 18 18 18 18 18 230 230 230 18 18 18 18 230 230 230 18 18 18 18 18 18 230 230 18 18 18 18 18 18 230 230 18 18 18 18 18 230 18 18 18 18 18 18 18 18 18 18 230 18 18 18 18 18 18 18 18 18 230 230 18 18 18 18 18 18 18 18 18 18 230 230 230 18 18 18 18 230 230 230 18 18 18 18 18 18 230 230 18 18 18 18 18 18 230 230 18 18 18 18 18 230 18 18 18 18 18 18 18 18 18 18 230 18 18 18 18 18 18 18 18 18 230 230 18 18 18 18 18 18 18 18 18 18 230 230 230 18 18 18 18 230 230 230 18 18 18 18 18 18 230 230 18 18 18 18 18 18 230 230 18 18 18 18 18 230 18 18 18 18 18 18 18 18 18 18 230 18 18 18 18 18 18 18 18 18 230 230 18 18 18 18 18 18 18 18 18 18 230 230 230 18 18 18 18 230 230 230 18 18 18 18 18 18 230 230 18 18 18 18 18 18 230 230 18 18 18 18 18 230 18 18 18 18 18 18 18 18 18 18 230 18 18 18 18 18 18 18 18 18 230 230 18 18 18 18 18 18 18 18 18 18 230 230 230 18 18 18 18 230 230 230 18 18 18
18 18 18 18 230 230 230 230 230 230 230 230 18 18 18 18 18 18 230 18 18 18 18 18 18 18 18 18 18 230 18 18 18 18 18 18 18 18 18 230 230 18 18 18 18 18 18 18 18 18 230 230 230 18 18 18 18 18 18 230 230 230 18 18 18 18 18 18 230 230 230 230 230 230 230 230 18 18 18 18 18 18 230 18 18 18 18 18 18 18 18 18 18 230 18 18 18 18 18 18 18 18 18 230 230 18 18 18 18 18 18 18 18 18 230 230 230 18 18 18 18 18 18 230 230 230 18 18 18 18 18 18 230 230 230 230 230 230 230 230 18 18 18 18 18 18 230 18 18 18 18 18 18 18 18 18 18 230 18 18 18 18 18 18 18 18 18 230 230 18 18 18 18 18 18 18 18 18 230 230 230 18 18 18 18 18 18 230 230 230 18 18 18 18 18 18 230 230 230 230 230 230 230 230 18 18 18 18 18 18 230 18 18 18 18 18 18 18 18 18 18 230 18 18 18 18 18 18 18 18 18 230 230 18 18 18 18 18 18 18 18 18 230 230 230 18 18 18 18 18 18 230 230 230 18 18 18 18 18 18 230 230 230 230 230 230 230 230 18 18 18 18 18 18 230 18 18 18 18 18 18 18 18 18 18 230 18 18 18 18 18 18 18 18 18 230 230 18 18 18 18 18 18 18 18 18 230 230 230 18 18 18 18 18 18 230 230 230 18 18
18 18 18 18 18 230 230 230 230 230 230 18 18 18 18 18 18 18 230 230 230 230 230 230 230 230 230 230 230 230 18 18 18 18 18 18 18 18 18 230 230 18 18 18 18 18 18 18 18 230 230 230 18 18 18 18 18 18 18 18 230 230 230 18 18 18 18 18 18 230 230 230 230 230 230 18 18 18 18 18 18 18 230 230 230 230 230 230 230 230 230 230 230 230 18 18 18 18 18 18 18 18 18 230 230 18 18 18 18 18 18 18 18 230 230 230 18 18 18 18 18 18 18 18 230 230 230 18 18 18 18 18 18 230 230 230 230 230 230 18 18 18 18 18 18 18 230 230 230 230 230 230 230 230 230 230 230 230 18 18 18 18 18 18 18 18 18 230 230 18 18 18 18 18 18 18 18 230 230 230 18 18 18 18 18 18 18 18 230 230 230 18 18 18 18 18 18 230 230 230 230 230 230 18 18 18 18 18 18 18 230 230 230 230 230 230 230 230 230 230 230 230 18 18 18 18 18 18 18 18 18 230 230 18 18 18 18 18 18 18 18 230 230 230 18 18 18 18 18 18 18 18 230 230 230 18 18 18 18 18 18 230 230 230 230 230 230 18 18 18 18 18 18 18 230 230 230 230 230 230 230 230 230 230 230 230 18 18 18 18 18 18 18 18 18 230 230 18 18 18 18 18 18 18 18 230 230 230 18 18 18 18 18 18 18 18 230 230 230 18
18 18 18 18 18 18 18 18 18 18 18 18 18 18 18 18 18 18 18 18 18 18 18 18 18 18 18 18 18 18 18 18 18 18 18 18 18 18 18 230 230 18 18 18 18 18 18 18 230 230 230 18 18 18 18 18 18 18 18 18 18 230 230 230 18 18 18 18 18 18 18 18 18 18 18 18 18 18 18 18 18 18 18 18 18 18 18 18 18 18 18 18 18 18 18 18 18 18 18 18 18 18 18 230 230 18 18 18 18 18 18 18 230 230 230 18 18 18 18 18 18 18 18 18 18 230 230 230 18 18 18 18 18 18 18 18 18 18 18 18 18 18 18 18 18 18 18 18 18 18 18 18 18 18 18 18 18 18 18 18 18 18 18 18 18 18 18 230 230 18 18 18 18 18 18 18 230 230 230 18 18 18 18 18 18 18 18 18 18 230 230 230 18 18 18 18 18 18 18 18 18 18 18 18 18 18 18 18 18 18 18 18 18 18 18 18 18 18 18 18 18 18 18 18 18 18 18 18 18 18 18 230 230 18 18 18 18 18 18 18 230 230 230 18 18 18 18 18 18 18 18 18 18 230 230 230 18 18 18 18 18 18 18 18 18 18 18 18 18 18 18 18 18 18 18 18 18 18 18 18 18 18 18 18 18 18 18 18 18 18 18 18 18 18 18 230 230 18 18 18 18 18 18 18 230 230 230 18 18 18 18 18 18 18 18 18 18 230 230 230
18 18 18 18 18 18 18 18 18 18 18 18 18 18 18 18 18 18 18 18 18 18 18 18 18 18 18 18 18 18 18 18 18 18 18 18 18 18 18 230 230 18 18 18 18 18 18 18 230 230 18 18 18 18 18 18 18 18 18 18 18 18 230 230 18 18 18 18 18 18 18 18 18 18 18 18 18 18 18 18 18 18 18 18 18 18 18 18 18 18 18 18 18 18 18 18 18 18 18 18 18 18 18 230 230 18 18 18 18 18 18 18 230 230 18 18 18 18 18 18 18 18 18 18 18 18 230 230 18 18 18 18 18 18 18 18 18 18 18 18 18 18 18 18 18 18 18 18 18 18 18 18 18 18 18 18 18 18 18 18 18 18 18 18 18 18 18 230 230 18 18 18 18 18 18 18 230 230 18 18 18 18 18 18 18 18 18 18 18 18 230 230 18 18 18 18 18 18 18 18 18 18 18 18 18 18 18 18 18 18 18 18 18 18 18 18 18 18 18 18 18 18 18 18 18 18 18 18 18 18 18 230 230 18 18 18 18 18 18 18 230 230 18 18 18 18 18 18 18 18 18 18 18 18 230 230 18 18 18 18 18 18 18 18 18 18 18 18 18 18 18 18 18 18 18 18 18 18 18 18 18 18 18 18 18 18 18 18 18 18 18 18 18 18 18 230 230 18 18 18 18 18 18 18 230 230 18 18 18 18 18 18 18 18 18 18 18 18 230 230
18 18 18 18 18 18 18 18 18 18 18 18 18 18 18 18 18 18 18 18 18 18 18 18 18 18 18 18 18 18 18 18 18 18 18 18 18 18 18 230 230 18 18 18 18 18 18 18 230 230 18 18 18 18 18 18 18 18 18 18 18 18 230 230 18 18 18 18 18 18 18 18 18 18 18 18 18 18 18 18 18 18 18 18 18 18 18 18 18 18 18 18 18 18 18 18 18 18 18 18 18 18 18 230 230 18 18 18 18 18 18 18 230 230 18 18 18 18 18 18 18 18 18 18 18 18 230 230 18 18 18 18 18 18 18 18 18 18 18 18 18 18 18 18 18 18 18 18 18 18 18 18 18 18 18 18 18 18 18 18 18 18 18 18 18 18 18 230 230 18 18 18 18 18 18 18 230 230 18 18 18 18 18 18 18 18 18 18 18 18 230 230 18 18 18 18 18 18 18 18 18 18 18 18 18 18 18 18 18 18 18 18 18 18 18 18 18 18 18 18 18 18 18 18 18 18 18 18 18 18 18 230 230 18 18 18 18 18 18 18 230 230 18 18 18 18 18 18 18 18 18 18 18 18 230 230 18 18 18 18 18 18 18 18 18 18 18 18 18 18 18 18 18 18 18 18 18 18 18 18 18 18 18 18 18 18 18 18 18 18 18 18 18 18 18 230 230 18 18 18 18 18 18 18 230 230 18 18 18 18 18 18 18 18 18 18 18 18 230 230
18 18 18 18 18 18 18 18 18 18 18 18 18 18 18 18 18 18 18 18 18 18 18 18 18 18 18 18 18 18 18 18 18 18 18 18 18 18 18 230 230 18 18 18 18 18 18 18 230 230 230 18 18 18 18 18 18 18 18 18 18 230 230 230 18 18 18 18 18 18 18 18 18 18 18 18 18 18 18 18 18 18 18 18 18 18 18 18 18 18 18 18 18 18 18 18 18 18 18 18 18 18 18 230 230 18 18 18 18 18 18 18 230 230 230 18 18 18 18 18 18 18 18 18 18 230 230 230 18 18 18 18 18 18 18 18 18 18 18 18 18 18 18 18 18 18 18 18 18 18 18 18 18 18 18 18 18 18 18 18 18 18 18 18 18 18 18 230 230 18 18 18 18 18 18 18 230 230 230 18 18 18 18 18 18 18 18 18 18 230 230 230 18 18 18 18 18 18 18 18 18 18 18 18 18 18 18 18 18 18 18 18 18 18 18 18 18 18 18 18 18 18 18 18 18 18 18 18 18 18 18 230 230 18 18 18 18 18 18 18 230 230 230 18 18 18 18 18 18 18 18 18 18 230 230 230 18 18 18 18 18 18 18 18 18 18 18 18 18 18 18 18 18 18 18 18 18 18 18 18 18 18 18 18 18 18 18 18 18 18 18 18 18 18 18 230 230 18 18 18 18 18 18 18 230 230 230 18 18 18 18 18 18 18 18 18 18 230 230 230
18 18 18 18 18 230 230 230 230 230 230 18 18 18 18 18 18 18 230 230 230 230 230 230 230 230 230 230 230 230 18 18 18 18 18 18 18 18 18 230 230 18 18 18 18 18 18 18 18 230 230 230 18 18 18 18 18 18 18 18 230 230 230 18 18 18 18 18 18 230 230 230 230 230 230 18 18 18 18 18 18 18 230 230 230 230 230 230 230 230 230 230 230 230 18 18 18 18 18 18 18 18 18 230 230 18 18 18 18 18 18 18 18 230 230 230 18 18 18 18 18 18 18 18 230 230 230 18 18 18 18 18 18 230 230 230 230 230 230 18 18 18 18 18 18 18 230 230 230 230 230 230 230 230 230 230 230 230 18 18 18 18 18 18 18 18 18 230 230 18 18 18 18 18 18 18 18 230 230 230 18 18 18 18 18 18 18 18 230 230 230 18 18 18 18 18 18 230 230 230 230 230 230 18 18 18 18 18 18 18 230 230 230 230 230 230 230 230 230 230 230 230 18 18 18 18 18 18 18 18 18 230 230 18 18 18 18 18 18 18 18 230 230 230 18 18 18 18 18 18 18 18 230 230 230 18 18 18 18 18 18 230 230 230 230 230 230 18 18 18 18 18 18 18 230 230 230 230 230 230 230 230 230 230 230 230 18 18 18 18 18 18 18 18 18 230 230 18 18 18 18 18 18 18 18 230 230 230 18 18 18 18 18 18 18 18 230 230 230 18
18 18 18 18 230 230 230 230 230 230 230 230 18 18 18 18 18 18 230 18 18 18 18 18 18 18 18 18 18 230 18 18 18 18 18 18 18 18 18 230 230 18 18 18 18 18 18 18 18 18 230 230 230 18 18 18 18 18 18 230 230 230 18 18 18 18 18 18 230 230 230 230 230 230 230 230 18 18 18 18 18 18 230 18 18 18 18 18 18 18 18 18 18 230 18 18 18 18 18 18 18 18 18 230 230 18 18 18 18 18 18 18 18 18 230 230 230 18 18 18 18 18 18 230 230 230 18 18 18 18 18 18 230 230 230 230 230 230 230 230 18 18 18 18 18 18 230 18 18 18 18 18 18 18 18 18 18 230 18 18 18 18 18 18 18 18 18 230 230 18 18 18 18 18 18 18 18 18 230 230 230 18 18 18 18 18 18 230 230 230 18 18 18 18 18 18 230 230 230 230 230 230 230 230 18 18 18 18 18 18 230 18 18 18 18 18 18 18 18 18 18 230 18 18 18 18 18 18 18 18 18 230 230 18 18 18 18 18 18 18 18 18 230 230 230 18 18 18 18 18 18 230 230 230 18 18 18 18 18 18 230 230 230 230 230 230 230 230 18 18 18 18 18 18 230 18 18 18 18 18 18 18 18 18 18 230 18 18 18 18 18 18 18 18 18 230 230 18 18 18 18 18 18 18 18 18 230 230 230 18 18 18 18 18 18 230 230 230 18 18
18 18 18 230 230 18 18 18 18 18 18 230 230 18 18 18 18 18 230 18 18 18 18 18 18 18 18 18 18 230 18 18 18 18 18 18 18 18 18 230 230 18 18 18 18 18 18 18 18 18 18 230 230 230 18 18 18 18 230 230 230 18 18 18 18 18 18 230 230 18 18 18 18 18 18 230 230 18 18 18 18 18 230 18 18 18 18 18 18 18 18 18 18 230 18 18 18 18 18 18 18 18 18 230 230 18 18 18 18 18 18 18 18 18 18 230 230 230 18 18 18 18 230 230 230 18 18 18 18 18 18 230 230 18 18 18 18 18 18 230 230 18 18 18 18 18 230 18 18 18 18 18 18 18 18 18 18 230 18 18 18 18 18 18 18 18 18 230 230 18 18 18 18 18 18 18 18 18 18 230 230 230 18 18 18 18 230 230 230 18 18 18 18 18 18 230 230 18 18 18 18 18 18 230 230 18 18 18 18 18 230 18 18 18 18 18 18 18 18 18 18 230 18 18 18 18 18 18 18 18 18 230 230 18 18 18 18 18 18 18 18 18 18 230 230 230 18 18 18 18 230 230 230 18 18 18 18 18 18 230 230 18 18 18 18 18 18 230 230 18 18 18 18 18 230 18 18 18 18 18 18 18 18 18 18 230 18 18 18 18 18 18 18 18 18 230 230 18 18 18 18 18 18 18 18 18 18 230 230 230 18 18 18 18 230 230 230 18 18 18
18 18 230 230 18 18 18 18 18 18 18 18 230 230 18 18 18 18 230 18 18 18 18 18 18 18 18 18 18 230 18 18 18 18 18 18 18 18 18 230 230 18 18 18 18 18 18 18 18 18 18 18 230 230 230 18 18 230 230 230 18 18 18 18 18 18 230 230 18 18 18 18 18 18 18 18 230 230 18 18 18 18 230 18 18 18 18 18 18 18 18 18 18 230 18 18 18 18 18 18 18 18 18 230 230 18 18 18 18 18 18 18 18 18 18 18 230 230 230 18 18 230 230 230 18 18 18 18 18 18 230 230 18 18 18 18 18 18 18 18 230 230 18 18 18 18 230 18 18 18 18 18 18 18 18 18 18 230 18 18 18 18 18 18 18 18 18 230 230 18 18 18 18 18 18 18 18 18 18 18 230 230 230 18 18 230 230 230 18 18 18 18 18 18 230 230 18 18 18 18 18 18 18 18 230 230 18 18 18 18 230 18 18 18 18 18 18 18 18 18 18 230 18 18 18 18 18 18 18 18 18 230 230 18 18 18 18 18 18 18 18 18 18 18 230 230 230 18 18 230 230 230 18 18 18 18 18 18 230 230 18 18 18 18 18 18 18 18 230 230 18 18 18 18 230 18 18 18 18 18 18 18 18 18 18 230 18 18 18 18 18 18 18 18 18 230 230 18 18 18 18 18 18 18 18 18 18 18 230 230 230 18 18 230 230 230 18 18 18 18
18 18 230 230 18 18 18 18 18 18 18 18 230 230 18 18 18 18 230 18 18 18 18 18 18 18 18 18 18 230 18 18 18 18 18 18 18 18 18 230 230 18 18 18 18 18 18 18 18 18 18 18 18 230 230 230 230 230 230 18 18 18 18 18 18 18 230 230 18 18 18 18 18 18 18 18 230 230 18 18 18 18 230 18 18 18 18 18 18 18 18 18 18 230 18 18 18 18 18 18 18 18 18 230 230 18 18 18 18 18 18 18 18 18 18 18 18 230 230 230 230 230 230 18 18 18 18 18 18 18 230 230 18 18 18 18 18 18 18 18 230 230 18 18 18 18 230 18 18 18 18 18 18 18 18 18 18 230 18 18 18 18 18 18 18 18 18 230 230 18 18 18 18 18 18 18 18 18 18 18 18 230 230 230 230 230 230 18 18 18 18 18 18 18 230 230 18 18 18 18 18 18 18 18 230 230 18 18 18 18 230 18 18 18 18 18 18 18 18 18 18 230 18 18 18 18 18 18 18 18 18 230 230 18 18 18 18 18 18 18 18 18 18 18 18 230 230 230 230 230 230 18 18 18 18 18 18 18 230 230 18 18 18 18 18 18 18 18 230 230 18 18 18 18 230 18 18 18 18 18 18 18 18 18 18 230 18 18 18 18 18 18 18 18 18 230 230 18 18 18 18 18 18 18 18 18 18 18 18 230 230 230 230 230 230 18 18 18 18 18
18 18 230 230 18 18 18 18 18 18 18 18 230 230 18 18 18 18 230 18 18 18 18 18 18 18 18 18 18 230 18 18 230 230 230 230 230 230 230 230 230 230 230 230 230 230 230 230 18 18 18 18 18 18 230 230 230 230 18 18 18 18 18 18 18 18 230 230 18 18 18 18 18 18 18 18 230 230 18 18 18 18 230 18 18 18 18 18 18 18 18 18 18 230 18 18 230 230 230 230 230 230 230 230 230 230 230 230 230 230 230 230 18 18 18 18 18 18 230 230 230 230 18 18 18 18 18 18 18 18 230 230 18 18 18 18 18 18 18 18 230 230 18 18 18 18 230 18 18 18 18 18 18 18 18 18 18 230 18 18 230 230 230 230 230 230 230 230 230 230 230 230 230 230 230 230 18 18 18 18 18 18 230 230 230 230 18 18 18 18 18 18 18 18 230 230 18 18 18 18 18 18 18 18 230 230 18 18 18 18 230 18 18 18 18 18 18 18 18 18 18 230 18 18 230 230 230 230 230 230 230 230 230 230 230 230 230 230 230 230 18 18 18 18 18 18 230 230 230 230 18 18 18 18 18 18 18 18 230 230 18 18 18 18 18 18 18 18 230 230 18 18 18 18 230 18 18 18 18 18 18 18 18 18 18 230 18 18 230 230 230 230 230 230 230 230 230 230 230 230 230 230 230 230 18 18 18 18 18 18 230 230 230 230 18 18 18 18 18 18
18 18 230 230 18 18 18 18 18 18 18 18 230 230 18 18 18 18 230 18 18 18 18 18 18 18 18 18 18 230 18 18 230 230 230 230 230 230 230 230 230 230 230 230 230 230 230 230 18 18 18 18 18 18 230 230 230 230 18 18 18 18 18 18 18 18 230 230 18 18 18 18 18 18 18 18 230 230 18 18 18 18 230 18 18 18 18 18 18 18 18 18 18 230 18 18 230 230 230 230 230 230 230 230 230 230 230 230 230 230 230 230 18 18 18 18 18 18 230 230 230 230 18 18 18 18 18 18 18 18 230 230 18 18 18 18 18 18 18 18 230 230 18 18 18 18 230 18 18 18 18 18 18 18 18 18 18 230 18 18 230 230 230 230 230 230 230 230 230 230 230 230 230 230 230 230 18 18 18 18 18 18 230 230 230 230 18 18 18 18 18 18 18 18 230 230 18 18 18 18 18 18 18 18 230 230 18 18 18 18 230 18 18 18 18 18 18 18 18 18 18 230 18 18 230 230 230 230 230 230 230 230 230 230 230 230 230 230 230 230 18 18 18 18 18 18 230 230 230 230 18 18 18 18 18 18 18 18 230 230 18 18 18 18 18 18 18 18 230 230 18 18 18 18 230 18 18 18 18 18 18 18 18 18 18 230 18 18 230 230 230 230 230 230 230 230 230 230 230 230 230 230 230 230 18 18 18 18 18 18 230 230 230 230 18 18 18 18 18 18
18 18 230 230 18 18 18 18 18 18 18 18 230 230 18 18 18 18 230 18 18 18 18 18 18 18 18 18 18 230 18 18 18 18 18 18 18 18 18 230 230 18 18 18 18 18 18 18 18 18 18 18 18 230 230 230 230 230 230 18 18 18 18 18 18 18 230 230 18 18 18 18 18 18 18 18 230 230 18 18 18 18 230 18 18 18 18 18 18 18 18 18 18 230 18 18 18 18 18 18 18 18 18 230 230 18 18 18 18 18 18 18 18 18 18 18 18 230 230 230 230 230 230 18 18 18 18 18 18 18 230 230 18 18 18 18 18 18 18 18 230 230 18 18 18 18 230 18 18 18 18 18 18 18 18 18 18 230 18 18 18 18 18 18 18 18 18 230 230 18 18 18 18 18 18 18 18 18 18 18 18 230 230 230 230 230 230 18 18 18 18 18 18 18 230 230 18 18 18 18 18 18 18 18 230 230 18 18 18 18 230 18 18 18 18 18 18 18 18 18 18 230 18 18 18 18 18 18 18 18 18 230 230 18 18 18 18 18 18 18 18 18 18 18 18 230 230 230 230 230 230 18 18 18 18 18 18 18 230 230 18 18 18 18 18 18 18 18 230 230 18 18 18 18 230 18 18 18 18 18 18 18 18 18 18 230 18 18 18 18 18 18 18 18 18 230 230 18 18 18 18 18 18 18 18 18 18 18 18 230 230 230 230 230 230 18 18 18 18 18
18 18 230 230 18 18 18 18 18 18 18 18 230 230 18 18 18 18 230 18 18 18 18 18 18 18 18 18 18 230 18 18 18 18 18 18 18 18 18 230 230 18 18 18 18 18 18 18 18 18 18 18 230 230 230 18 18 230 230 230 18 18 18 18 18 18 230 230 18 18 18 18 18 18 18 18 230 230 18 18 18 18 230 18 18 18 18 18 18 18 18 18 18 230 18 18 18 18 18 18 18 18 18 230 230 18 18 18 18 18 18 18 18 18 18 18 230 230 230 18 18 230 230 230 18 18 18 18 18 18 230 230 18 18 18 18 18 18 18 18 230 230 18 18 18 18 230 18 18 18 18 18 18 18 18 18 18 230 18 18 18 18 18 18 18 18 18 230 230 18 18 18 18 18 18 18 18 18 18 18 230 230 230 18 18 230 230 230 18 18 18 18 18 18 230 230 18 18 18 18 18 18 18 18 230 230 18 18 18 18 230 18 18 18 18 18 18 18 18 18 18 230 18 18 18 18 18 18 18 18 18 230 230 18 18 18 18 18 18 18 18 18 18 18 230 230 230 18 18 230 230 230 18 18 18 18 18 18 230 230 18 18 18 18 18 18 18 18 230 230 18 18 18 18 230 18 18 18 18 18 18 18 18 18 18 230 18 18 18 18 18 18 18 18 18 230 230 18 18 18 18 18 18 18 18 18 18 18 230 230 230 18 18 230 230 230 18 18 18 18
18 18 18 230 230 18 18 18 18 18 18 230 230 18 18 18 18 18 230 18 18 18 18 18 18 18 18 18 18 230 18 18 18 18 18 18 18 18 18 230 230 18 18 18 18 18 18 18 18 18 18 230 230 230 18 18 18 18 230 230 230 18 18 18 18 18 18 230 230 18 18 18 18 18 18 230 230 18 18 18 18 18 230 18 18 18 18 18 18 18 18 18 18 230 18 18 18 18 18 18 18 18 18 230 230 18 18 18 18 18 18 18 18 18 18 230 230 230 18 18 18 18 230 230 230 18 18 18 18 18 18 230 230 18 18 18 18 18 18 230 230 18 18 18 18 18 230 18 18 18 18 18 18 18 18 18 18 230 18 18 18 18 18 18 18 18 18 230 230 18 18 18 18 18 18 18 18 18 18 230 230 230 18 18 18 18 230 230 230 18 18 18 18 18 18 230 230 18 18 18 18 18 18 230 230 18 18 18 18 18 230 18 18 18 18 18 18 18 18 18 18 230 18 18 18 18 18 18 18 18 18 230 230 18 18 18 18 18 18 18 18 18 18 230 230 230 18 18 18 18 230 230 230 18 18 18 18 18 18 230 230 18 18 18 18 18 18 230 230 18 18 18 18 18 230 18 18 18 18 18 18 18 18 18 18 230 18 18 18 18 18 18 18 18 18 230 230 18 18 18 18 18 18 18 18 18 18 230 230 230 18 18 18 18 230 230 230 18 18 18
18 18 18 18 230 230 230 230 230 230 230 230 18 18 18 18 18 18 230 18 18 18 18 18 18 18 18 18 18 230 18 18 18 18 18 18 18 18 18 230 230 18 18 18 18 18 18 18 18 18 230 230 230 18 18 18 18 18 18 230 230 230 18 18 18 18 18 18 230 230 230 230 230 230 230 230 18 18 18 18 18 18 230 18 18 18 18 18 18 18 18 18 18 230 18 18 18 18 18 18 18 18 18 230 230 18 18 18 18 18 18 18 18 18 230 230 230 18 18 18 18 18 18 230 230 230 18 18 18 18 18 18 230 230 230 230 230 230 230 230 18 18 18 18 18 18 230 18 18 18 18 18 18 18 18 18 18 230 18 18 18 18 18 18 18 18 18 230 230 18 18 18 18 18 18 18 18 18 230 230 230 18 18 18 18 18 18 230 230 230 18 18 18 18 18 18 230 230 230 230 230 230 230 230 18 18 18 18 18 18 230 18 18 18 18 18 18 18 18 18 18 230 18 18 18 18 18 18 18 18 18 230 230 18 18 18 18 18 18 18 18 18 230 230 230 18 18 18 18 18 18 230 230 230 18 18 18 18 18 18 230 230 230 230 230 230 230 230 18 18 18 18 18 18 230 18 18 18 18 18 18 18 18 18 18 230 18 18 18 18 18 18 18 18 18 230 230 18 18 18 18 18 18 18 18 18 230 230 230 18 18 18 18 18 18 230 230 230 18 18
18 18 18 18 18 230 230 230 230 230 230 18 18 18 18 18 18 18 230 230 230 230 230 230 230 230 230 230 230 230 18 18 18 18 18 18 18 18 18 230 230 18 18 18 18 18 18 18 18 230 230 230 18 18 18 18 18 18 18 18 230 230 230 18 18 18 18 18 18 230 230 230 230 230 230 18 18 18 18 18 18 18 230 230 230 230 230 230 230 230 230 230 230 230 18 18 18 18 18 18 18 18 18 230 230 18 18 18 18 18 18 18 18 230 230 230 18 18 18 18 18 18 18 18 230 230 230 18 18 18 18 18 18 230 230 230 230 230 230 18 18 18 18 18 18 18 230 230 230 230 230 230 230 230 230 230 230 230 18 18 18 18 18 18 18 18 18 230 230 18 18 18 18 18 18 18 18 230 230 230 18 18 18 18 18 18 18 18 230 230 230 18 18 18 18 18 18 230 230 230 230 230 230 18 18 18 18 18 18 18 230 230 230 230 230 230 230 230 230 230 230 230 18 18 18 18 18 18 18 18 18 230 230 18 18 18 18 18 18 18 18 230 230 230 18 18 18 18 18 18 18 18 230 230 230 18 18 18 18 18 18 230 230 230 230 230 230 18 18 18 18 18 18 18 230 230 230 230 230 230 230 230 230 230 230 230 18 18 18 18 18 18 18 18 18 230 230 18 18 18 18 18 18 18 18 230 230 230 18 18 18 18 18 18 18 18 230 230 230 18
18 18 18 18 18 18 18 18 18 18 18 18 18 18 18 18 18 18 18 18 18 18 18 18 18 18 18 18 18 18 18 18 18 18 18 18 18 18 18 230 230 18 18 18 18 18 18 18 230 230 230 18 18 18 18 18 18 18 18 18 18 230 230 230 18 18 18 18 18 18 18 18 18 18 18 18 18 18 18 18 18 18 18 18 18 18 18 18 18 18 18 18 18 18 18 18 18 18 18 18 18 18 18 230 230 18 18 18 18 18 18 18 230 230 230 18 18 18 18 18 18 18 18 18 18 230 230 230 18 18 18 18 18 18 18 18 18 18 18 18 18 18 18 18 18 18 18 18 18 18 18 18 18 18 18 18 18 18 18 18 18 18 18 18 18 18 18 230 230 18 18 18 18 18 18 18 230 230 230 18 18 18 18 18 18 18 18 18 18 230 230 230 18 18 18 18 18 18 18 18 18 18 18 18 18 18 18 18 18 18 18 18 18 18 18 18 18 18 18 18 18 18 18 18 18 18 18 18 18 18 18 230 230 18 18 18 18 18 18 18 230 230 230 18 18 18 18 18 18 18 18 18 18 230 230 230 18 18 18 18 18 18 18 18 18 18 18 18 18 18 18 18 18 18 18 18 18 18 18 18 18 18 18 18 18 18 18 18 18 18 18 18 18 18 18 230 230 18 18 18 18 18 18 18 230 230 230 18 18 18 18 18 18 18 18 18 18 230 230 230
18 18 18 18 18 18 18 18 18 18 18 18 18 18 18 18 18 18 18 18 18 18 18 18 18 18 18 18 18 18 18 18 18 18 18 18 18 18 18 230 230 18 18 18 18 18 18 18 230 230 18 18 18 18 18 18 18 18 18 18 18 18 230 230 18 18 18 18 18 18 18 18 18 18 18 18 18 18 18 18 18 18 18 18 18 18 18 18 18 18 18 18 18 18 18 18 18 18 18 18 18 18 18 230 230 18 18 18 18 18 18 18 230 230 18 18 18 18 18 18 18 18 18 18 18 18 230 230 18 18 18 18 18 18 18 18 18 18 18 18 18 18 18 18 18 18 18 18 18 18 18 18 18 18 18 18 18 18 18 18 18 18 18 18 18 18 18 230 230 18 18 18 18 18 18 18 230 230 18 18 18 18 18 18 18 18 18 18 18 18 230 230 18 18 18 18 18 18 18 18 18 18 18 18 18 18 18 18 18 18 18 18 18 18 18 18 18 18 18 18 18 18 18 18 18 18 18 18 18 18 18 230 230 18 18 18 18 18 18 18 230 230 18 18 18 18 18 18 18 18 18 18 18 18 230 230 18 18 18 18 18 18 18 18 18 18 18 18 18 18 18 18 18 18 18 18 18 18 18 18 18 18 18 18 18 18 18 18 18 18 18 18 18 18 18 230 230 18 18 18 18 18 18 18 230 230 18 18 18 18 18 18 18 18 18 18 18 18 230 230
18 18 18 18 18 18 18 18 18 18 18 18 18 18 18 18 18 18 18 18 18 18 18 18 18 18 18 18 18 18 18 18 18 18 18 18 18 18 18 230 230 18 18 18 18 18 18 18 230 230 18 18 18 18 18 18 18 18 18 18 18 18 230 230 18 18 18 18 18 18 18 18 18 18 18 18 18 18 18 18 18 18 18 18 18 18 18 18 18 18 18 18 18 18 18 18 18 18 18 18 18 18 18 230 230 18 18 18 18 18 18 18 230 230 18 18 18 18 18 18 18 18 18 18 18 18 230 230 18 18 18 18 18 18 18 18 18 18 18 18 18 18 18 18 18 18 18 18 18 18 18 18 18 18 18 18 18 18 18 18 18 18 18 18 18 18 18 230 230 18 18 18 18 18 18 18 230 230 18 18 18 18 18 18 18 18 18 18 18 18 230 230 18 18 18 18 18 18 18 18 18 18 18 18 18 18 18 18 18 18 18 18 18 18 18 18 18 18 18 18 18 18 18 18 18 18 18 18 18 18 18 230 230 18 18 18 18 18 18 18 230 230 18 18 18 18 18 18 18 18 18 18 18 18 230 230 18 18 18 18 18 18 18 18 18 18 18 18 18 18 18 18 18 18 18 18 18 18 18 18 18 18 18 18 18 18 18 18 18 18 18 18 18 18 18 230 230 18 18 18 18 18 18 18 230 230 18 18 18 18 18 18 18 18 18 18 18 18 230 230
18 18 18 18 18 18 18 18 18 18 18 18 18 18 18 18 18 18 18 18 18 18 18 18 18 18 18 18 18 18 18 18 18 18 18 18 18 18 18 230 230 18 18 18 18 18 18 18 230 230 230 18 18 18 18 18 18 18 18 18 18 230 230 230 18 18 18 18 18 18 18 18 18 18 18 18 18 18 18 18 18 18 18 18 18 18 18 18 18 18 18 18 18 18 18 18 18 18 18 18 18 18 18 230 230 18 18 18 18 18 18 18 230 230 230 18 18 18 18 18 18 18 18 18 18 230 230 230 18 18 18 18 18 18 18 18 18 18 18 18 18 18 18 18 18 18 18 18 18 18 18 18 18 18 18 18 18 18 18 18 18 18 18 18 18 18 18 230 230 18 18 18 18 18 18 18 230 230 230 18 18 18 18 18 18 18 18 18 18 230 230 230 18 18 18 18 18 18 18 18 18 18 18 18 18 18 18 18 18 18 18 18 18 18 18 18 18 18 18 18 18 18 18 18 18 18 18 18 18 18 18 230 230 18 18 18 18 18 18 18 230 230 230 18 18 18 18 18 18 18 18 18 18 230 230 230 18 18 18 18 18 18 18 18 18 18 18 18 18 18 18 18 18 18 18 18 18 18 18 18 18 18 18 18 18 18 18 18 18 18 18 18 18 18 18 230 230 18 18 18 18 18 18 18 230 230 230 18 18 18 18 18 18 18 18 18 18 230 230 230
18 18 18 18 18 230 230 230 230 230 230 18 18 18 18 18 18 18 230 230 230 230 230 230 230 230 230 230 230 230 18 18 18 18 18 18 18 18 18 230 230 18 18 18 18 18 18 18 18 230 230 230 18 18 18 18 18 18 18 18 230 230 230 18 18 18 18 18 18 230 230 230 230 230 230 18 18 18 18 18 18 18 230 230 230 230 230 230 230 230 230 230 230 230 18 18 18 18 18 18 18 18 18 230 230 18 18 18 18 18 18 18 18 230 230 230 18 18 18 18 18 18 18 18 230 230 230 18 18 18 18 18 18 230 230 230 230 230 230 18 18 18 18 18 18 18 230 230 230 230 230 230 230 230 230 230 230 230 18 18 18 18 18 18 18 18 18 230 230 18 18 18 18 18 18 18 18 230 230 230 18 18 18 18 18 18 18 18 230 230 230 18 18 18 18 18 18 230 230 230 230 230 230 18 18 18 18 18 18 18 230 230 230 230 230 230 230 230 230 230 230 230 18 18 18 18 18 18 18 18 18 230 230 18 18 18 18 18 18 18 18 230 230 230 18 18 18 18 18 18 18 18 230 230 230 18 18 18 18 18 18 230 230 230 230 230 230 18 18 18 18 18 18 18 230 230 230 230 230 230 230 230 230 230 230 230 18 18 18 18 18 18 18 18 18 230 230 18 18 18 18 18 18 18 18 230 230 230 18 18 18 18 18 18 18 18 230 230 230 18
18 18 18 18 230 230 230 230 230 230 230 230 18 18 18 18 18 18 230 18 18 18 18 18 18 18 18 18 18 230 18 18 18 18 18 18 18 18 18 230 230 18 18 18 18 18 18 18 18 18 230 230 230 18 18 18 18 18 18 230 230 230 18 18 18 18 18 18 230 230 230 230 230 230 230 230 18 18 18 18 18 18 230 18 18 18 18 18 18 18 18 18 18 230 18 18 18 18 18 18 18 18 18 230 230 18 18 18 18 18 18 18 18 18 230 230 230 18 18 18 18 18 18 230 230 230 18 18 18 18 18 18 230 230 230 230 230 230 230 230 18 18 18 18 18 18 230 18 18 18 18 18 18 18 18 18 18 230 18 18 18 18 18 18 18 18 18 230 230 18 18 18 18 18 18 18 18 18 230 230 230 18 18 18 18 18 18 230 230 230 18 18 18 18 18 18 230 230 230 230 230 230 230 230 18 18 18 18 18 18 230 18 18 18 18 18 18 18 18 18 18 230 18 18 18 18 18 18 18 18 18 230 230 18 18 18 18 18 18 18 18 18 230 230 230 18 18 18 18 18 18 230 230 230 18 18 18 18 18 18 230 230 230 230 230 230 230 230 18 18 18 18 18 18 230 18 18 18 18 18 18 18 18 18 18 230 18 18 18 18 18 18 18 18 18 230 230 18 18 18 18 18 18 18 18 18 230 230 230 18 18 18 18 18 18 230 230 230 18 18
18 18 18 230 230 18 18 18 18 18 18 230 230 18 18 18 18 18 230 18 18 18 18 18 18 18 18 18 18 230 18 18 18 18 18 18 18 18 18 230 230 18 18 18 18 18 18 18 18 18 18 230 230 230 18 18 18 18 230 230 230 18 18 18 18 18 18 230 230 18 18 18 18 18 18 230 230 18 18 18 18 18 230 18 18 18 18 18 18 18 18 18 18 230 18 18 18 18 18 18 18 18 18 230 230 18 18 18 18 18 18 18 18 18 18 230 230 230 18 18 18 18 230 230 230 18 18 18 18 18 18 230 230 18 18 18 18 18 18 230 230 18 18 18 18 18 230 18 18 18 18 18 18 18 18 18 18 230 18 18 18 18 18 18 18 18 18 230 230 18 18 18 18 18 18 18 18 18 18 230 230 230 18 18 18 18 230 230 230 18 18 18 18 18 18 230 230 18 18 18 18 18 18 230 230 18 18 18 18 18 230 18 18 18 18 18 18 18 18 18 18 230 18 18 18 18 18 18 18 18 18 230 230 18 18 18 18 18 18 18 18 18 18 230 230 230 18 18 18 18 230 230 230 18 18 18 18 18 18 230 230 18 18 18 18 18 18 230 230 18 18 18 18 18 230 18 18 18 18 18 18 18 18 18 18 230 18 18 18 18 18 18 18 18 18 230 230 18 18 18 18 18 18 18 18 18 18 230 230 230 18 18 18 18 230 230 230 18 18 18
18 18 230 230 18 18 18 18 18 18 18 18 230 230 18 18 18 18 230 18 18 18 18 18 18 18 18 18 18 230 18 18 18 18 18 18 18 18 18 230 230 18 18 18 18 18 18 18 18 18 18 18 230 230 230 18 18 230 230 230 18 18 18 18 18 18 230 230 18 18 18 18 18 18 18 18 230 230 18 18 18 18 230 18 18 18 18 18 18 18 18 18 18 230 18 18 18 18 18 18 18 18 18 230 230 18 18 18 18 18 18 18 18 18 18 18 230 230 230 18 18 230 230 230 18 18 18 18 18 18 230 230 18 18 18 18 18 18 18 18 230 230 18 18 18 18 230 18 18 18 18 18 18 18 18 18 18 230 18 18 18 18 18 18 18 18 18 230 230 18 18 18 18 18 18 18 18 18 18 18 230 230 230 18 18 230 230 230 18 18 18 18 18 18 230 230 18 18 18 18 18 18 18 18 230 230 18 18 18 18 230 18 18 18 18 18 18 18 18 18 18 230 18 18 18 18 18 18 18 18 18 230 230 18 18 18 18 18 18 18 18 18 18 18 230 230 230 18 18 230 230 230 18 18 18 18 18 18 230 230 18 18 18 18 18 18 18 18 230 230 18 18 18 18 230 18 18 18 18 18 18 18 18 18 18 230 18 18 18 18 18 18 18 18 18 230 230 18 18 18 18 18 18 18 18 18 18 18 230 230 230 18 18 230 230 230 18 18 18 18
18 18 230 230 18 18 18 18 18 18 18 18 230 230 18 18 18 18 230 18 18 18 18 18 18 18 18 18 18 230 18 18 18 18 18 18 18 18 18 230 230 18 18 18 18 18 18 18 18 18 18 18 18 230 230 230 230 230 230 18 18 18 18 18 18 18 230 230 18 18 18 18 18 18 18 18 230 230 18 18 18 18 230 18 18 18 18 18 18 18 18 18 18 230 18 18 18 18 18 18 18 18 18 230 230 18 18 18 18 18 18 18 18 18 18 18 18 230 230 230 230 230 230 18 18 18 18 18 18 18 230 230 18 18 18 18 18 18 18 18 230 230 18 18 18 18 230 18 18 18 18 18 18 18 18 18 18 230 18 18 18 18 18 18 18 18 18 230 230 18 18 18 18 18 18 18 18 18 18 18 18 230 230 230 230 230 230 18 18 18 18 18 18 18 230 230 18 18 18 18 18 18 18 18 230 230 18 18 18 18 230 18 18 18 18 18 18 18 18 18 18 230 18 18 18 18 18 18 18 18 18 230 230 18 18 18 18 18 18 18 18 18 18 18 18 230 230 230 230 230 230 18 18 18 18 18 18 18 230 230 18 18 18 18 18 18 18 18 230 230 18 18 18 18 230 18 18 18 18 18 18 18 18 18 18 230 18 18 18 18 18 18 18 18 18 230 230 18 18 18 18 18 18 18 18 18 18 18 18 230 230 230 230 230 230 18 18 18 18 18
18 18 230 230 18 18 18 18 18 18 18 18 230 230 18 18 18 18 230 18 18 18 18 18 18 18 18 18 18 230 18 18 230 230 230 230 230 230 230 230 230 230 230 230 230 230 230 230 18 18 18 18 18 18 230 230 230 230 18 18 18 18 18 18 18 18 230 230 18 18 18 18 18 18 18 18 230 230 18 18 18 18 230 18 18 18 18 18 18 18 18 18 18 230 18 18 230 230 230 230 230 230 230 230 230 230 230 230 230 230 230 230 18 18 18 18 18 18 230 230 230 230 18 18 18 18 18 18 18 18 230 230 18 18 18 18 18 18 18 18 230 230 18 18 18 18 230 18 18 18 18 18 18 18 18 18 18 230 18 18 230 230 230 230 230 230 230 230 230 230 230 230 230 230 230 230 18 18 18 18 18 18 230 230 230 230 18 18 18 18 18 18 18 18 230 230 18 18 18 18 18 18 18 18 230 230 18 18 18 18 230 18 18 18 18 18 18 18 18 18 18 230 18 18 230 230 230 230 230 230 230 230 230 230 230 230 230 230 230 230 18 18 18 18 18 18 230 230 230 230 18 18 18 18 18 18 18 18 230 230 18 18 18 18 18 18 18 18 230 230 18 18 18 18 230 18 18 18 18 18 18 18 18 18 18 230 18 18 230 230 230 230 230 230 230 230 230 230 230 230 230 230 230 230 18 18 18 18 18 18 230 230 230 230 18 18 18 18 18 18
18 18 230 230 18 18 18 18 18 18 18 18 230 230 18 18 18 18 230 18 18 18 18 18 18 18 18 18 18 230 18 18 230 230 230 230 230 230 230 230 230 230 230 230 230 230 230 230 18 18 18 18 18 18 230 230 230 230 18 18 18 18 18 18 18 18 230 230 18 18 18 18 18 18 18 18 230 230 18 18 18 18 230 18 18 18 18 18 18 18 18 18 18 230 18 18 230 230 230 230 230 230 230 230 230 230 230 230 230 230 230 230 18 18 18 18 18 18 230 230 230 230 18 18 18 18 18 18 18 18 230 230 18 18 18 18 18 18 18 18 230 230 18 18 18 18 230 18 18 18 18 18 18 18 18 18 18 230 18 18 230 230 230 230 230 230 230 230 230 230 230 230 230 230 230 230 18 18 18 18 18 18 230 230 230 230 18 18 18 18 18 18 18 18 230 230 18 18 18 18 18 18 18 18 230 230 18 18 18 18 230 18 18 18 18 18 18 18 18 18 18 230 18 18 230 230 230 230 230 230 230 230 230 230 230 230 230 230 230 230 18 18 18 18 18 18 230 230 230 230 18 18 18 18 18 18 18 18 230 230 18 18 18 18 18 18 18 18 230 230 18 18 18 18 230 18 18 18 18 18 18 18 18 18 18 230 18 18 230 230 230 230 230 230 230 230 230 230 230 230 230 230 230 230 18 18 18 18 18 18 230 230 230 230 18 18 18 18 18 18
18 18 230 230 18 18 18 18 18 18 18 18 230 230 18 18 18 18 230 18 18 18 18 18 18 18 18 18 18 230 18 18 18 18 18 18 18 18 18 230 230 18 18 18 18 18 18 18 18 18 18 18 18 230 230 230 230 230 230 18 18 18 18 18 18 18 230 230 18 18 18 18 18 18 18 18 230 230 18 18 18 18 230 18 18 18 18 18 18 18 18 18 18 230 18 18 18 18 18 18 18 18 18 230 230 18 18 18 18 18 18 18 18 18 18 18 18 230 230 230 230 230 230 18 18 18 18 18 18 18 230 230 18 18 18 18 18 18 18 18 230 230 18 18 18 18 230 18 18 18 18 18 18 18 18 18 18 230 18 18 18 18 18 18 18 18 18 230 230 18 18 18 18 18 18 18 18 18 18 18 18 230 230 230 230 230 230 18 18 18 18 18 18 18 230 230 18 18 18 18 18 18 18 18 230 230 18 18 18 18 230 18 18 18 18 18 18 18 18 18 18 230 18 18 18 18 18 18 18 18 18 230 230 18 18 18 18 18 18 18 18 18 18 18 18 230 230 230 230 230 230 18 18 18 18 18 18 18 230 230 18 18 18 18 18 18 18 18 230 230 18 18 18 18 230 18 18 18 18 18 18 18 18 18 18 230 18 18 18 18 18 18 18 18 18 230 230 18 18 18 18 18 18 18 18 18 18 18 18 230 230 230 230 230 230 18 18 18 18 18
18 18 230 230 18 18 18 18 18 18 18 18 230 230 18 18 18 18 230 18 18 18 18 18 18 18 18 18 18 230 18 18 18 18 18 18 18 18 18 230 230 18 18 18 18 18 18 18 18 18 18 18 230 230 230 18 18 230 230 230 18 18 18 18 18 18 230 230 18 18 18 18 18 18 18 18 230 230 18 18 18 18 230 18 18 18 18 18 18 18 18 18 18 230 18 18 18 18 18 18 18 18 18 230 230 18 18 18 18 18 18 18 18 18 18 18 230 230 230 18 18 230 230 230 18 18 18 18 18 18 230 230 18 18 18 18 18 18 18 18 230 230 18 18 18 18 230 18 18 18 18 18 18 18 18 18 18 230 18 18 18 18 18 18 18 18 18 230 230 18 18 18 18 18 18 18 18 18 18 18 230 230 230 18 18 230 230 230 18 18 18 18 18 18 230 230 18 18 18 18 18 18 18 18 230 230 18 18 18 18 230 18 18 18 18 18 18 18 18 18 18 230 18 18 18 18 18 18 18 18 18 230 230 18 18 18 18 18 18 18 18 18 18 18 230 230 230 18 18 230 230 230 18 18 18 18 18 18 230 230 18 18 18 18 18 18 18 18 230 230 18 18 18 18 230 18 18 18 18 18 18 18 18 18 18 230 18 18 18 18 18 18 18 18 18 230 230 18 18 18 18 18 18 18 18 18 18 18 230 230 230 18 18 230 230 230 18 18 18 18
18 18 18 230 230 18 18 18 18 18 18 230 230 18 18 18 18 18 230 18 18 18 18 18 18 18 18 18 18 230 18 18 18 18 18 18 18 18 18 230 230 18 18 18 18 18 18 18 18 18 18 230 230 230 18 18 18 18 230 230 230 18 18 18 18 18 18 230 230 18 18 18 18 18 18 230 230 18 18 18 18 18 230 18 18 18 18 18 18 18 18 18 18 230 18 18 18 18 18 18 18 18 18 230 230 18 18 18 18 18 18 18 18 18 18 230 230 230 18 18 18 18 230 230 230 18 18 18 18 18 18 230 230 18 18 18 18 18 18 230 230 18 18 18 18 18 230 18 18 18 18 18 18 18 18 18 18 230 18 18 18 18 18 18 18 18 18 230 230 18 18 18 18 18 18 18 18 18 18 230 230 230 18 18 18 18 230 230 230 18 18 18 18 18 18 230 230 18 18 18 18 18 18 230 230 18 18 18 18 18 230 18 18 18 18 18 18 18 18 18 18 230 18 18 18 18 18 18 18 18 18 230 230 18 18 18 18 18 18 18 18 18 18 230 230 230 18 18 18 18 230 230 230 18 18 18 18 18 18 230 230 18 18 18 18 18 18 230 230 18 18 18 18 18 230 18 18 18 18 18 18 18 18 18 18 230 18 18 18 18 18 18 18 18 18 230 230 18 18 18 18 18 18 18 18 18 18 230 230 230 18 18 18 18 230 230 230 18 18 18
18 18 18 18 230 230 230 230 230 230 230 230 18 18 18 18 18 18 230 18 18 18 18 18 18 18 18 18 18 230 18 18 18 18 18 18 18 18 18 230 230 18 18 18 18 18 18 18 18 18 230 230 230 18 18 18 18 18 18 230 230 230 18 18 18 18 18 18 230 230 230 230 230 230 230 230 18 18 18 18 18 18 230 18 18 18 18 18 18 18 18 18 18 230 18 18 18 18 18 18 18 18 18 230 230 18 18 18 18 18 18 18 18 18 230 230 230 18 18 18 18 18 18 230 230 230 18 18 18 18 18 18 230 230 230 230 230 230 230 230 18 18 18 18 18 18 230 18 18 18 18 18 18 18 18 18 18 230 18 18 18 18 18 18 18 18 18 230 230 18 18 18 18 18 18 18 18 18 230 230 230 18 18 18 18 18 18 230 230 230 18 18 18 18 18 18 230 230 230 230 230 230 230 230 18 18 18 18 18 18 230 18 18 18 18 18 18 18 18 18 18 230 18 18 18 18 18 18 18 18 18 230 230 18 18 18 18 18 18 18 18 18 230 230 230 18 18 18 18 18 18 230 230 230 18 18 18 18 18 18 230 230 230 230 230 230 230 230 18 18 18 18 18 18 230 18 18 18 18 18 18 18 18 18 18 230 18 18 18 18 18 18 18 18 18 230 230 18 18 18 18 18 18 18 18 18 230 230 230 18 18 18 18 18 18 230 230 230 18 18
18 18 18 18 18 230 230 230 230 230 230 18 18 18 18 18 18 18 230 230 230 230 230 230 230 230 230 230 230 230 18 18 18 18 18 18 18 18 18 230 230 18 18 18 18 18 18 18 18 230 230 230 18 18 18 18 18 18 18 18 230 230 230 18 18 18 18 18 18 230 230 230 230 230 230 18 18 18 18 18 18 18 230 230 230 230 230 230 230 230 230 230 230 230 18 18 18 18 18 18 18 18 18 230 230 18 18 18 18 18 18 18 18 230 230 230 18 18 18 18 18 18 18 18 230 230 230 18 18 18 18 18 18 230 230 230 230 230 230 18 18 18 18 18 18 18 230 230 230 230 230 230 230 230 230 230 230 230 18 18 18 18 18 18 18 18 18 230 230 18 18 18 18 18 18 18 18 230 230 230 18 18 18 18 18 18 18 18 230 230 230 18 18 18 18 18 18 230 230 230 230 230 230 18 18 18 18 18 18 18 230 230 230 230 230 230 230 230 230 230 230 230 18 18 18 18 18 18 18 18 18 230 230 18 18 18 18 18 18 18 18 230 230 230 18 18 18 18 18 18 18 18 230 230 230 18 18 18 18 18 18 230 230 230 230 230 230 18 18 18 18 18 18 18 230 230 230 230 230 230 230 230 230 230 230 230 18 18 18 18 18 18 18 18 18 230 230 18 18 18 18 18 18 18 18 230 230 230 18 18 18 18 18 18 18 18 230 230 230 18
18 18 18 18 18 18 18 18 18 18 18 18 18 18 18 18 18 18 18 18 18 18 18 18 18 18 18 18 18 18 18 18 18 18 18 18 18 18 18 230 230 18 18 18 18 18 18 18 230 230 230 18 18 18 18 18 18 18 18 18 18 230 230 230 18 18 18 18 18 18 18 18 18 18 18 18 18 18 18 18 18 18 18 18 18 18 18 18 18 18 18 18 18 18 18 18 18 18 18 18 18 18 18 230 230 18 18 18 18 18 18 18 230 230 230 18 18 18 18 18 18 18 18 18 18 230 230 230 18 18 18 18 18 18 18 18 18 18 18 18 18 18 18 18 18 18 18 18 18 18 18 18 18 18 18 18 18 18 18 18 18 18 18 18 18 18 18 230 230 18 18 18 18 18 18 18 230 230 230 18 18 18 18 18 18 18 18 18 18 230 230 230 18 18 18 18 18 18 18 18 18 18 18 18 18 18 18 18 18 18 18 18 18 18 18 18 18 18 18 18 18 18 18 18 18 18 18 18 18 18 18 230 230 18 18 18 18 18 18 18 230 230 230 18 18 18 18 18 18 18 18 18 18 230 230 230 18 18 18 18 18 18 18 18 18 18 18 18 18 18 18 18 18 18 18 18 18 18 18 18 18 18 18 18 18 18 18 18 18 18 18 18 18 18 18 230 230 18 18 18 18 18 18 18 230 230 230 18 18 18 18 18 18 18 18 18 18 230 230 230
18 18 18 18 18 18 18 18 18 18 18 18 18 18 18 18 18 18 18 18 18 18 18 18 18 18 18 18 18 18 18 18 18 18 18 18 18 18 18 230 230 18 18 18 18 18 18 18 230 230 18 18 18 18 18 18 18 18 18 18 18 18 230 230 18 18 18 18 18 18 18 18 18 18 18 18 18 18 18 18 18 18 18 18 18 18 18 18 18 18 18 18 18 18 18 18 18 18 18 18 18 18 18 230 230 18 18 18 18 18 18 18 230 230 18 18 18 18 18 18 18 18 18 18 18 18 230 230 18 18 18 18 18 18 18 18 18 18 18 18 18 18 18 18 18 18 18 18 18 18 18 18 18 18 18 18 18 18 18 18 18 18 18 18 18 18 18 230 230 18 18 18 18 18 18 18 230 230 18 18 18 18 18 18 18 18 18 18 18 18 230 230 18 18 18 18 18 18 18 18 18 18 18 18 18 18 18 18 18 18 18 18 18 18 18 18 18 18 18 18 18 18 18 18 18 18 18 18 18 18 18 230 230 18 18 18 18 18 18 18 230 230 18 18 18 18 18 18 18 18 18 18 18 18 230 230 18 18 18 18 18 18 18 18 18 18 18 18 18 18 18 18 18 18 18 18 18 18 18 18 18 18 18 18 18 18 18 18 18 18 18 18 18 18 18 230 230 18 18 18 18 18 18 18 230 230 18 18 18 18 18 18 18 18 18 18 18 18 230 230
18 18 18 18 18 18 18 18 18 18 18 18 18 18 18 18 18 18 18 18 18 18 18 18 18 18 18 18 18 18 18 18 18 18 18 18 18 18 18 230 230 18 18 18 18 18 18 18 230 230 18 18 18 18 18 18 18 18 18 18 18 18 230 230 18 18 18 18 18 18 18 18 18 18 18 18 18 18 18 18 18 18 18 18 18 18 18 18 18 18 18 18 18 18 18 18 18 18 18 18 18 18 18 230 230 18 18 18 18 18 18 18 230 230 18 18 18 18 18 18 18 18 18 18 18 18 230 230 18 18 18 18 18 18 18 18 18 18 18 18 18 18 18 18 18 18 18 18 18 18 18 18 18 18 18 18 18 18 18 18 18 18 18 18 18 18 18 230 230 18 18 18 18 18 18 18 230 230 18 18 18 18 18 18 18 18 18 18 18 18 230 230 18 18 18 18 18 18 18 18 18 18 18 18 18 18 18 18 18 18 18 18 18 18 18 18 18 18 18 18 18 18 18 18 18 18 18 18 18 18 18 230 230 18 18 18 18 18 18 18 230 230 18 18 18 18 18 18 18 18 18 18 18 18 230 230 18 18 18 18 18 18 18 18 18 18 18 18 18 18 18 18 18 18 18 18 18 18 18 18 18 18 18 18 18 18 18 18 18 18 18 18 18 18 18 230 230 18 18 18 18 18 18 18 230 230 18 18 18 18 18 18 18 18 18 18 18 18 230 230
18 18 18 18 18 18 18 18 18 18 18 18 18 18 18 18 18 18 18 18 18 18 18 18 18 18 18 18 18 18 18 18 18 18 18 18 18 18 18 230 230 18 18 18 18 18 18 18 230 230 230 18 18 18 18 18 18 18 18 18 18 230 230 230 18 18 18 18 18 18 18 18 18 18 18 18 18 18 18 18 18 18 18 18 18 18 18 18 18 18 18 18 18 18 18 18 18 18 18 18 18 18 18 230 230 18 18 18 18 18 18 18 230 230 230 18 18 18 18 18 18 18 18 18 18 230 230 230 18 18 18 18 18 18 18 18 18 18 18 18 18 18 18 18 18 18 18 18 18 18 18 18 18 18 18 18 18 18 18 18 18 18 18 18 18 18 18 230 230 18 18 18 18 18 18 18 230 230 230 18 18 18 18 18 18 18 18 18 18 230 230 230 18 18 18 18 18 18 18 18 18 18 18 18 18 18 18 18 18 18 18 18 18 18 18 18 18 18 18 18 18 18 18 18 18 18 18 18 18 18 18 230 230 18 18 18 18 18 18 18 230 230 230 18 18 18 18 18 18 18 18 18 18 230 230 230 18 18 18 18 18 18 18 18 18 18 18 18 18 18 18 18 18 18 18 18 18 18 18 18 18 18 18 18 18 18 18 18 18 18 18 18 18 18 18 230 230 18 18 18 18 18 18 18 230 230 230 18 18 18 18 18 18 18 18 18 18 230 230 230
18 18 18 18 18 230 230 230 230 230 230 18 18 18 18 18 18 18 230 230 230 230 230 230 230 230 230 230 230 230 18 18 18 18 18 18 18 18 18 230 230 18 18 18 18 18 18 18 18 230 230 230 18 18 18 18 18 18 18 18 230 230 230 18 18 18 18 18 18 230 230 230 230 230 230 18 18 18 18 18 18 18 230 230 230 230 230 230 230 230 230 230 230 230 18 18 18 18 18 18 18 18 18 230 230 18 18 18 18 18 18 18 18 230 230 230 18 18 18 18 18 18 18 18 230 230 230 18 18 18 18 18 18 230 230 230 230 230 230 18 18 18 18 18 18 18 230 230 230 230 230 230 230 230 230 230 230 230 18 18 18 18 18 18 18 18 18 230 230 18 18 18 18 18 18 18 18 230 230 230 18 18 18 18 18 18 18 18 230 230 230 18 18 18 18 18 18 230 230 230 230 230 230 18 18 18 18 18 18 18 230 230 230 230 230 230 230 230 230 230 230 230 18 18 18 18 18 18 18 18 18 230 230 18 18 18 18 18 18 18 18 230 230 230 18 18 18 18 18 18 18 18 230 230 230 18 18 18 18 18 18 230 230 230 230 230 230 18 18 18 18 18 18 18 230 230 230 230 230 230 230 230 230 230 230 230 18 18 18 18 18 18 18 18 18 230 230 18 18 18 18 18 18 18 18 230 230 230 18 18 18 18 18 18 18 18 230 230 230 18
18 18 18 18 230 230 230 230 230 230 230 230 18 18 18 18 18 18 230 18 18 18 18 18 18 18 18 18 18 230 18 18 18 18 18 18 18 18 18 230 230 18 18 18 18 18 18 18 18 18 230 230 230 18 18 18 18 18 18 230 230 230 18 18 18 18 18 18 230 230 230 230 230 230 230 230 18 18 18 18 18 18 230 18 18 18 18 18 18 18 18 18 18 230 18 18 18 18 18 18 18 18 18 230 230 18 18 18 18 18 18 18 18 18 230 230 230 18 18 18 18 18 18 230 230 230 18 18 18 18 18 18 230 230 230 230 230 230 230 230 18 18 18 18 18 18 230 18 18 18 18 18 18 18 18 18 18 230 18 18 18 18 18 18 18 18 18 230 230 18 18 18 18 18 18 18 18 18 230 230 230 18 18 18 18 18 18 230 230 230 18 18 18 18 18 18 230 230 230 230 230 230 230 230 18 18 18 18 18 18 230 18 18 18 18 18 18 18 18 18 18 230 18 18 18 18 18 18 18 18 18 230 230 18 18 18 18 18 18 18 18 18 230 230 230 18 18 18 18 18 18 230 230 230 18 18 18 18 18 18 230 230 230 230 230 230 230 230 18 18 18 18 18 18 230 18 18 18 18 18 18 18 18 18 18 230 18 18 18 18 18 18 18 18 18 230 230 18 18 18 18 18 18 18 18 18 230 230 230 18 18 18 18 18 18 230 230 230 18 18
18 18 18 230 230 18 18 18 18 18 18 230 230 18 18 18 18 18 230 18 18 18 18 18 18 18 18 18 18 230 18 18 18 18 18 18 18 18 18 230 230 18 18 18 18 18 18 18 18 18 18 230 230 230 18 18 18 18 230 230 230 18 18 18 18 18 18 230 230 18 18 18 18 18 18 230 230 18 18 18 18 18 230 18 18 18 18 18 18 18 18 18 18 230 18 18 18 18 18 18 18 18 18 230 230 18 18 18 18 18 18 18 18 18 18 230 230 230 18 18 18 18 230 230 230 18 18 18 18 18 18 230 230 18 18 18 18 18 18 230 230 18 18 18 18 18 230 18 18 18 18 18 18 18 18 18 18 230 18 18 18 18 18 18 18 18 18 230 230 18 18 18 18 18 18 18 18 18 18 230 230 230 18 18 18 18 230 230 230 18 18 18 18 18 18 230 230 18 18 18 18 18 18 230 230 18 18 18 18 18 230 18 18 18 18 18 18 18 18 18 18 230 18 18 18 18 18 18 18 18 18 230 230 18 18 18 18 18 18 18 18 18 18 230 230 230 18 18 18 18 230 230 230 18 18 18 18 18 18 230 230 18 18 18 18 18 18 230 230 18 18 18 18 18 230 18 18 18 18 18 18 18 18 18 18 230 18 18 18 18 18 18 18 18 18 230 230 18 18 18 18 18 18 18 18 18 18 230 230 230 18 18 18 18 230 230 230 18 18 18
18 18 230 230 18 18 18 18 18 18 18 18 230 230 18 18 18 18 230 18 18 18 18 18 18 18 18 18 18 230 18 18 18 18 18 18 18 18 18 230 230 18 18 18 18 18 18 18 18 18 18 18 230 230 230 18 18 230 230 230 18 18 18 18 18 18 230 230 18 18 18 18 18 18 18 18 230 230 18 18 18 18 230 18 18 18 18 18 18 18 18 18 18 230 18 18 18 18 18 18 18 18 18 230 230 18 18 18 18 18 18 18 18 18 18 18 230 230 230 18 18 230 230 230 18 18 18 18 18 18 230 230 18 18 18 18 18 18 18 18 230 230 18 18 18 18 230 18 18 18 18 18 18 18 18 18 18 230 18 18 18 18 18 18 18 18 18 230 230 18 18 18 18 18 18 18 18 18 18 18 230 230 230 18 18 230 230 230 18 18 18 18 18 18 230 230 18 18 18 18 18 18 18 18 230 230 18 18 18 18 230 18 18 18 18 18 18 18 18 18 18 230 18 18 18 18 18 18 18 18 18 230 230 18 18 18 18 18 18 18 18 18 18 18 230 230 230 18 18 230 230 230 18 18 18 18 18 18 230 230 18 18 18 18 18 18 18 18 230 230 18 18 18 18 230 18 18 18 18 18 18 18 18 18 18 230 18 18 18 18 18 18 18 18 18 230 230 18 18 18 18 18 18 18 18 18 18 18 230 230 230 18 18 230 230 230 18 18 18 18
18 18 230 230 18 18 18 18 18 18 18 18 230 230 18 18 18 18 230 18 18 18 18 18 18 18 18 18 18 230 18 18 18 18 18 18 18 18 18 230 230 18 18 18 18 18 18 18 18 18 18 18 18 230 230 230 230 230 230 18 18 18 18 18 18 18 230 230 18 18 18 18 18 18 18 18 230 230 18 18 18 18 230 18 18 18 18 18 18 18 18 18 18 230 18 18 18 18 18 18 18 18 18 230 230 18 18 18 18 18 18 18 18 18 18 18 18 230 230 230 230 230 230 18 18 18 18 18 18 18 230 230 18 18 18 18 18 18 18 18 230 230 18 18 18 18 230 18 18 18 18 18 18 18 18 18 18 230 18 18 18 18 18 18 18 18 18 230 230 18 18 18 18 18 18 18 18 18 18 18 18 230 230 230 230 230 230 18 18 18 18 18 18 18 230 230 18 18 18 18 18 18 18 18 230 230 18 18 18 18 230 18 18 18 18 18 18 18 18 18 18 230 18 18 18 18 18 18 18 18 18 230 230 18 18 18 18 18 18 18 18 18 18 18 18 230 230 230 230 230 230 18 18 18 18 18 18 18 230 230 18 18 18 18 18 18 18 18 230 230 18 18 18 18 230 18 18 18 18 18 18 18 18 18 18 230 18 18 18 18 18 18 18 18 18 230 230 18 18 18 18 18 18 18 18 18 18 18 18 230 230 230 230 230 230 18 18 18 18 18
18 18 230 230 18 18 18 18 18 18 18 18 230 230 18 18 18 18 230 18 18 18 18 18 18 18 18 18 18 230 18 18 230 230 230 230 230 230 230 230 230 230 230 230 230 230 230 230 18 18 18 18 18 18 230 230 230 230 18 18 18 18 18 18 18 18 230 230 18 18 18 18 18 18 18 18 230 230 18 18 18 18 230 18 18 18 18 18 18 18 18 18 18 230 18 18 230 230 230 230 230 230 230 230 230 230 230 230 230 230 230 230 18 18 18 18 18 18 230 230 230 230 18 18 18 18 18 18 18 18 230 230 18 18 18 18 18 18 18 18 230 230 18 18 18 18 230 18 18 18 18 18 18 18 18 18 18 230 18 18 230 230 230 230 230 230 230 230 230 230 230 230 230 230 230 230 18 18 18 18 18 18 230 230 230 230 18 18 18 18 18 18 18 18 230 230 18 18 18 18 18 18 18 18 230 230 18 18 18 18 230 18 18 18 18 18 18 18 18 18 18 230 18 18 230 230 230 230 230 230 230 230 230 230 230 230 230 230 230 230 18 18 18 18 18 18 230 230 230 230 18 18 18 18 18 18 18 18 230 230 18 18 18 18 18 18 18 18 230 230 18 18 18 18 230 18 18 18 18 18 18 18 18 18 18 230 18 18 230 230 230 230 230 230 230 230 230 230 230 230 230 230 230 230 18 18 18 18 18 18 230 230 230 230 18 18 18 18 18 18
18 18 230 230 18 18 18 18 18 18 18 18 230 230 18 18 18 18 230 18 18 18 18 18 18 18 18 18 18 230 18 18 230 230 230 230 230 230 230 230 230 230 230 230 230 230 230 230 18 18 18 18 18 18 230 230 230 230 18 18 18 18 18 18 18 18 230 230 18 18 18 18 18 18 18 18 230 230 18 18 18 18 230 18 18 18 18 18 18 18 18 18 18 230 18 18 230 230 230 230 230 230 230 230 230 230 230 230 230 230 230 230 18 18 18 18 18 18 230 230 230 230 18 18 18 18 18 18 18 18 230 230 18 18 18 18 18 18 18 18 230 230 18 18 18 18 230 18 18 18 18 18 18 18 18 18 18 230 18 18 230 230 230 230 230 230 230 230 230 230 230 230 230 230 230 230 18 18 18 18 18 18 230 230 230 230 18 18 18 18 18 18 18 18 230 230 18 18 18 18 18 18 18 18 230 230 18 18 18 18 230 18 18 18 18 18 18 18 18 18 18 230 18 18 230 230 230 230 230 230 230 230 230 230 230 230 230 230 230 230 18 18 18 18 18 18 230 230 230 230 18 18 18 18 18 18 18 18 230 230 18 18 18 18 18 18 18 18 230 230 18 18 18 18 230 18 18 18 18 18 18 18 18 18 18 230 18 18 230 230 230 230 230 230 230 230 230 230 230 230 230 230 230 230 18 18 18 18 18 18 230 230 230 230 18 18 18 18 18 18
18 18 230 230 18 18 18 18 18 18 18 18 230 230 18 18 18 18 230 18 18 18 18 18 18 18 18 18 18 230 18 18 18 18 18 18 18 18 18 230 230 18 18 18 18 18 18 18 18 18 18 18 18 230 230 230 230 230 230 18 18 18 18 18 18 18 230 230 18 18 18 18 18 18 18 18 230 230 18 18 18 18 230 18 18 18 18 18 18 18 18 18 18 230 18 18 18 18 18 18 18 18 18 230 230 18 18 18 18 18 18 18 18 18 18 18 18 230 230 230 230 230 230 18 18 18 18 18 18 18 230 230 18 18 18 18 18 18 18 18 230 230 18 18 18 18 230 18 18 18 18 18 18 18 18 18 18 230 18 18 18 18 18 18 18 18 18 230 230 18 18 18 18 18 18 18 18 18 18 18 18 230 230 230 230 230 230 18 18 18 18 18 18 18 230 230 18 18 18 18 18 18 18 18 230 230 18 18 18 18 230 18 18 18 18 18 18 18 18 18 18 230 18 18 18 18 18 18 18 18 18 230 230 18 18 18 18 18 18 18 18 18 18 18 18 230 230 230 230 230 230 18 18 18 18 18 18 18 230 230 18 18 18 18 18 18 18 18 230 230 18 18 18 18 230 18 18 18 18 18 18 18 18 18 18 230 18 18 18 18 18 18 18 18 18 230 230 18 18 18 18 18 18 18 18 18 18 18 18 230 230 230 230 230 230 18 18 18 18 18
18 18 230 230 18 18 18 18 18 18 18 18 230 230 18 18 18 18 230 18 18 18 18 18 18 18 18 18 18 230 18 18 18 18 18 18 18 18 18 230 230 18 18 18 18 18 18 18 18 18 18 18 230 230 230 18 18 230 230 230 18 18 18 18 18 18 230 230 18 18 18 18 18 18 18 18 230 230 18 18 18 18 230 18 18 18 18 18 18 18 18 18 18 230 18 18 18 18 18 18 18 18 18 230 230 18 18 18 18 18 18 18 18 18 18 18 230 230 230 18 18 230 230 230 18 18 18 18 18 18 230 230 18 18 18 18 18 18 18 18 230 230 18 18 18 18 230 18 18 18 18 18 18 18 18 18 18 230 18 18 18 18 18 18 18 18 18 230 230 18 18 18 18 18 18 18 18 18 18 18 230 230 230 18 18 230 230 230 18 18 18 18 18 18 230 230 18 18 18 18 18 18 18 18 230 230 18 18 18 18 230 18 18 18 18 18 18 18 18 18 18 230 18 18 18 18 18 18 18 18 18 230 230 18 18 18 18 18 18 18 18 18 18 18 230 230 230 18 18 230 230 230 18 18 18 18 18 18 230 230 18 18 18 18 18 18 18 18 230 230 18 18 18 18 230 18 18 18 18 18 18 18 18 18 18 230 18 18 18 18 18 18 18 18 18 230 230 18 18 18 18 18 18 18 18 18 18 18 230 230 230 18 18 230 230 230 18 18 18 18
18 18 18 230 230 18 18 18 18 18 18 230 230 18 18 18 18 18 230 18 18 18 18 18 18 18 18 18 18 230 18 18 18 18 18 18 18 18 18 230 230 18 18 18 18 18 18 18 18 18 18 230 230 230 18 18 18 18 230 230 230 18 18 18 18 18 18 230 230 18 18 18 18 18 18 230 230 18 18 18 18 18 230 18 18 18 18 18 18 18 18 18 18 230 18 18 18 18 18 18 18 18 18 230 230 18 18 18 18 18 18 18 18 18 18 230 230 230 18 18 18 18 230 230 230 18 18 18 18 18 18 230 230 18 18 18 18 18 18 230 230 18 18 18 18 18 230 18 18 18 18 18 18 18 18 18 18 230 18 18 18 18 18 18 18 18 18 230 230 18 18 18 18 18 18 18 18 18 18 230 230 230 18 18 18 18 230 230 230 18 18 18 18 18 18 230 230 18 18 18 18 18 18 230 230 18 18 18 18 18 230 18 18 18 18 18 18 18 18 18 18 230 18 18 18 18 18 18 18 18 18 230 230 18 18 18 18 18 18 18 18 18 18 230 230 230 18 18 18 18 230 230 230 18 18 18 18 18 18 230 230 18 18 18 18 18 18 230 230 18 18 18 18 18 230 18 18 18 18 18 18 18 18 18 18 230 18 18 18 18 18 18 18 18 18 230 230 18 18 18 18 18 18 18 18 18 18 230 230 230 18 18 18 18 230 230 230 18 18 18
18 18 18 18 230 230 230 230 230 230 230 230 18 18 18 18 18 18 230 18 18 18 18 18 18 18 18 18 18 230 18 18 18 18 18 18 18 18 18 230 230 18 18 18 18 18 18 18 18 18 230 230 230 18 18 18 18 18 18 230 230 230 18 18 18 18 18 18 230 230 230 230 230 230 230 230 18 18 18 18 18 18 230 18 18 18 18 18 18 18 18 18 18 230 18 18 18 18 18 18 18 18 18 230 230 18 18 18 18 18 18 18 18 18 230 230 230 18 18 18 18 18 18 230 230 230 18 18 18 18 18 18 230 230 230 230 230 230 230 230 18 18 18 18 18 18 230 18 18 18 18 18 18 18 18 18 18 230 18 18 18 18 18 18 18 18 18 230 230 18 18 18 18 18 18 18 18 18 230 230 230 18 18 18 18 18 18 230 230 230 18 18 18 18 18 18 230 230 230 230 230 230 230 230 18 18 18 18 18 18 230 18 18 18 18 18 18 18 18 18 18 230 18 18 18 18 18 18 18 18 18 230 230 18 18 18 18 18 18 18 18 18 230 230 230 18 18 18 18 18 18 230 230 230 18 18 18 18 18 18 230 230 230 230 230 230 230 230 18 18 18 18 18 18 230 18 18 18 18 18 18 18 18 18 18 230 18 18 18 18 18 18 18 18 18 230 230 18 18 18 18 18 18 18 18 18 230 230 230 18 18 18 18 18 18 230 230 230 18 18
18 18 18 18 18 230 230 230 230 230 230 18 18 18 18 18 18 18 230 230 230 230 230 230 230 230 230 230 230 230 18 18 18 18 18 18 18 18 18 230 230 18 18 18 18 18 18 18 18 230 230 230 18 18 18 18 18 18 18 18 230 230 230 18 18 18 18 18 18 230 230 230 230 230 230 18 18 18 18 18 18 18 230 230 230 230 230 230 230 230 230 230 230 230 18 18 18 18 18 18 18 18 18 230 230 18 18 18 18 18 18 18 18 230 230 230 18 18 18 18 18 18 18 18 230 230 230 18 18 18 18 18 18 230 230 230 230 230 230 18 18 18 18 18 18 18 230 230 230 230 230 230 230 230 230 230 230 230 18 18 18 18 18 18 18 18 18 230 230 18 18 18 18 18 18 18 18 230 230 230 18 18 18 18 18 18 18 18 230 230 230 18 18 18 18 18 18 230 230 230 230 230 230 18 18 18 18 18 18 18 230 230 230 230 230 230 230 230 230 230 230 230 18 18 18 18 18 18 18 18 18 230 230 18 18 18 18 18 18 18 18 230 230 230 18 18 18 18 18 18 18 18 230 230 230 18 18 18 18 18 18 230 230 230 230 230 230 18 18 18 18 18 18 18 230 230 230 230 230 230 230 230 230 230 230 230 18 18 18 18 18 18 18 18 18 230 230 18 18 18 18 18 18 18 18 230 230 230 18 18 18 18 18 18 18 18 230 230 230 18
18 18 18 18 18 18 18 18 18 18 18 18 18 18 18 18 18 18 18 18 18 18 18 18 18 18 18 18 18 18 18 18 18 18 18 18 18 18 18 230 230 18 18 18 18 18 18 18 230 230 230 18 18 18 18 18 18 18 18 18 18 230 230 230 18 18 18 18 18 18 18 18 18 18 18 18 18 18 18 18 18 18 18 18 18 18 18 18 18 18 18 18 18 18 18 18 18 18 18 18 18 18 18 230 230 18 18 18 18 18 18 18 230 230 230 18 18 18 18 18 18 18 18 18 18 230 230 230 18 18 18 18 18 18 18 18 18 18 18 18 18 18 18 18 18 18 18 18 18 18 18 18 18 18 18 18 18 18 18 18 18 18 18 18 18 18 18 230 230 18 18 18 18 18 18 18 230 230 230 18 18 18 18 18 18 18 18 18 18 230 230 230 18 18 18 18 18 18 18 18 18 18 18 18 18 18 18 18 18 18 18 18 18 18 18 18 18 18 18 18 18 18 18 18 18 18 18 18 18 18 18 230 230 18 18 18 18 18 18 18 230 230 230 18 18 18 18 18 18 18 18 18 18 230 230 230 18 18 18 18 18 18 18 18 18 18 18 18 18 18 18 18 18 18 18 18 18 18 18 18 18 18 18 18 18 18 18 18 18 18 18 18 18 18 18 230 230 18 18 18 18 18 18 18 230 230 230 18 18 18 18 18 18 18 18 18 18 230 230 230
18 18 18 18 18 18 18 18 18 18 18 18 18 18 18 18 18 18 18 18 18 18 18 18 18 18 18 18 18 18 18 18 18 18 18 18 18 18 18 230 230 18 18 18 18 18 18 18 230 230 18 18 18 18 18 18 18 18 18 18 18 18 230 230 18 18 18 18 18 18 18 18 18 18 18 18 18 18 18 18 18 18 18 18 18 18 18 18 18 18 18 18 18 18 18 18 18 18 18 18 18 18 18 230 230 18 18 18 18 18 18 18 230 230 18 18 18 18 18 18 18 18 18 18 18 18 230 230 18 18 18 18 18 18 18 18 18 18 18 18 18 18 18 18 18 18 18 18 18 18 18 18 18 18 18 18 18 18 18 18 18 18 18 18 18 18 18 230 230 18 18 18 18 18 18 18 230 230 18 18 18 18 18 18 18 18 18 18 18 18 230 230 18 18 18 18 18 18 18 18 18 18 18 18 18 18 18 18 18 18 18 18 18 18 18 18 18 18 18 18 18 18 18 18 18 18 18 18 18 18 18 230 230 18 18 18 18 18 18 18 230 230 18 18 18 18 18 18 18 18 18 18 18 18 230 230 18 18 18 18 18 18 18 18 18 18 18 18 18 18 18 18 18 18 18 18 18 18 18 18 18 18 18 18 18 18 18 18 18 18 18 18 18 18 18 230 230 18 18 18 18 18 18 18 230 230 18 18 18 18 18 18 18 18 18 18 18 18 230 230
18 18 18 18 18 18 18 18 18 18 18 18 18 18 18 18 18 18 18 18 18 18 18 18 18 18 18 18 18 18 18 18 18 18 18 18 18 18 18 230 230 18 18 18 18 18 18 18 230 230 18 18 18 18 18 18 18 18 18 18 18 18 230 230 18 18 18 18 18 18 18 18 18 18 18 18 18 18 18 18 18 18 18 18 18 18 18 18 18 18 18 18 18 18 18 18 18 18 18 18 18 18 18 230 230 18 18 18 18 18 18 18 230 230 18 18 18 18 18 18 18 18 18 18 18 18 230 230 18 18 18 18 18 18 18 18 18 18 18 18 18 18 18 18 18 18 18 18 18 18 18 18 18 18 18 18 18 18 18 18 18 18 18 18 18 18 18 230 230 18 18 18 18 18 18 18 230 230 18 18 18 18 18 18 18 18 18 18 18 18 230 230 18 18 18 18 18 18 18 18 18 18 18 18 18 18 18 18 18 18 18 18 18 18 18 18 18 18 18 18 18 18 18 18 18 18 18 18 18 18 18 230 230 18 18 18 18 18 18 18 230 230 18 18 18 18 18 18 18 18 18 18 18 18 230 230 18 18 18 18 18 18 18 18 18 18 18 18 18 18 18 18 18 18 18 18 18 18 18 18 18 18 18 18 18 18 18 18 18 18 18 18 18 18 18 230 230 18 18 18 18 18 18 18 230 230 18 18 18 18 18 18 18 18 18 18 18 18 230 230
18 18 18 18 18 18 18 18 18 18 18 18 18 18 18 18 18 18 18 18 18 18 18 18 18 18 18 18 18 18 18 18 18 18 18 18 18 18 18 230 230 18 18 18 18 18 18 18 230 230 230 18 18 18 18 18 18 18 18 18 18 230 230 230 18 18 18 18 18 18 18 18 18 18 18 18 18 18 18 18 18 18 18 18 18 18 18 18 18 18 18 18 18 18 18 18 18 18 18 18 18 18 18 230 230 18 18 18 18 18 18 18 230 230 230 18 18 18 18 18 18 18 18 18 18 230 230 230 18 18 18 18 18 18 18 18 18 18 18 18 18 18 18 18 18 18 18 18 18 18 18 18 18 18 18 18 18 18 18 18 18 18 18 18 18 18 18 230 230 18 18 18 18 18 18 18 230 230 230 18 18 18 18 18 18 18 18 18 18 230 230 230 18 18 18 18 18 18 18 18 18 18 18 18 18 18 18 18 18 18 18 18 18 18 18 18 18 18 18 18 18 18 18 18 18 18 18 18 18 18 18 230 230 18 18 18 18 18 18 18 230 230 230 18 18 18 18 18 18 18 18 18 18 230 230 230 18 18 18 18 18 18 18 18 18 18 18 18 18 18 18 18 18 18 18 18 18 18 18 18 18 18 18 18 18 18 18 18 18 18 18 18 18 18 18 230 230 18 18 18 18 18 18 18 230 230 230 18 18 18 18 18 18 18 18 18 18 230 230 230
18 18 18 18 18 230 230 230 230 230 230 18 18 18 18 18 18 18 230 230 230 230 230 230 230 230 230 230 230 230 18 18 18 18 18 18 18 18 18 230 230 18 18 18 18 18 18 18 18 230 230 230 18 18 18 18 18 18 18 18 230 230 230 18 18 18 18 18 18 230 230 230 230 230 230 18 18 18 18 18 18 18 230 230 230 230 230 230 230 230 230 230 230 230 18 18 18 18 18 18 18 18 18 230 230 18 18 18 18 18 18 18 18 230 230 230 18 18 18 18 18 18 18 18 230 230 230 18 18 18 18 18 18 230 230 230 230 230 230 18 18 18 18 18 18 18 230 230 230 230 230 230 230 230 230 230 230 230 18 18 18 18 18 18 18 18 18 230 230 18 18 18 18 18 18 18 18 230 230 230 18 18 18 18 18 18 18 18 230 230 230 18 18 18 18 18 18 230 230 230 230 230 230 18 18 18 18 18 18 18 230 230 230 230 230 230 230 230 230 230 230 230 18 18 18 18 18 18 18 18 18 230 230 18 18 18 18 18 18 18 18 230 230 230 18 18 18 18 18 18 18 18 230 230 230 18 18 18 18 18 18 230 230 230 230 230 230 18 18 18 18 18 18 18 230 230 230 230 230 230 230 230 230 230 230 230 18 18 18 18 18 18 18 18 18 230 230 18 18 18 18 18 18 18 18 230 230 230 18 18 18 18 18 18 18 18 230 230 230 18
18 18 18 18 230 230 230 230 230 230 230 230 18 18 18 18 18 18 230 18 18 18 18 18 18 18 18 18 18 230 18 18 18 18 18 18 18 18 18 230 230 18 18 18 18 18 18 18 18 18 230 230 230 18 18 18 18 18 18 230 230 230 18 18 18 18 18 18 230 230 230 230 230 230 230 230 18 18 18 18 18 18 230 18 18 18 18 18 18 18 18 18 18 230 18 18 18 18 18 18 18 18 18 230 230 18 18 18 18 18 18 18 18 18 230 230 230 18 18 18 18 18 18 230 230 230 18 18 18 18 18 18 230 230 230 230 230 230 230 230 18 18 18 18 18 18 230 18 18 18 18 18 18 18 18 18 18 230 18 18 18 18 18 18 18 18 18 230 230 18 18 18 18 18 18 18 18 18 230 230 230 18 18 18 18 18 18 230 230 230 18 18 18 18 18 18 230 230 230 230 230 230 230 230 18 18 18 18 18 18 230 18 18 18 18 18 18 18 18 18 18 230 18 18 18 18 18 18 18 18 18 230 230 18 18 18 18 18 18 18 18 18 230 230 230 18 18 18 18 18 18 230 230 230 18 18 18 18 18 18 230 230 230 230 230 230 230 230 18 18 18 18 18 18 230 18 18 18 18 18 18 18 18 18 18 230 18 18 18 18 18 18 18 18 18 230 230 18 18 18 18 18 18 18 18 18 230 230 230 18 18 18 18 18 18 230 230 230 18 18
18 18 18 230 230 18 18 18 18 18 18 230 230 18 18 18 18 18 230 18 18 18 18 18 18 18 18 18 18 230 18 18 18 18 18 18 18 18 18 230 230 18 18 18 18 18 18 18 18 18 18 230 230 230 18 18 18 18 230 230 230 18 18 18 18 18 18 230 230 18 18 18 18 18 18 230 230 18 18 18 18 18 230 18 18 18 18 18 18 18 18 18 18 230 18 18 18 18 18 18 18 18 18 230 230 18 18 18 18 18 18 18 18 18 18 230 230 230 18 18 18 18 230 230 230 18 18 18 18 18 18 230 230 18 18 18 18 18 18 230 230 18 18 18 18 18 230 18 18 18 18 18 18 18 18 18 18 230 18 18 18 18 18 18 18 18 18 230 230 18 18 18 18 18 18 18 18 18 18 230 230 230 18 18 18 18 230 230 230 18 18 18 18 18 18 230 230 18 18 18 18 18 18 230 230 18 18 18 18 18 230 18 18 18 18 18 18 18 18 18 18 230 18 18 18 18 18 18 18 18 18 230 230 18 18 18 18 18 18 18 18 18 18 230 230 230 18 18 18 18 230 230 230 18 18 18 18 18 18 230 230 18 18 18 18 18 18 230 230 18 18 18 18 18 230 18 18 18 18 18 18 18 18 18 18 230 18 18 18 18 18 18 18 18 18 230 230 18 18 18 18 18 18 18 18 18 18 230 230 230 18 18 18 18 230 230 230 18 18 18
18 18 230 230 18 18 18 18 18 18 18 18 230 230 18 18 18 18 230 18 18 18 18 18 18 18 18 18 18 230 18 18 18 18 18 18 18 18 18 230 230 18 18 18 18 18 18 18 18 18 18 18 230 230 230 18 18 230 230 230 18 18 18 18 18 18 230 230 18 18 18 18 18 18 18 18 230 230 18 18 18 18 230 18 18 18 18 18 18 18 18 18 18 230 18 18 18 18 18 18 18 18 18 230 230 18 18 18 18 18 18 18 18 18 18 18 230 230 230 18 18 230 230 230 18 18 18 18 18 18 230 230 18 18 18 18 18 18 18 18 230 230 18 18 18 18 230 18 18 18 18 18 18 18 18 18 18 230 18 18 18 18 18 18 18 18 18 230 230 18 18 18 18 18 18 18 18 18 18 18 230 230 230 18 18 230 230 230 18 18 18 18 18 18 230 230 18 18 18 18 18 18 18 18 230 230 18 18 18 18 230 18 18 18 18 18 18 18 18 18 18 230 18 18 18 18 18 18 18 18 18 230 230 18 18 18 18 18 18 18 18 18 18 18 230 230 230 18 18 230 230 230 18 18 18 18 18 18 230 230 18 18 18 18 18 18 18 18 230 230 18 18 18 18 230 18 18 18 18 18 18 18 18 18 18 230 18 18 18 18 18 18 18 18 18 230 230 18 18 18 18 18 18 18 18 18 18 18 230 230 230 18 18 230 230 230 18 18 18 18
18 18 230 230 18 18 18 18 18 18 18 18 230 230 18 18 18 18 230 18 18 18 18 18 18 18 18 18 18 230 18 18 18 18 18 18 18 18 18 230 230 18 18 18 18 18 18 18 18 18 18 18 18 230 230 230 230 230 230 18 18 18 18 18 18 18 230 230 18 18 18 18 18 18 18 18 230 230 18 18 18 18 230 18 18 18 18 18 18 18 18 18 18 230 18 18 18 18 18 18 18 18 18 230 230 18 18 18 18 18 18 18 18 18 18 18 18 230 230 230 230 230 230 18 18 18 18 18 18 18 230 230 18 18 18 18 18 18 18 18 230 230 18 18 18 18 230 18 18 18 18 18 18 18 18 18 18 230 18 18 18 18 18 18 18 18 18 230 230 18 18 18 18 18 18 18 18 18 18 18 18 230 230 230 230 230 230 18 18 18 18 18 18 18 230 230 18 18 18 18 18 18 18 18 230 230 18 18 18 18 230 18 18 18 18 18 18 18 18 18 18 230 18 18 18 18 18 18 18 18 18 230 230 18 18 18 18 18 18 18 18 18 18 18 18 230 230 230 230 230 230 18 18 18 18 18 18 18 230 230 18 18 18 18 18 18 18 18 230 230 18 18 18 18 230 18 18 18 18 18 18 18 18 18 18 230 18 18 18 18 18 18 18 18 18 230 230 18 18 18 18 18 18 18 18 18 18 18 18 230 230 230 230 230 230 18 18 18 18 18
18 18 230 230 18 18 18 18 18 18 18 18 230 230 18 18 18 18 230 18 18 18 18 18 18 18 18 18 18 230 18 18 230 230 230 230 230 230 230 230 230 230 230 230 230 230 230 230 18 18 18 18 18 18 230 230 230 230 18 18 18 18 18 18 18 18 230 230 18 18 18 18 18 18 18 18 230 230 18 18 18 18 230 18 18 18 18 18 18 18 18 18 18 230 18 18 230 230 230 230 230 230 230 230 230 230 230 230 230 230 230 230 18 18 18 18 18 18 230 230 230 230 18 18 18 18 18 18 18 18 230 230 18 18 18 18 18 18 18 18 230 230 18 18 18 18 230 18 18 18 18 18 18 18 18 18 18 230 18 18 230 230 230 230 230 230 230 230 230 230 230 230 230 230 230 230 18 18 18 18 18 18 230 230 230 230 18 18 18 18 18 18 18 18 230 230 18 18 18 18 18 18 18 18 230 230 18 18 18 18 230 18 18 18 18 18 18 18 18 18 18 230 18 18 230 230 230 230 230 230 230 230 230 230 230 230 230 230 230 230 18 18 18 18 18 18 230 230 230 230 18 18 18 18 18 18 18 18 230 230 18 18 18 18 18 18 18 18 230 230 18 18 18 18 230 18 18 18 18 18 18 18 18 18 18 230 18 18 230 230 230 230 230 230 230 230 230 230 230 230 230 230 230 230 18 18 18 18 18 18 230 230 230 230 18 18 18 18 18 18
18 18 230 230 18 18 18 18 18 18 18 18 230 230 18 18 18 18 230 18 18 18 18 18 18 18 18 18 18 230 18 18 230 230 230 230 230 230 230 230 230 230 230 230 230 230 230 230 18 18 18 18 18 18 230 230 230 230 18 18 18 18 18 18 18 18 230 230 18 18 18 18 18 18 18 18 230 230 18 18 18 18 230 18 18 18 18 18 18 18 18 18 18 230 18 18 230 230 230 230 230 230 230 230 230 230 230 230 230 230 230 230 18 18 18 18 18 18 230 230 230 230 18 18 18 18 18 18 18 18 230 230 18 18 18 18 18 18 18 18 230 230 18 18 18 18 230 18 18 18 18 18 18 18 18 18 18 230 18 18 230 230 230 230 230 230 230 230 230 230 230 230 230 230 230 230 18 18 18 18 18 18 230 230 230 230 18 18 18 18 18 18 18 18 230 230 18 18 18 18 18 18 18 18 230 230 18 18 18 18 230 18 18 18 18 18 18 18 18 18 18 230 18 18 230 230 230 230 230 230 230 230 230 230 230 230 230 230 230 230 18 18 18 18 18 18 230 230 230 230 18 18 18 18 18 18 18 18 230 230 18 18 18 18 18 18 18 18 230 230 18 18 18 18 230 18 18 18 18 18 18 18 18 18 18 230 18 18 230 230 230 230 230 230 230 230 230 230 230 230 230 230 230 230 18 18 18 18 18 18 230 230 230 230 18 18 18 18 18 18
18 18 230 230 18 18 18 18 18 18 18 18 230 230 18 18 18 18 230 18 18 18 18 18 18 18 18 18 18 230 18 18 18 18 18 18 18 18 18 230 230 18 18 18 18 18 18 18 18 18 18 18 18 230 230 230 230 230 230 18 18 18 18 18 18 18 230 230 18 18 18 18 18 18 18 18 230 230 18 18 18 18 230 18 18 18 18 18 18 18 18 18 18 230 18 18 18 18 18 18 18 18 18 230 230 18 18 18 18 18 18 18 18 18 18 18 18 230 230 230 230 230 230 18 18 18 18 18 18 18 230 230 18 18 18 18 18 18 18 18 230 230 18 18 18 18 230 18 18 18 18 18 18 18 18 18 18 230 18 18 18 18 18 18 18 18 18 230 230 18 18 18 18 18 18 18 18 18 18 18 18 230 230 230 230 230 230 18 18 18 18 18 18 18 230 230 18 18 18 18 18 18 18 18 230 230 18 18 18 18 230 18 18 18 18 18 18 18 18 18 18 230 18 18 18 18 18 18 18 18 18 230 230 18 18 18 18 18 18 18 18 18 18 18 18 230 230 230 230 230 230 18 18 18 18 18 18 18 230 230 18 18 18 18 18 18 18 18 230 230 18 18 18 18 230 18 18 18 18 18 18 18 18 18 18 230 18 18 18 18 18 18 18 18 18 230 230 18 18 18 18 18 18 18 18 18 18 18 18 230 230 230 230 230 230 18 18 18 18 18
18 18 230 230 18 18 18 18 18 18 18 18 230 230 18 18 18 18 230 18 18 18 18 18 18 18 18 18 18 230 18 18 18 18 18 18 18 18 18 230 230 18 18 18 18 18 18 18 18 18 18 18 230 230 230 18 18 230 230 230 18 18 18 18 18 18 230 230 18 18 18 18 18 18 18 18 230 230 18 18 18 18 230 18 18 18 18 18 18 18 18 18 18 230 18 18 18 18 18 18 18 18 18 230 230 18 18 18 18 18 18 18 18 18 18 18 230 230 230 18 18 230 230 230 18 18 18 18 18 18 230 230 18 18 18 18 18 18 18 18 230 230 18 18 18 18 230 18 18 18 18 18 18 18 18 18 18 230 18 18 18 18 18 18 18 18 18 230 230 18 18 18 18 18 18 18 18 18 18 18 230 230 230 18 18 230 230 230 18 18 18 18 18 18 230 230 18 18 18 18 18 18 18 18 230 230 18 18 18 18 230 18 18 18 18 18 18 18 18 18 18 230 18 18 18 18 18 18 18 18 18 230 230 18 18 18 18 18 18 18 18 18 18 18 230 230 230 18 18 230 230 230 18 18 18 18 18 18 230 230 18 18 18 18 18 18 18 18 230 230 18 18 18 18 230 18 18 18 18 18 18 18 18 18 18 230 18 18 18 18 18 18 18 18 18 230 230 18 18 18 18 18 18 18 18 18 18 18 230 230 230 18 18 230 230 230 18 18 18 18
18 18 18 230 230 18 18 18 18 18 18 230 230 18 18 18 18 18 230 18 18 18 18 18 18 18 18 18 18 230 18 18 18 18 18 18 18 18 18 230 230 18 18 18 18 18 18 18 18 18 18 230 230 230 18 18 18 18 230 230 230 18 18 18 18 18 18 230 230 18 18 18 18 18 18 230 230 18 18 18 18 18 230 18 18 18 18 18 18 18 18 18 18 230 18 18 18 18 18 18 18 18 18 230 230 18 18 18 18 18 18 18 18 18 18 230 230 230 18 18 18 18 230 230 230 18 18 18 18 18 18 230 230 18 18 18 18 18 18 230 230 18 18 18 18 18 230 18 18 18 18 18 18 18 18 18 18 230 18 18 18 18 18 18 18 18 18 230 230 18 18 18 18 18 18 18 18 18 18 230 230 230 18 18 18 18 230 230 230 18 18 18 18 18 18 230 230 18 18 18 18 18 18 230 230 18 18 18 18 18 230 18 18 18 18 18 18 18 18 18 18 230 18 18 18 18 18 18 18 18 18 230 230 18 18 18 18 18 18 18 18 18 18 230 230 230 18 18 18 18 230 230 230 18 18 18 18 18 18 230 230 18 18 18 18 18 18 230 230 18 18 18 18 18 230 18 18 18 18 18 18 18 18 18 18 230 18 18 18 18 18 18 18 18 18 230 230 18 18 18 18 18 18 18 18 18 18 230 230 230 18 18 18 18 230 230 230 18 18 18
18 18 18 18 230 230 230 230 230 230 230 230 18 18 18 18 18 18 230 18 18 18 18 18 18 18 18 18 18 230 18 18 18 18 18 18 18 18 18 230 230 18 18 18 18 18 18 18 18 18 230 230 230 18 18 18 18 18 18 230 230 230 18 18 18 18 18 18 230 230 230 230 230 230 230 230 18 18 18 18 18 18 230 18 18 18 18 18 18 18 18 18 18 230 18 18 18 18 18 18 18 18 18 230 230 18 18 18 18 18 18 18 18 18 230 230 230 18 18 18 18 18 18 230 230 230 18 18 18 18 18 18 230 230 230 230 230 230 230 230 18 18 18 18 18 18 230 18 18 18 18 18 18 18 18 18 18 230 18 18 18 18 18 18 18 18 18 230 230 18 18 18 18 18 18 18 18 18 230 230 230 18 18 18 18 18 18 230 230 230 18 18 18 18 18 18 230 230 230 230 230 230 230 230 18 18 18 18 18 18 230 18 18 18 18 18 18 18 18 18 18 230 18 18 18 18 18 18 18 18 18 230 230 18 18 18 18 18 18 18 18 18 230 230 230 18 18 18 18 18 18 230 230 230 18 18 18 18 18 18 230 230 230 230 230 230 230 230 18 18 18 18 18 18 230 18 18 18 18 18 18 18 18 18 18 230 18 18 18 18 18 18 18 18 18 230 230 18 18 18 18 18 18 18 18 18 230 230 230 18 18 18 18 18 18 230 230 230 18 18
18 18 18 18 18 230 230 230 230 230 230 18 18 18 18 18 18 18 230 230 230 230 230 230 230 230 230 230 230 230 18 18 18 18 18 18 18 18 18 230 230 18 18 18 18 18 18 18 18 230 230 230 18 18 18 18 18 18 18 18 230 230 230 18 18 18 18 18 18 230 230 230 230 230 230 18 18 18 18 18 18 18 230 230 230 230 230 230 230 230 230 230 230 230 18 18 18 18 18 18 18 18 18 230 230 18 18 18 18 18 18 18 18 230 230 230 18 18 18 18 18 18 18 18 230 230 230 18 18 18 18 18 18 230 230 230 230 230 230 18 18 18 18 18 18 18 230 230 230 230 230 230 230 230 230 230 230 230 18 18 18 18 18 18 18 18 18 230 230 18 18 18 18 18 18 18 18 230 230 230 18 18 18 18 18 18 18 18 230 230 230 18 18 18 18 18 18 230 230 230 230 230 230 18 18 18 18 18 18 18 230 230 230 230 230 230 230 230 230 230 230 230 18 18 18 18 18 18 18 18 18 230 230 18 18 18 18 18 18 18 18 230 230 230 18 18 18 18 18 18 18 18 230 230 230 18 18 18 18 18 18 230 230 230 230 230 230 18 18 18 18 18 18 18 230 230 230 230 230 230 230 230 230 230 230 230 18 18 18 18 18 18 18 18 18 230 230 18 18 18 18 18 18 18 18 230 230 230 18 18 18 18 18 18 18 18 230 230 230 18
18 18 18 18 18 18 18 18 18 18 18 18 18 18 18 18 18 18 18 18 18 18 18 18 18 18 18 18 18 18 18 18 18 18 18 18 18 18 18 230 230 18 18 18 18 18 18 18 230 230 230 18 18 18 18 18 18 18 18 18 18 230 230 230 18 18 18 18 18 18 18 18 18 18 18 18 18 18 18 18 18 18 18 18 18 18 18 18 18 18 18 18 18 18 18 18 18 18 18 18 18 18 18 230 230 18 18 18 18 18 18 18 230 230 230 18 18 18 18 18 18 18 18 18 18 230 230 230 18 18 18 18 18 18 18 18 18 18 18 18 18 18 18 18 18 18 18 18 18 18 18 18 18 18 18 18 18 18 18 18 18 18 18 18 18 18 18 230 230 18 18 18 18 18 18 18 230 230 230 18 18 18 18 18 18 18 18 18 18 230 230 230 18 18 18 18 18 18 18 18 18 18 18 18 18 18 18 18 18 18 18 18 18 18 18 18 18 18 18 18 18 18 18 18 18 18 18 18 18 18 18 230 230 18 18 18 18 18 18 18 230 230 230 18 18 18 18 18 18 18 18 18 18 230 230 230 18 18 18 18 18 18 18 18 18 18 18 18 18 18 18 18 18 18 18 18 18 18 18 18 18 18 18 18 18 18 18 18 18 18 18 18 18 18 18 230 230 18 18 18 18 18 18 18 230 230 230 18 18 18 18 18 18 18 18 18 18 230 230 230
18 18 18 18 18 18 18 18 18 18 18 18 18 18 18 18 18 18 18 18 18 18 18 18 18 18 18 18 18 18 18 18 18 18 18 18 18 18 18 230 230 18 18 18 18 18 18 18 230 230 18 18 18 18 18 18 18 18 18 18 18 18 230 230 18 18 18 18 18 18 18 18 18 18 18 18 18 18 18 18 18 18 18 18 18 18 18 18 18 18 18 18 18 18 18 18 18 18 18 18 18 18 18 230 230 18 18 18 18 18 18 18 230 230 18 18 18 18 18 18 18 18 18 18 18 18 230 230 18 18 18 18 18 18 18 18 18 18 18 18 18 18 18 18 18 18 18 18 18 18 18 18 18 18 18 18 18 18 18 18 18 18 18 18 18 18 18 230 230 18 18 18 18 18 18 18 230 230 18 18 18 18 18 18 18 18 18 18 18 18 230 230 18 18 18 18 18 18 18 18 18 18 18 18 18 18 18 18 18 18 18 18 18 18 18 18 18 18 18 18 18 18 18 18 18 18 18 18 18 18 18 230 230 18 18 18 18 18 18 18 230 230 18 18 18 18 18 18 18 18 18 18 18 18 230 230 18 18 18 18 18 18 18 18 18 18 18 18 18 18 18 18 18 18 18 18 18 18 18 18 18 18 18 18 18 18 18 18 18 18 18 18 18 18 18 230 230 18 18 18 18 18 18 18 230 230 18 18 18 18 18 18 18 18 18 18 18 18 230 230
18 18 18 18 18 18 18 18 18 18 18 18 18 18 18 18 18 18 18 18 18 18 18 18 18 18 18 18 18 18 18 18 18 18 18 18 18 18 18 230 230 18 18 18 18 18 18 18 230 230 18 18 18 18 18 18 18 18 18 18 18 18 230 230 18 18 18 18 18 18 18 18 18 18 18 18 18 18 18 18 18 18 18 18 18 18 18 18 18 18 18 18 18 18 18 18 18 18 18 18 18 18 18 230 230 18 18 18 18 18 18 18 230 230 18 18 18 18 18 18 18 18 18 18 18 18 230 230 18 18 18 18 18 18 18 18 18 18 18 18 18 18 18 18 18 18 18 18 18 18 18 18 18 18 18 18 18 18 18 18 18 18 18 18 18 18 18 230 230 18 18 18 18 18 18 18 230 230 18 18 18 18 18 18 18 18 18 18 18 18 230 230 18 18 18 18 18 18 18 18 18 18 18 18 18 18 18 18 18 18 18 18 18 18 18 18 18 18 18 18 18 18 18 18 18 18 18 18 18 18 18 230 230 18 18 18 18 18 18 18 230 230 18 18 18 18 18 18 18 18 18 18 18 18 230 230 18 18 18 18 18 18 18 18 18 18 18 18 18 18 18 18 18 18 18 18 18 18 18 18 18 18 18 18 18 18 18 18 18 18 18 18 18 18 18 230 230 18 18 18 18 18 18 18 230 230 18 18 18 18 18 18 18 18 18 18 18 18 230 230
18 18 18 18 18 18 18 18 18 18 18 18 18 18 18 18 18 18 18 18 18 18 18 18 18 18 18 18 18 18 18 18 18 18 18 18 18 18 18 230 230 18 18 18 18 18 18 18 230 230 230 18 18 18 18 18 18 18 18 18 18 230 230 230 18 18 18 18 18 18 18 18 18 18 18 18 18 18 18 18 18 18 18 18 18 18 18 18 18 18 18 18 18 18 18 18 18 18 18 18 18 18 18 230 230 18 18 18 18 18 18 18 230 230 230 18 18 18 18 18 18 18 18 18 18 230 230 230 18 18 18 18 18 18 18 18 18 18 18 18 18 18 18 18 18 18 18 18 18 18 18 18 18 18 18 18 18 18 18 18 18 18 18 18 18 18 18 230 230 18 18 18 18 18 18 18 230 230 230 18 18 18 18 18 18 18 18 18 18 230 230 230 18 18 18 18 18 18 18 18 18 18 18 18 18 18 18 18 18 18 18 18 18 18 18 18 18 18 18 18 18 18 18 18 18 18 18 18 18 18 18 230 230 18 18 18 18 18 18 18 230 230 230 18 18 18 18 18 18 18 18 18 18 230 230 230 18 18 18 18 18 18 18 18 18 18 18 18 18 18 18 18 18 18 18 18 18 18 18 18 18 18 18 18 18 18 18 18 18 18 18 18 18 18 18 230 230 18 18 18 18 18 18 18 230 230 230 18 18 18 18 18 18 18 18 18 18 230 230 230
18 18 18 18 18 230 230 230 230 230 230 18 18 18 18 18 18 18 230 230 230 230 230 230 230 230 230 230 230 230 18 18 18 18 18 18 18 18 18 230 230 18 18 18 18 18 18 18 18 230 230 230 18 18 18 18 18 18 18 18 230 230 230 18 18 18 18 18 18 230 230 230 230 230 230 18 18 18 18 18 18 18 230 230 230 230 230 230 230 230 230 230 230 230 18 18 18 18 18 18 18 18 18 230 230 18 18 18 18 18 18 18 18 230 230 230 18 18 18 18 18 18 18 18 230 230 230 18 18 18 18 18 18 230 230 230 230 230 230 18 18 18 18 18 18 18 230 230 230 230 230 230 230 230 230 230 230 230 18 18 18 18 18 18 18 18 18 230 230 18 18 18 18 18 18 18 18 230 230 230 18 18 18 18 18 18 18 18 230 230 230 18 18 18 18 18 18 230 230 230 230 230 230 18 18 18 18 18 18 18 230 230 230 230 230 230 230 230 230 230 230 230 18 18 18 18 18 18 18 18 18 230 230 18 18 18 18 18 18 18 18 230 230 230 18 18 18 18 18 18 18 18 230 230 230 18 18 18 18 18 18 230 230 230 230 230 230 18 18 18 18 18 18 18 230 230 230 230 230 230 230 230 230 230 230 230 18 18 18 18 18 18 18 18 18 230 230 18 18 18 18 18 18 18 18 230 230 230 18 18 18 18 18 18 18 18 230 230 230 18
18 18 18 18 230 230 230 230 230 230 230 230 18 18 18 18 18 18 230 18 18 18 18 18 18 18 18 18 18 230 18 18 18 18 18 18 18 18 18 230 230 18 18 18 18 18 18 18 18 18 230 230 230 18 18 18 18 18 18 230 230 230 18 18 18 18 18 18 230 230 230 230 230 230 230 230 18 18 18 18 18 18 230 18 18 18 18 18 18 18 18 18 18 230 18 18 18 18 18 18 18 18 18 230 230 18 18 18 18 18 18 18 18 18 230 230 230 18 18 18 18 18 18 230 230 230 18 18 18 18 18 18 230 230 230 230 230 230 230 230 18 18 18 18 18 18 230 18 18 18 18 18 18 18 18 18 18 230 18 18 18 18 18 18 18 18 18 230 230 18 18 18 18 18 18 18 18 18 230 230 230 18 18 18 18 18 18 230 230 230 18 18 18 18 18 18 230 230 230 230 230 230 230 230 18 18 18 18 18 18 230 18 18 18 18 18 18 18 18 18 18 230 18 18 18 18 18 18 18 18 18 230 230 18 18 18 18 18 18 18 18 18 230 230 230 18 18 18 18 18 18 230 230 230 18 18 18 18 18 18 230 230 230 230 230 230 230 230 18 18 18 18 18 18 230 18 18 18 18 18 18 18 18 18 18 230 18 18 18 18 18 18 18 18 18 230 230 18 18 18 18 18 18 18 18 18 230 230 230 18 18 18 18 18 18 230 230 230 18 18
18 18 18 230 230 18 18 18 18 18 18 230 230 18 18 18 18 18 230 18 18 18 18 18 18 18 18 18 18 230 18 18 18 18 18 18 18 18 18 230 230 18 18 18 18 18 18 18 18 18 18 230 230 230 18 18 18 18 230 230 230 18 18 18 18 18 18 230 230 18 18 18 18 18 18 230 230 18 18 18 18 18 230 18 18 18 18 18 18 18 18 18 18 230 18 18 18 18 18 18 18 18 18 230 230 18 18 18 18 18 18 18 18 18 18 230 230 230 18 18 18 18 230 230 230 18 18 18 18 18 18 230 230 18 18 18 18 18 18 230 230 18 18 18 18 18 230 18 18 18 18 18 18 18 18 18 18 230 18 18 18 18 18 18 18 18 18 230 230 18 18 18 18 18 18 18 18 18 18 230 230 230 18 18 18 18 230 230 230 18 18 18 18 18 18 230 230 18 18 18 18 18 18 230 230 18 18 18 18 18 230 18 18 18 18 18 18 18 18 18 18 230 18 18 18 18 18 18 18 18 18 230 230 18 18 18 18 18 18 18 18 18 18 230 230 230 18 18 18 18 230 230 230 18 18 18 18 18 18 230 230 18 18 18 18 18 18 230 230 18 18 18 18 18 230 18 18 18 18 18 18 18 18 18 18 230 18 18 18 18 18 18 18 18 18 230 230 18 18 18 18 18 18 18 18 18 18 230 230 230 18 18 18 18 230 230 230 18 18 18
18 18 230 230 18 18 18 18 18 18 18 18 230 230 18 18 18 18 230 18 18 18 18 18 18 18 18 18 18 230 18 18 18 18 18 18 18 18 18 230 230 18 18 18 18 18 18 18 18 18 18 18 230 230 230 18 18 230 230 230 18 18 18 18 18 18 230 230 18 18 18 18 18 18 18 18 230 230 18 18 18 18 230 18 18 18 18 18 18 18 18 18 18 230 18 18 18 18 18 18 18 18 18 230 230 18 18 18 18 18 18 18 18 18 18 18 230 230 230 18 18 230 230 230 18 18 18 18 18 18 230 230 18 18 18 18 18 18 18 18 230 230 18 18 18 18 230 18 18 18 18 18 18 18 18 18 18 230 18 18 18 18 18 18 18 18 18 230 230 18 18 18 18 18 18 18 18 18 18 18 230 230 230 18 18 230 230 230 18 18 18 18 18 18 230 230 18 18 18 18 18 18 18 18 230 230 18 18 18 18 230 18 18 18 18 18 18 18 18 18 18 230 18 18 18 18 18 18 18 18 18 230 230 18 18 18 18 18 18 18 18 18 18 18 230 230 230 18 18 230 230 230 18 18 18 18 18 18 230 230 18 18 18 18 18 18 18 18 230 230 18 18 18 18 230 18 18 18 18 18 18 18 18 18 18 230 18 18 18 18 18 18 18 18 18 230 230 18 18 18 18 18 18 18 18 18 18 18 230 230 230 18 18 230 230 230 18 18 18 18
18 18 230 230 18 18 18 18 18 18 18 18 230 230 18 18 18 18 230 18 18 18 18 18 18 18 18 18 18 230 18 18 18 18 18 18 18 18 18 230 230 18 18 18 18 18 18 18 18 18 18 18 18 230 230 230 230 230 230 18 18 18 18 18 18 18 230 230 18 18 18 18 18 18 18 18 230 230 18 18 18 18 230 18 18 18 18 18 18 18 18 18 18 230 18 18 18 18 18 18 18 18 18 230 230 18 18 18 18 18 18 18 18 18 18 18 18 230 230 230 230 230 230 18 18 18 18 18 18 18 230 230 18 18 18 18 18 18 18 18 230 230 18 18 18 18 230 18 18 18 18 18 18 18 18 18 18 230 18 18 18 18 18 18 18 18 18 230 230 18 18 18 18 18 18 18 18 18 18 18 18 230 230 230 230 230 230 18 18 18 18 18 18 18 230 230 18 18 18 18 18 18 18 18 230 230 18 18 18 18 230 18 18 18 18 18 18 18 18 18 18 230 18 18 18 18 18 18 18 18 18 230 230 18 18 18 18 18 18 18 18 18 18 18 18 230 230 230 230 230 230 18 18 18 18 18 18 18 230 230 18 18 18 18 18 18 18 18 230 230 18 18 18 18 230 18 18 18 18 18 18 18 18 18 18 230 18 18 18 18 18 18 18 18 18 230 230 18 18 18 18 18 18 18 18 18 18 18 18 230 230 230 230 230 230 18 18 18 18 18
18 18 230 230 18 18 18 18 18 18 18 18 230 230 18 18 18 18 230 18 18 18 18 18 18 18 18 18 18 230 18 18 230 230 230 230 230 230 230 230 230 230 230 230 230 230 230 230 18 18 18 18 18 18 230 230 230 230 18 18 18 18 18 18 18 18 230 230 18 18 18 18 18 18 18 18 230 230 18 18 18 18 230 18 18 18 18 18 18 18 18 18 18 230 18 18 230 230 230 230 230 230 230 230 230 230 230 230 230 230 230 230 18 18 18 18 18 18 230 230 230 230 18 18 18 18 18 18 18 18 230 230 18 18 18 18 18 18 18 18 230 230 18 18 18 18 230 18 18 18 18 18 18 18 18 18 18 230 18 18 230 230 230 230 230 230 230 230 230 230 230 230 230 230 230 230 18 18 18 18 18 18 230 230 230 230 18 18 18 18 18 18 18 18 230 230 18 18 18 18 18 18 18 18 230 230 18 18 18 18 230 18 18 18 18 18 18 18 18 18 18 230 18 18 230 230 230 230 230 230 230 230 230 230 230 230 230 230 230 230 18 18 18 18 18 18 230 230 230 230 18 18 18 18 18 18 18 18 230 230 18 18 18 18 18 18 18 18 230 230 18 18 18 18 230 18 18 18 18 18 18 18 18 18 18 230 18 18 230 230 230 230 230 230 230 230 230 230 230 230 230 230 230 230 18 18 18 18 18 18 230 230 230 230 18 18 18 18 18 18
18 18 230 230 18 18 18 18 18 18 18 18 230 230 18 18 18 18 230 18 18 18 18 18 18 18 18 18 18 230 18 18 230 230 230 230 230 230 230 230 230 230 230 230 230 230 230 230 18 18 18 18 18 18 230 230 230 230 18 18 18 18 18 18 18 18 230 230 18 18 18 18 18 18 18 18 230 230 18 18 18 18 230 18 18 18 18 18 18 18 18 18 18 230 18 18 230 230 230 230 230 230 230 230 230 230 230 230 230 230 230 230 18 18 18 18 18 18 230 230 230 230 18 18 18 18 18 18 18 18 230 230 18 18 18 18 18 18 18 18 230 230 18 18 18 18 230 18 18 18 18 18 18 18 18 18 18 230 18 18 230 230 230 230 230 230 230 230 230 230 230 230 230 230 230 230 18 18 18 18 18 18 230 230 230 230 18 18 18 18 18 18 18 18 230 230 18 18 18 18 18 18 18 18 230 230 18 18 18 18 230 18 18 18 18 18 18 18 18 18 18 230 18 18 230 230 230 230 230 230 230 230 230 230 230 230 230 230 230 230 18 18 18 18 18 18 230 230 230 230 18 18 18 18 18 18 18 18 230 230 18 18 18 18 18 18 18 18 230 230 18 18 18 18 230 18 18 18 18 18 18 18 18 18 18 230 18 18 230 230 230 230 230 230 230 230 230 230 230 230 230 230 230 230 18 18 18 18 18 18 230 230 230 230 18 18 18 18 18 18
18 18 230 230 18 18 18 18 18 18 18 18 230 230 18 18 18 18 230 18 18 18 18 18 18 18 18 18 18 230 18 18 18 18 18 18 18 18 18 230 230 18 18 18 18 18 18 18 18 18 18 18 18 230 230 230 230 230 230 18 18 18 18 18 18 18 230 230 18 18 18 18 18 18 18 18 230 230 18 18 18 18 230 18 18 18 18 18 18 18 18 18 18 230 18 18 18 18 18 18 18 18 18 230 230 18 18 18 18 18 18 18 18 18 18 18 18 230 230 230 230 230 230 18 18 18 18 18 18 18 230 230 18 18 18 18 18 18 18 18 230 230 18 18 18 18 230 18 18 18 18 18 18 18 18 18 18 230 18 18 18 18 18 18 18 18 18 230 230 18 18 18 18 18 18 18 18 18 18 18 18 230 230 230 230 230 230 18 18 18 18 18 18 18 230 230 18 18 18 18 18 18 18 18 230 230 18 18 18 18 230 18 18 18 18 18 18 18 18 18 18 230 18 18 18 18 18 18 18 18 18 230 230 18 18 18 18 18 18 18 18 18 18 18 18 230 230 230 230 230 230 18 18 18 18 18 18 18 230 230 18 18 18 18 18 18 18 18 230 230 18 18 18 18 230 18 18 18 18 18 18 18 18 18 18 230 18 18 18 18 18 18 18 18 18 230 230 18 18 18 18 18 18 18 18 18 18 18 18 230 230 230 230 230 230 18 18 18 18 18
18 18 230 230 18 18 18 18 18 18 18 18 230 230 18 18 18 18 230 18 18 18 18 18 18 18 18 18 18 230 18 18 18 18 18 18 18 18 18 230 230 18 18 18 18 18 18 18 18 18 18 18 230 230 230 18 18 230 230 230 18 18 18 18 18 18 230 230 18 18 18 18 18 18 18 18 230 230 18 18 18 18 230 18 18 18 18 18 18 18 18 18 18 230 18 18 18 18 18 18 18 18 18 230 230 18 18 18 18 18 18 18 18 18 18 18 230 230 230 18 18 230 230 230 18 18 18 18 18 18 230 230 18 18 18 18 18 18 18 18 230 230 18 18 18 18 230 18 18 18 18 18 18 18 18 18 18 230 18 18 18 18 18 18 18 18 18 230 230 18 18 18 18 18 18 18 18 18 18 18 230 230 230 18 18 230 230 230 18 18 18 18 18 18 230 230 18 18 18 18 18 18 18 18 230 230 18 18 18 18 230 18 18 18 18 18 18 18 18 18 18 230 18 18 18 18 18 18 18 18 18 230 230 18 18 18 18 18 18 18 18 18 18 18 230 230 230 18 18 230 230 230 18 18 18 18 18 18 230 230 18 18 18 18 18 18 18 18 230 230 18 18 18 18 230 18 18 18 18 18 18 18 18 18 18 230 18 18 18 18 18 18 18 18 18 230 230 18 18 18 18 18 18 18 18 18 18 18 230 230 230 18 18 230 230 230 18 18 18 18
18 18 18 230 230 18 18 18 18 18 18 230 230 18 18 18 18 18 230 18 18 18 18 18 18 18 18 18 18 230 18 18 18 18 18 18 18 18 18 230 230 18 18 18 18 18 18 18 18 18 18 230 230 230 18 18 18 18 230 230 230 18 18 18 18 18 18 230 230 18 18 18 18 18 18 230 230 18 18 18 18 18 230 18 18 18 18 18 18 18 18 18 18 230 18 18 18 18 18 18 18 18 18 230 230 18 18 18 18 18 18 18 18 18 18 230 230 230 18 18 18 18 230 230 230 18 18 18 18 18 18 230 230 18 18 18 18 18 18 230 230 18 18 18 18 18 230 18 18 18 18 18 18 18 18 18 18 230 18 18 18 18 18 18 18 18 18 230 230 18 18 18 18 18 18 18 18 18 18 230 230 230 18 18 18 18 230 230 230 18 18 18 18 18 18 230 230 18 18 18 18 18 18 230 230 18 18 18 18 18 230 18 18 18 18 18 18 18 18 18 18 230 18 18 18 18 18 18 18 18 18 230 230 18 18 18 18 18 18 18 18 18 18 230 230 230 18 18 18 18 230 230 230 18 18 18 18 18 18 230 230 18 18 18 18 18 18 230 230 18 18 18 18 18 230 18 18 18 18 18 18 18 18 18 18 230 18 18 18 18 18 18 18 18 18 230 230 18 18 18 18 18 18 18 18 18 18 230 230 230 18 18 18 18 230 230 230 18 18 18
18 18 18 18 230 230 230 230 230 230 230 230 18 18 18 18 18 18 230 18 18 18 18 18 18 18 18 18 18 230 18 18 18 18 18 18 18 18 18 230 230 18 18 18 18 18 18 18 18 18 230 230 230 18 18 18 18 18 18 230 230 230 18 18 18 18 18 18 230 230 230 230 230 230 230 230 18 18 18 18 18 18 230 18 18 18 18 18 18 18 18 18 18 230 18 18 18 18 18 18 18 18 18 230 230 18 18 18 18 18 18 18 18 18 230 230 230 18 18 18 18 18 18 230 230 230 18 18 18 18 18 18 230 230 230 230 230 230 230 230 18 18 18 18 18 18 230 18 18 18 18 18 18 18 18 18 18 230 18 18 18 18 18 18 18 18 18 230 230 18 18 18 18 18 18 18 18 18 230 230 230 18 18 18 18 18 18 230 230 230 18 18 18 18 18 18 230 230 230 230 230 230 230 230 18 18 18 18 18 18 230 18 18 18 18 18 18 18 18 18 18 230 18 18 18 18 18 18 18 18 18 230 230 18 18 18 18 18 18 18 18 18 230 230 230 18 18 18 18 18 18 230 230 230 18 18 18 18 18 18 230 230 230 230 230 230 230 230 18 18 18 18 18 18 230 18 18 18 18 18 18 18 18 18 18 230 18 18 18 18 18 18 18 18 18 230 230 18 18 18 18 18 18 18 18 18 230 230 230 18 18 18 18 18 18 230 230 230 18 18
18 18 18 18 18 230 230 230 230 230 230 18 18 18 18 18 18 18 230 230 230 230 230 230 230 230 230 230 230 230 18 18 18 18 18 18 18 18 18 230 230 18 18 18 18 18 18 18 18 230 230 230 18 18 18 18 18 18 18 18 230 230 230 18 18 18 18 18 18 230 230 230 230 230 230 18 18 18 18 18 18 18 230 230 230 230 230 230 230 230 230 230 230 230 18 18 18 18 18 18 18 18 18 230 230 18 18 18 18 18 18 18 18 230 230 230 18 18 18 18 18 18 18 18 230 230 230 18 18 18 18 18 18 230 230 230 230 230 230 18 18 18 18 18 18 18 230 230 230 230 230 230 230 230 230 230 230 230 18 18 18 18 18 18 18 18 18 230 230 18 18 18 18 18 18 18 18 230 230 230 18 18 18 18 18 18 18 18 230 230 230 18 18 18 18 18 18 230 230 230 230 230 230 18 18 18 18 18 18 18 230 230 230 230 230 230 230 230 230 230 230 230 18 18 18 18 18 18 18 18 18 230 230 18 18 18 18 18 18 18 18 230 230 230 18 18 18 18 18 18 18 18 230 230 230 18 18 18 18 18 18 230 230 230 230 230 230 18 18 18 18 18 18 18 230 230 230 230 230 230 230 230 230 230 230 230 18 18 18 18 18 18 18 18 18 230 230 18 18 18 18 18 18 18 18 230 230 230 18 18 18 18 18 18 18 18 230 230 230 18
18 18 18 18 18 18 18 18 18 18 18 18 18 18 18 18 18 18 18 18 18 18 18 18 18 18 18 18 18 18 18 18 18 18 18 18 18 18 18 230 230 18 18 18 18 18 18 18 230 230 230 18 18 18 18 18 18 18 18 18 18 230 230 230 18 18 18 18 18 18 18 18 18 18 18 18 18 18 18 18 18 18 18 18 18 18 18 18 18 18 18 18 18 18 18 18 18 18 18 18 18 18 18 230 230 18 18 18 18 18 18 18 230 230 230 18 18 18 18 18 18 18 18 18 18 230 230 230 18 18 18 18 18 18 18 18 18 18 18 18 18 18 18 18 18 18 18 18 18 18 18 18 18 18 18 18 18 18 18 18 18 18 18 18 18 18 18 230 230 18 18 18 18 18 18 18 230 230 230 18 18 18 18 18 18 18 18 18 18 230 230 230 18 18 18 18 18 18 18 18 18 18 18 18 18 18 18 18 18 18 18 18 18 18 18 18 18 18 18 18 18 18 18 18 18 18 18 18 18 18 18 230 230 18 18 18 18 18 18 18 230 230 230 18 18 18 18 18 18 18 18 18 18 230 230 230 18 18 18 18 18 18 18 18 18 18 18 18 18 18 18 18 18 18 18 18 18 18 18 18 18 18 18 18 18 18 18 18 18 18 18 18 18 18 18 230 230 18 18 18 18 18 18 18 230 230 230 18 18 18 18 18 18 18 18 18 18 230 230 230
18 18 18 18 18 18 18 18 18 18 18 18 18 18 18 18 18 18 18 18 18 18 18 18 18 18 18 18 18 18 18 18 18 18 18 18 18 18 18 230 230 18 18 18 18 18 18 18 230 230 18 18 18 18 18 18 18 18 18 18 18 18 230 230 18 18 18 18 18 18 18 18 18 18 18 18 18 18 18 18 18 18 18 18 18 18 18 18 18 18 18 18 18 18 18 18 18 18 18 18 18 18 18 230 230 18 18 18 18 18 18 18 230 230 18 18 18 18 18 18 18 18 18 18 18 18 230 230 18 18 18 18 18 18 18 18 18 18 18 18 18 18 18 18 18 18 18 18 18 18 18 18 18 18 18 18 18 18 18 18 18 18 18 18 18 18 18 230 230 18 18 18 18 18 18 18 230 230 18 18 18 18 18 18 18 18 18 18 18 18 230 230 18 18 18 18 18 18 18 18 18 18 18 18 18 18 18 18 18 18 18 18 18 18 18 18 18 18 18 18 18 18 18 18 18 18 18 18 18 18 18 230 230 18 18 18 18 18 18 18 230 230 18 18 18 18 18 18 18 18 18 18 18 18 230 230 18 18 18 18 18 18 18 18 18 18 18 18 18 18 18 18 18 18 18 18 18 18 18 18 18 18 18 18 18 18 18 18 18 18 18 18 18 18 18 230 230 18 18 18 18 18 18 18 230 230 18 18 18 18 18 18 18 18 18 18 18 18 230 230
