P2
320 128
255
14 21 19 17 15 22 20 18 16 14 21 19 17 15 22 20 18 16 14 21 19 17 15 22 20 18 16 14 21 19 17 15 22 20 18 16 14 21 19 229 227 22 20 18 16 14 21 19 229 227 22 20 18 16 14 21 19 17 15 22 20 18 228 226 21 19 17 15 22 20 18 16 14 21 19 17 15 22 20 18 16 14 21 19 17 15 22 20 18 16 14 21 19 17 15 22 20 18 16 14 21 19 17 227 234 20 18 16 14 21 19 17 227 234 20 18 16 14 21 19 17 15 22 20 18 16 226 233 19 17 15 22 20 18 16 14 21 19 17 15 22 20 18 16 14 21 19 17 15 22 20 18 16 14 21 19 17 15 22 20 18 16 14 21 19 17 15 234 232 18 16 14 21 19 17 15 234 232 18 16 14 21 19 17 15 22 20 18 16 14 233 231 17 15 22 20 18 16 14 21 19 17 15 22 20 18 16 14 21 19 17 15 22 20 18 16 14 21 19 17 15 22 20 18 16 14 21 19 17 15 22 232 230 16 14 21 19 17 15 22 232 230 16 14 21 19 17 15 22 20 18 16 14 21 231 229 15 22 20 18 16 14 21 19 17 15 22 20 18 16 14 21 19 17 15 22 20 18 16 14 21 19 17 15 22 20 18 16 14 21 19 17 15 22 20 230 228 14 21 19 17 15 22 20 230 228 14 21 19 17 15 22 20 18 16 14 21 19 229 227
19 17 15 22 20 18 16 14 21 19 17 15 22 20 18 16 14 21 19 17 15 22 20 18 16 14 21 19 17 15 22 20 18 16 14 21 19 17 15 234 232 18 16 14 21 19 17 15 234 232 230 16 14 21 19 17 15 22 20 18 16 226 233 231 17 15 22 20 18 16 14 21 19 17 15 22 20 18 16 14 21 19 17 15 22 20 18 16 14 21 19 17 15 22 20 18 16 14 21 19 17 15 22 232 230 16 14 21 19 17 15 22 232 230 228 14 21 19 17 15 22 20 18 16 14 233 231 229 15 22 20 18 16 14 21 19 17 15 22 20 18 16 14 21 19 17 15 22 20 18 16 14 21 19 17 15 22 20 18 16 14 21 19 17 15 22 20 230 228 14 21 19 17 15 22 20 230 228 226 21 19 17 15 22 20 18 16 14 21 231 229 227 22 20 18 16 14 21 19 17 15 22 20 18 16 14 21 19 17 15 22 20 18 16 14 21 19 17 15 22 20 18 16 14 21 19 17 15 22 20 18 228 226 21 19 17 15 22 20 18 228 226 233 19 17 15 22 20 18 16 14 21 19 229 227 234 20 18 16 14 21 19 17 15 22 20 18 16 14 21 19 17 15 22 20 18 16 14 21 19 17 15 22 20 18 16 14 21 19 17 15 22 20 18 16 226 233 19 17 15 22 20 18 16 226 233 231 17 15 22 20 18 16 14 21 19 17 227 234 232
15 22 20 18 16 226 233 231 229 227 234 20 18 16 14 21 19 17 227 234 232 230 228 226 233 231 229 227 234 232 18 16 14 21 19 17 15 22 20 230 228 14 21 19 17 15 22 20 18 228 226 233 19 17 15 22 20 18 16 14 233 231 229 15 22 20 18 16 14 233 231 229 227 234 232 18 16 14 21 19 17 15 234 232 230 228 226 233 231 229 227 234 232 230 16 14 21 19 17 15 22 20 18 228 226 21 19 17 15 22 20 18 16 226 233 231 17 15 22 20 18 16 14 21 231 229 227 22 20 18 16 14 21 231 229 227 234 232 230 16 14 21 19 17 15 22 232 230 228 226 233 231 229 227 234 232 230 228 14 21 19 17 15 22 20 18 16 226 233 19 17 15 22 20 18 16 14 233 231 229 15 22 20 18 16 14 21 19 229 227 234 20 18 16 14 21 19 229 227 234 232 230 228 14 21 19 17 15 22 20 230 228 226 233 231 229 227 234 232 230 228 226 21 19 17 15 22 20 18 16 14 233 231 17 15 22 20 18 16 14 21 231 229 227 22 20 18 16 14 21 19 17 227 234 232 18 16 14 21 19 17 227 234 232 230 228 226 21 19 17 15 22 20 18 228 226 233 231 229 227 234 232 230 228 226 233 19 17 15 22 20 18 16 14 21 231 229 15 22 20 18 16 14 21 19 229 227 234 20 18 16 14 21 19 17 15 234 232 230 16
20 18 16 14 233 231 229 227 234 232 230 228 14 21 19 17 15 22 232 18 16 14 21 19 17 15 22 20 18 228 14 21 19 17 15 22 20 18 16 226 233 19 17 15 22 20 18 16 14 21 231 229 227 22 20 18 16 14 21 231 229 227 22 20 18 16 14 21 231 229 227 234 232 230 228 226 21 19 17 15 22 20 230 16 14 21 19 17 15 22 20 18 16 226 21 19 17 15 22 20 18 16 14 233 231 17 15 22 20 18 16 14 21 19 229 227 234 20 18 16 14 21 19 229 227 234 20 18 16 14 21 19 229 227 234 232 230 228 226 233 19 17 15 22 20 18 228 14 21 19 17 15 22 20 18 16 14 233 19 17 15 22 20 18 16 14 21 231 229 15 22 20 18 16 14 21 19 17 227 234 232 18 16 14 21 19 17 227 234 232 18 16 14 21 19 17 227 234 232 230 228 226 233 231 17 15 22 20 18 16 226 21 19 17 15 22 20 18 16 14 21 231 17 15 22 20 18 16 14 21 19 229 227 22 20 18 16 14 21 19 17 15 234 232 230 16 14 21 19 17 15 234 232 230 16 14 21 19 17 15 234 232 230 228 226 233 231 229 15 22 20 18 16 14 233 19 17 15 22 20 18 16 14 21 19 229 15 22 20 18 16 14 21 19 17 227 234 20 18 16 14 21 19 17 15 22 232 230 228 14 21 19 17 15 22 232 230 228 14 21
16 14 21 231 229 15 22 20 18 16 14 233 231 17 15 22 20 18 228 14 21 19 17 15 22 20 18 16 14 233 19 17 15 22 20 18 16 14 21 231 229 15 22 20 18 16 14 21 19 17 15 234 232 230 16 14 21 19 229 227 234 20 18 16 14 21 19 229 227 22 20 18 16 14 21 231 229 15 22 20 18 16 226 21 19 17 15 22 20 18 16 14 21 231 17 15 22 20 18 16 14 21 19 229 227 22 20 18 16 14 21 19 17 15 22 232 230 228 14 21 19 17 227 234 232 18 16 14 21 19 17 227 234 20 18 16 14 21 19 229 227 22 20 18 16 14 233 19 17 15 22 20 18 16 14 21 19 229 15 22 20 18 16 14 21 19 17 227 234 20 18 16 14 21 19 17 15 22 20 230 228 226 21 19 17 15 234 232 230 16 14 21 19 17 15 234 232 18 16 14 21 19 17 227 234 20 18 16 14 21 231 17 15 22 20 18 16 14 21 19 17 227 22 20 18 16 14 21 19 17 15 234 232 18 16 14 21 19 17 15 22 20 18 228 226 233 19 17 15 22 232 230 228 14 21 19 17 15 22 232 230 16 14 21 19 17 15 234 232 18 16 14 21 19 229 15 22 20 18 16 14 21 19 17 15 234 20 18 16 14 21 19 17 15 22 232 230 16 14 21 19 17 15 22 20 18 16 226 233 231 17 15 22 20 230 228 226 21 19 17
21 19 229 227 22 20 18 16 14 21 19 17 227 234 20 18 16 14 233 19 17 15 22 20 18 16 14 21 19 229 15 22 20 18 16 14 21 19 17 227 234 20 18 16 14 21 19 17 15 22 20 18 228 226 233 19 17 227 234 232 18 16 14 21 19 17 227 234 20 18 16 14 21 19 17 15 234 232 18 16 14 21 231 17 15 22 20 18 16 14 21 19 17 227 22 20 18 16 14 21 19 17 15 234 232 18 16 14 21 19 17 15 22 20 18 16 226 233 231 17 15 234 232 230 16 14 21 19 17 15 234 232 18 16 14 21 19 17 15 22 232 230 16 14 21 19 229 15 22 20 18 16 14 21 19 17 15 234 20 18 16 14 21 19 17 15 22 232 230 16 14 21 19 17 15 22 20 18 16 14 233 231 229 15 22 232 230 228 14 21 19 17 15 22 232 230 16 14 21 19 17 15 22 20 230 228 14 21 19 17 227 22 20 18 16 14 21 19 17 15 22 232 18 16 14 21 19 17 15 22 20 230 228 14 21 19 17 15 22 20 18 16 14 21 231 229 227 22 20 230 228 226 21 19 17 15 22 20 230 228 14 21 19 17 15 22 20 18 228 226 21 19 17 15 234 20 18 16 14 21 19 17 15 22 20 230 16 14 21 19 17 15 22 20 18 228 226 21 19 17 15 22 20 18 16 14 21 19 229 227 234 20 18 228 226 233 19 17 15 22
17 15 234 232 18 16 14 21 19 17 15 22 232 230 16 14 21 19 229 15 22 20 18 16 14 21 19 17 15 234 20 18 16 14 21 19 17 15 22 232 230 16 14 21 19 17 15 22 20 18 16 14 21 231 229 227 234 232 230 16 14 21 19 17 15 22 232 230 16 14 21 19 17 15 22 20 230 228 14 21 19 17 227 22 20 18 16 14 21 19 17 15 22 232 18 16 14 21 19 17 15 22 20 230 228 14 21 19 17 15 22 20 18 16 14 21 19 229 227 234 232 230 228 14 21 19 17 15 22 20 230 228 14 21 19 17 15 22 20 18 228 226 21 19 17 15 234 20 18 16 14 21 19 17 15 22 20 230 16 14 21 19 17 15 22 20 18 228 226 21 19 17 15 22 20 18 16 14 21 19 17 227 234 232 230 228 226 21 19 17 15 22 20 18 228 226 21 19 17 15 22 20 18 16 226 233 19 17 15 22 232 18 16 14 21 19 17 15 22 20 18 228 14 21 19 17 15 22 20 18 16 226 233 19 17 15 22 20 18 16 14 21 19 17 15 234 232 230 228 226 233 19 17 15 22 20 18 16 226 233 19 17 15 22 20 18 16 14 233 231 17 15 22 20 230 16 14 21 19 17 15 22 20 18 16 226 21 19 17 15 22 20 18 16 14 233 231 17 15 22 20 18 16 14 21 19 17 15 22 232 230 228 226 233 231 17 15 22 20 18
22 20 230 228 14 21 19 17 15 22 20 18 228 226 21 19 17 15 234 20 18 16 14 21 19 17 15 22 20 230 16 14 233 231 229 227 234 232 230 228 226 233 231 229 227 234 232 230 16 14 21 19 17 15 234 232 230 228 14 21 19 17 15 22 20 18 228 226 21 19 17 15 22 20 18 16 226 233 19 17 15 22 232 18 16 14 21 19 17 15 22 20 18 228 14 21 231 229 227 234 232 230 228 226 233 231 229 227 234 232 230 228 14 21 19 17 15 22 232 230 228 226 21 19 17 15 22 20 18 16 226 233 19 17 15 22 20 18 16 14 233 231 17 15 22 20 230 16 14 21 19 17 15 22 20 18 16 226 21 19 229 227 234 232 230 228 226 233 231 229 227 234 232 230 228 226 21 19 17 15 22 20 230 228 226 233 19 17 15 22 20 18 16 14 233 231 17 15 22 20 18 16 14 21 231 229 15 22 20 18 228 14 21 19 17 15 22 20 18 16 14 233 19 17 227 234 232 230 228 226 233 231 229 227 234 232 230 228 226 233 19 17 15 22 20 18 228 226 233 231 17 15 22 20 18 16 14 21 231 229 15 22 20 18 16 14 21 19 229 227 22 20 18 16 226 21 19 17 15 22 20 18 16 14 21 231 17 15 234 232 230 228 226 233 231 229 227 234 232 230 228 226 233 231 17 15 22 20 18 16 226 233 231 229 15 22 20 18 16 14
18 16 226 233 19 17 15 22 20 18 16 14 233 231 17 15 22 20 230 16 14 21 19 17 15 22 20 18 16 226 21 19 229 227 234 232 230 228 226 233 231 229 227 234 232 230 228 226 21 19 17 15 22 20 230 228 226 233 19 17 15 22 20 18 16 14 233 231 17 15 22 20 18 16 14 21 231 229 15 22 20 18 228 14 21 19 17 15 22 20 18 16 14 233 19 17 227 234 232 230 228 226 233 231 229 227 234 232 230 228 226 233 19 17 15 22 20 18 228 226 233 231 17 15 22 20 18 16 14 21 231 229 15 22 20 18 16 14 21 19 229 227 22 20 18 16 226 21 19 17 15 22 20 18 16 14 21 231 17 15 234 232 230 228 226 233 231 229 227 234 232 230 228 226 233 231 17 15 22 20 18 16 226 233 231 229 15 22 20 18 16 14 21 19 229 227 22 20 18 16 14 21 19 17 227 234 20 18 16 14 233 19 17 15 22 20 18 16 14 21 19 229 15 22 232 230 228 226 233 231 229 227 234 232 230 228 226 233 231 229 15 22 20 18 16 14 233 231 229 227 22 20 18 16 14 21 19 17 227 234 20 18 16 14 21 19 17 15 234 232 18 16 14 21 231 17 15 22 20 18 16 14 21 19 17 227 22 20 230 228 226 233 231 229 227 234 232 230 228 226 233 231 229 227 22 20 18 16 14 21 231 229 227 234 20 18 16 14 21 19
14 21 231 229 15 22 20 18 16 14 21 19 229 227 22 20 18 16 226 21 19 17 15 22 20 18 16 14 21 231 17 15 22 20 18 16 14 21 19 229 227 22 20 18 16 14 21 19 17 15 22 20 18 228 226 233 231 229 227 22 20 18 16 14 21 19 229 227 22 20 18 16 14 21 19 17 227 234 20 18 16 14 233 19 17 15 22 20 18 16 14 21 19 229 15 22 20 18 16 14 21 19 17 227 234 20 18 16 14 21 19 17 15 22 20 18 16 226 233 231 229 227 234 20 18 16 14 21 19 17 227 234 20 18 16 14 21 19 17 15 234 232 18 16 14 21 231 17 15 22 20 18 16 14 21 19 17 227 22 20 18 16 14 21 19 17 15 234 232 18 16 14 21 19 17 15 22 20 18 16 14 233 231 229 227 234 232 18 16 14 21 19 17 15 234 232 18 16 14 21 19 17 15 22 232 230 16 14 21 19 229 15 22 20 18 16 14 21 19 17 15 234 20 18 16 14 21 19 17 15 22 232 230 16 14 21 19 17 15 22 20 18 16 14 21 231 229 227 234 232 230 16 14 21 19 17 15 22 232 230 16 14 21 19 17 15 22 20 230 228 14 21 19 17 227 22 20 18 16 14 21 19 17 15 22 232 18 16 14 21 19 17 15 22 20 230 228 14 21 19 17 15 22 20 18 16 14 21 19 229 227 234 232 230 228 14 21 19 17 15
19 17 227 234 20 18 16 14 21 19 17 15 234 232 18 16 14 21 231 17 15 22 20 18 16 14 21 19 17 227 22 20 18 16 14 21 19 17 15 234 232 18 16 14 21 19 17 15 22 20 18 16 226 233 231 17 15 234 232 230 16 14 21 19 17 15 234 232 18 16 14 21 19 17 15 22 232 230 16 14 21 19 229 15 22 20 18 16 14 21 19 17 15 234 20 18 16 14 21 19 17 15 22 232 230 16 14 21 19 17 15 22 20 18 16 14 233 231 229 15 22 232 230 228 14 21 19 17 15 22 232 230 16 14 21 19 17 15 22 20 230 228 14 21 19 17 227 22 20 18 16 14 21 19 17 15 22 232 18 16 14 21 19 17 15 22 20 230 228 14 21 19 17 15 22 20 18 16 14 21 231 229 227 22 20 230 228 226 21 19 17 15 22 20 230 228 14 21 19 17 15 22 20 18 228 226 21 19 17 15 234 20 18 16 14 21 19 17 15 22 20 230 16 14 21 19 17 15 22 20 18 228 226 21 19 17 15 22 20 18 16 14 21 19 229 227 234 20 18 228 226 233 19 17 15 22 20 18 228 226 21 19 17 15 22 20 18 16 226 233 19 17 15 22 232 18 16 14 21 19 17 15 22 20 18 228 14 21 19 17 15 22 20 18 16 226 233 19 17 15 22 20 18 16 14 21 19 17 227 234 232 18 16 226 233 231 17 15 22 20
15 22 20 230 228 14 21 19 17 15 22 232 230 16 14 21 19 17 227 22 20 18 16 14 21 19 17 15 22 232 18 16 14 21 19 17 15 22 20 230 228 14 21 19 17 15 22 20 18 16 14 233 231 229 15 22 20 18 228 226 233 19 17 15 22 20 18 228 226 21 19 17 15 22 20 230 228 14 21 19 17 15 234 20 18 16 14 21 19 17 15 22 20 230 16 14 21 19 17 15 22 20 18 228 226 21 19 17 15 22 20 18 16 14 21 231 229 227 22 20 18 16 226 233 231 17 15 22 20 18 16 226 233 19 17 15 22 20 18 228 226 21 19 17 15 22 232 18 16 14 21 19 17 15 22 20 18 228 14 21 19 17 15 22 20 18 16 226 233 19 17 15 22 20 18 16 14 21 19 229 227 234 20 18 16 14 233 231 229 15 22 20 18 16 14 233 231 17 15 22 20 18 16 226 233 19 17 15 22 20 230 16 14 21 19 17 15 22 20 18 16 226 21 19 17 15 22 20 18 16 14 233 231 17 15 22 20 18 16 14 21 19 17 227 234 232 18 16 14 21 231 229 227 22 20 18 16 14 21 231 229 15 22 20 18 16 14 233 231 17 15 22 20 18 228 14 21 19 17 15 22 20 18 16 14 233 19 17 15 22 20 18 16 14 21 231 229 15 22 20 18 16 14 21 19 17 15 234 232 230 16 14 21 19 229 227 234 20 18 16
20 18 16 14 233 231 229 227 234 232 230 228 14 21 19 17 15 22 232 18 16 14 21 19 17 15 22 20 18 228 14 21 19 17 15 22 20 18 16 226 233 19 17 15 22 20 18 16 14 21 231 229 227 22 20 18 16 14 21 231 229 227 22 20 18 16 14 21 231 229 227 234 232 230 228 226 21 19 17 15 22 20 230 16 14 21 19 17 15 22 20 18 16 226 21 19 17 15 22 20 18 16 14 233 231 17 15 22 20 18 16 14 21 19 229 227 234 20 18 16 14 21 19 229 227 234 20 18 16 14 21 19 229 227 234 232 230 228 226 233 19 17 15 22 20 18 228 14 21 19 17 15 22 20 18 16 14 233 19 17 15 22 20 18 16 14 21 231 229 15 22 20 18 16 14 21 19 17 227 234 232 18 16 14 21 19 17 227 234 232 18 16 14 21 19 17 227 234 232 230 228 226 233 231 17 15 22 20 18 16 226 21 19 17 15 22 20 18 16 14 21 231 17 15 22 20 18 16 14 21 19 229 227 22 20 18 16 14 21 19 17 15 234 232 230 16 14 21 19 17 15 234 232 230 16 14 21 19 17 15 234 232 230 228 226 233 231 229 15 22 20 18 16 14 233 19 17 15 22 20 18 16 14 21 19 229 15 22 20 18 16 14 21 19 17 227 234 20 18 16 14 21 19 17 15 22 232 230 228 14 21 19 17 15 22 232 230 228 14 21
16 14 21 19 17 227 234 232 230 228 226 21 19 17 15 22 20 18 228 226 233 231 229 227 234 232 230 228 226 233 19 17 15 22 20 18 16 14 21 231 229 15 22 20 18 16 14 21 19 229 227 234 20 18 16 14 21 19 17 15 234 232 230 16 14 21 19 17 15 234 232 230 228 226 233 19 17 15 22 20 18 16 226 233 231 229 227 234 232 230 228 226 233 231 17 15 22 20 18 16 14 21 19 229 227 22 20 18 16 14 21 19 17 227 234 232 18 16 14 21 19 17 15 22 232 230 228 14 21 19 17 15 22 232 230 228 226 233 231 17 15 22 20 18 16 14 233 231 229 227 234 232 230 228 226 233 231 229 15 22 20 18 16 14 21 19 17 227 234 20 18 16 14 21 19 17 15 234 232 230 16 14 21 19 17 15 22 20 230 228 226 21 19 17 15 22 20 230 228 226 233 231 229 15 22 20 18 16 14 21 231 229 227 234 232 230 228 226 233 231 229 227 22 20 18 16 14 21 19 17 15 234 232 18 16 14 21 19 17 15 22 232 230 228 14 21 19 17 15 22 20 18 228 226 233 19 17 15 22 20 18 228 226 233 231 229 227 22 20 18 16 14 21 19 229 227 234 232 230 228 226 233 231 229 227 234 20 18 16 14 21 19 17 15 22 232 230 16 14 21 19 17 15 22 20 230 228 226 21 19 17 15 22 20 18 16 226 233 231 17
21 19 17 15 22 20 18 16 14 21 19 17 15 22 20 18 16 14 21 19 17 15 22 20 18 16 14 21 19 17 15 22 20 18 16 14 21 19 17 227 234 20 18 16 14 21 19 17 227 234 232 18 16 14 21 19 17 15 22 20 18 228 226 233 19 17 15 22 20 18 16 14 21 19 17 15 22 20 18 16 14 21 19 17 15 22 20 18 16 14 21 19 17 15 22 20 18 16 14 21 19 17 15 234 232 18 16 14 21 19 17 15 234 232 230 16 14 21 19 17 15 22 20 18 16 226 233 231 17 15 22 20 18 16 14 21 19 17 15 22 20 18 16 14 21 19 17 15 22 20 18 16 14 21 19 17 15 22 20 18 16 14 21 19 17 15 22 232 230 16 14 21 19 17 15 22 232 230 228 14 21 19 17 15 22 20 18 16 14 233 231 229 15 22 20 18 16 14 21 19 17 15 22 20 18 16 14 21 19 17 15 22 20 18 16 14 21 19 17 15 22 20 18 16 14 21 19 17 15 22 20 230 228 14 21 19 17 15 22 20 230 228 226 21 19 17 15 22 20 18 16 14 21 231 229 227 22 20 18 16 14 21 19 17 15 22 20 18 16 14 21 19 17 15 22 20 18 16 14 21 19 17 15 22 20 18 16 14 21 19 17 15 22 20 18 228 226 21 19 17 15 22 20 18 228 226 233 19 17 15 22 20 18 16 14 21 19 229 227 234
17 15 22 20 18 16 14 21 19 17 15 22 20 18 16 14 21 19 17 15 22 20 18 16 14 21 19 17 15 22 20 18 16 14 21 19 17 15 22 232 230 16 14 21 19 17 15 22 232 230 16 14 21 19 17 15 22 20 18 16 14 21 231 229 15 22 20 18 16 14 21 19 17 15 22 20 18 16 14 21 19 17 15 22 20 18 16 14 21 19 17 15 22 20 18 16 14 21 19 17 15 22 20 230 228 14 21 19 17 15 22 20 230 228 14 21 19 17 15 22 20 18 16 14 21 19 229 227 22 20 18 16 14 21 19 17 15 22 20 18 16 14 21 19 17 15 22 20 18 16 14 21 19 17 15 22 20 18 16 14 21 19 17 15 22 20 18 228 226 21 19 17 15 22 20 18 228 226 21 19 17 15 22 20 18 16 14 21 19 17 227 234 20 18 16 14 21 19 17 15 22 20 18 16 14 21 19 17 15 22 20 18 16 14 21 19 17 15 22 20 18 16 14 21 19 17 15 22 20 18 16 226 233 19 17 15 22 20 18 16 226 233 19 17 15 22 20 18 16 14 21 19 17 15 234 232 18 16 14 21 19 17 15 22 20 18 16 14 21 19 17 15 22 20 18 16 14 21 19 17 15 22 20 18 16 14 21 19 17 15 22 20 18 16 14 233 231 17 15 22 20 18 16 14 233 231 17 15 22 20 18 16 14 21 19 17 15 22 232 230
22 20 18 16 14 21 19 17 15 22 20 18 16 14 21 19 17 15 22 20 18 16 14 21 19 17 15 22 20 18 16 14 21 19 17 15 22 20 18 228 226 21 19 17 15 22 20 18 228 226 21 19 17 15 22 20 18 16 14 21 19 17 227 234 20 18 16 14 21 19 17 15 22 20 18 16 14 21 19 17 15 22 20 18 16 14 21 19 17 15 22 20 18 16 14 21 19 17 15 22 20 18 16 226 233 19 17 15 22 20 18 16 226 233 19 17 15 22 20 18 16 14 21 19 17 15 234 232 18 16 14 21 19 17 15 22 20 18 16 14 21 19 17 15 22 20 18 16 14 21 19 17 15 22 20 18 16 14 21 19 17 15 22 20 18 16 14 233 231 17 15 22 20 18 16 14 233 231 17 15 22 20 18 16 14 21 19 17 15 22 232 230 16 14 21 19 17 15 22 20 18 16 14 21 19 17 15 22 20 18 16 14 21 19 17 15 22 20 18 16 14 21 19 17 15 22 20 18 16 14 21 231 229 15 22 20 18 16 14 21 231 229 15 22 20 18 16 14 21 19 17 15 22 20 230 228 14 21 19 17 15 22 20 18 16 14 21 19 17 15 22 20 18 16 14 21 19 17 15 22 20 18 16 14 21 19 17 15 22 20 18 16 14 21 19 229 227 22 20 18 16 14 21 19 229 227 22 20 18 16 14 21 19 17 15 22 20 18 228 226
18 16 14 21 19 17 15 22 20 18 16 14 21 19 17 15 22 20 18 16 14 21 19 17 15 22 20 18 16 14 21 19 17 15 22 20 18 16 14 233 231 17 15 22 20 18 16 14 233 231 229 15 22 20 18 16 14 21 19 17 15 234 232 230 16 14 21 19 17 15 22 20 18 16 14 21 19 17 15 22 20 18 16 14 21 19 17 15 22 20 18 16 14 21 19 17 15 22 20 18 16 14 21 231 229 15 22 20 18 16 14 21 231 229 227 22 20 18 16 14 21 19 17 15 22 232 230 228 14 21 19 17 15 22 20 18 16 14 21 19 17 15 22 20 18 16 14 21 19 17 15 22 20 18 16 14 21 19 17 15 22 20 18 16 14 21 19 229 227 22 20 18 16 14 21 19 229 227 234 20 18 16 14 21 19 17 15 22 20 230 228 226 21 19 17 15 22 20 18 16 14 21 19 17 15 22 20 18 16 14 21 19 17 15 22 20 18 16 14 21 19 17 15 22 20 18 16 14 21 19 17 227 234 20 18 16 14 21 19 17 227 234 232 18 16 14 21 19 17 15 22 20 18 228 226 233 19 17 15 22 20 18 16 14 21 19 17 15 22 20 18 16 14 21 19 17 15 22 20 18 16 14 21 19 17 15 22 20 18 16 14 21 19 17 15 234 232 18 16 14 21 19 17 15 234 232 230 16 14 21 19 17 15 22 20 18 16 226 233 231
14 21 19 17 15 234 232 230 228 226 233 19 17 15 22 20 18 16 226 233 231 229 227 234 232 230 228 226 233 231 17 15 22 20 18 16 14 21 19 229 227 22 20 18 16 14 21 19 17 227 234 232 18 16 14 21 19 17 15 22 232 230 228 14 21 19 17 15 22 232 230 228 226 233 231 17 15 22 20 18 16 14 233 231 229 227 234 232 230 228 226 233 231 229 15 22 20 18 16 14 21 19 17 227 234 20 18 16 14 21 19 17 15 234 232 230 16 14 21 19 17 15 22 20 230 228 226 21 19 17 15 22 20 230 228 226 233 231 229 15 22 20 18 16 14 21 231 229 227 234 232 230 228 226 233 231 229 227 22 20 18 16 14 21 19 17 15 234 232 18 16 14 21 19 17 15 22 232 230 228 14 21 19 17 15 22 20 18 228 226 233 19 17 15 22 20 18 228 226 233 231 229 227 22 20 18 16 14 21 19 229 227 234 232 230 228 226 233 231 229 227 234 20 18 16 14 21 19 17 15 22 232 230 16 14 21 19 17 15 22 20 230 228 226 21 19 17 15 22 20 18 16 226 233 231 17 15 22 20 18 16 226 233 231 229 227 234 20 18 16 14 21 19 17 227 234 232 230 228 226 233 231 229 227 234 232 18 16 14 21 19 17 15 22 20 230 228 14 21 19 17 15 22 20 18 228 226 233 19 17 15 22 20 18 16 14 233 231 229 15
19 17 15 22 232 230 228 226 233 231 229 227 22 20 18 16 14 21 231 17 15 22 20 18 16 14 21 19 17 227 22 20 18 16 14 21 19 17 15 234 232 18 16 14 21 19 17 15 22 20 230 228 226 21 19 17 15 22 20 230 228 226 21 19 17 15 22 20 230 228 226 233 231 229 227 234 20 18 16 14 21 19 229 15 22 20 18 16 14 21 19 17 15 234 20 18 16 14 21 19 17 15 22 232 230 16 14 21 19 17 15 22 20 18 228 226 233 19 17 15 22 20 18 228 226 233 19 17 15 22 20 18 228 226 233 231 229 227 234 232 18 16 14 21 19 17 227 22 20 18 16 14 21 19 17 15 22 232 18 16 14 21 19 17 15 22 20 230 228 14 21 19 17 15 22 20 18 16 226 233 231 17 15 22 20 18 16 226 233 231 17 15 22 20 18 16 226 233 231 229 227 234 232 230 16 14 21 19 17 15 234 20 18 16 14 21 19 17 15 22 20 230 16 14 21 19 17 15 22 20 18 228 226 21 19 17 15 22 20 18 16 14 233 231 229 15 22 20 18 16 14 233 231 229 15 22 20 18 16 14 233 231 229 227 234 232 230 228 14 21 19 17 15 22 232 18 16 14 21 19 17 15 22 20 18 228 14 21 19 17 15 22 20 18 16 226 233 19 17 15 22 20 18 16 14 21 231 229 227 22 20 18 16 14 21 231 229 227 22 20
15 22 20 230 228 14 21 19 17 15 22 232 230 16 14 21 19 17 227 22 20 18 16 14 21 19 17 15 22 232 18 16 14 21 19 17 15 22 20 230 228 14 21 19 17 15 22 20 18 16 14 233 231 229 15 22 20 18 228 226 233 19 17 15 22 20 18 228 226 21 19 17 15 22 20 230 228 14 21 19 17 15 234 20 18 16 14 21 19 17 15 22 20 230 16 14 21 19 17 15 22 20 18 228 226 21 19 17 15 22 20 18 16 14 21 231 229 227 22 20 18 16 226 233 231 17 15 22 20 18 16 226 233 19 17 15 22 20 18 228 226 21 19 17 15 22 232 18 16 14 21 19 17 15 22 20 18 228 14 21 19 17 15 22 20 18 16 226 233 19 17 15 22 20 18 16 14 21 19 229 227 234 20 18 16 14 233 231 229 15 22 20 18 16 14 233 231 17 15 22 20 18 16 226 233 19 17 15 22 20 230 16 14 21 19 17 15 22 20 18 16 226 21 19 17 15 22 20 18 16 14 233 231 17 15 22 20 18 16 14 21 19 17 227 234 232 18 16 14 21 231 229 227 22 20 18 16 14 21 231 229 15 22 20 18 16 14 233 231 17 15 22 20 18 228 14 21 19 17 15 22 20 18 16 14 233 19 17 15 22 20 18 16 14 21 231 229 15 22 20 18 16 14 21 19 17 15 234 232 230 16 14 21 19 229 227 234 20 18 16
20 18 228 226 21 19 17 15 22 20 18 16 226 233 19 17 15 22 232 18 16 14 21 19 17 15 22 20 18 228 14 21 19 17 15 22 20 18 16 226 233 19 17 15 22 20 18 16 14 21 19 17 227 234 232 18 16 226 233 231 17 15 22 20 18 16 226 233 19 17 15 22 20 18 16 14 233 231 17 15 22 20 230 16 14 21 19 17 15 22 20 18 16 226 21 19 17 15 22 20 18 16 14 233 231 17 15 22 20 18 16 14 21 19 17 15 234 232 230 16 14 233 231 229 15 22 20 18 16 14 233 231 17 15 22 20 18 16 14 21 231 229 15 22 20 18 228 14 21 19 17 15 22 20 18 16 14 233 19 17 15 22 20 18 16 14 21 231 229 15 22 20 18 16 14 21 19 17 15 22 232 230 228 14 21 231 229 227 22 20 18 16 14 21 231 229 15 22 20 18 16 14 21 19 229 227 22 20 18 16 226 21 19 17 15 22 20 18 16 14 21 231 17 15 22 20 18 16 14 21 19 229 227 22 20 18 16 14 21 19 17 15 22 20 230 228 226 21 19 229 227 234 20 18 16 14 21 19 229 227 22 20 18 16 14 21 19 17 227 234 20 18 16 14 233 19 17 15 22 20 18 16 14 21 19 229 15 22 20 18 16 14 21 19 17 227 234 20 18 16 14 21 19 17 15 22 20 18 228 226 233 19 17 227 234 232 18 16 14 21
16 14 233 231 17 15 22 20 18 16 14 21 231 229 15 22 20 18 228 14 21 19 17 15 22 20 18 16 14 233 19 17 15 22 20 18 16 14 21 231 229 15 22 20 18 16 14 21 19 17 15 22 20 230 228 226 233 231 229 15 22 20 18 16 14 21 231 229 15 22 20 18 16 14 21 19 229 227 22 20 18 16 226 21 19 17 15 22 20 18 16 14 21 231 17 15 22 20 18 16 14 21 19 229 227 22 20 18 16 14 21 19 17 15 22 20 18 228 226 233 231 229 227 22 20 18 16 14 21 19 229 227 22 20 18 16 14 21 19 17 227 234 20 18 16 14 233 19 17 15 22 20 18 16 14 21 19 229 15 22 20 18 16 14 21 19 17 227 234 20 18 16 14 21 19 17 15 22 20 18 16 226 233 231 229 227 234 20 18 16 14 21 19 17 227 234 20 18 16 14 21 19 17 15 234 232 18 16 14 21 231 17 15 22 20 18 16 14 21 19 17 227 22 20 18 16 14 21 19 17 15 234 232 18 16 14 21 19 17 15 22 20 18 16 14 233 231 229 227 234 232 18 16 14 21 19 17 15 234 232 18 16 14 21 19 17 15 22 232 230 16 14 21 19 229 15 22 20 18 16 14 21 19 17 15 234 20 18 16 14 21 19 17 15 22 232 230 16 14 21 19 17 15 22 20 18 16 14 21 231 229 227 234 232 230 16 14 21 19 17
21 19 229 227 22 20 18 16 14 21 19 17 227 234 20 18 16 14 233 19 17 15 22 20 18 16 14 21 19 229 15 22 232 230 228 226 233 231 229 227 234 232 230 228 226 233 231 229 15 22 20 18 16 14 233 231 229 227 22 20 18 16 14 21 19 17 227 234 20 18 16 14 21 19 17 15 234 232 18 16 14 21 231 17 15 22 20 18 16 14 21 19 17 227 22 20 230 228 226 233 231 229 227 234 232 230 228 226 233 231 229 227 22 20 18 16 14 21 231 229 227 234 20 18 16 14 21 19 17 15 234 232 18 16 14 21 19 17 15 22 232 230 16 14 21 19 229 15 22 20 18 16 14 21 19 17 15 234 20 18 228 226 233 231 229 227 234 232 230 228 226 233 231 229 227 234 20 18 16 14 21 19 229 227 234 232 18 16 14 21 19 17 15 22 232 230 16 14 21 19 17 15 22 20 230 228 14 21 19 17 227 22 20 18 16 14 21 19 17 15 22 232 18 16 226 233 231 229 227 234 232 230 228 226 233 231 229 227 234 232 18 16 14 21 19 17 227 234 232 230 16 14 21 19 17 15 22 20 230 228 14 21 19 17 15 22 20 18 228 226 21 19 17 15 234 20 18 16 14 21 19 17 15 22 20 230 16 14 233 231 229 227 234 232 230 228 226 233 231 229 227 234 232 230 16 14 21 19 17 15 234 232 230 228 14 21 19 17 15 22
17 15 234 232 18 16 14 21 19 17 15 22 232 230 16 14 21 19 229 15 22 20 18 16 14 21 19 17 15 234 20 18 228 226 233 231 229 227 234 232 230 228 226 233 231 229 227 234 20 18 16 14 21 19 229 227 234 232 18 16 14 21 19 17 15 22 232 230 16 14 21 19 17 15 22 20 230 228 14 21 19 17 227 22 20 18 16 14 21 19 17 15 22 232 18 16 226 233 231 229 227 234 232 230 228 226 233 231 229 227 234 232 18 16 14 21 19 17 227 234 232 230 16 14 21 19 17 15 22 20 230 228 14 21 19 17 15 22 20 18 228 226 21 19 17 15 234 20 18 16 14 21 19 17 15 22 20 230 16 14 233 231 229 227 234 232 230 228 226 233 231 229 227 234 232 230 16 14 21 19 17 15 234 232 230 228 14 21 19 17 15 22 20 18 228 226 21 19 17 15 22 20 18 16 226 233 19 17 15 22 232 18 16 14 21 19 17 15 22 20 18 228 14 21 231 229 227 234 232 230 228 226 233 231 229 227 234 232 230 228 14 21 19 17 15 22 232 230 228 226 21 19 17 15 22 20 18 16 226 233 19 17 15 22 20 18 16 14 233 231 17 15 22 20 230 16 14 21 19 17 15 22 20 18 16 226 21 19 229 227 234 232 230 228 226 233 231 229 227 234 232 230 228 226 21 19 17 15 22 20 230 228 226 233 19 17 15 22 20 18
22 20 230 228 14 21 19 17 15 22 20 18 228 226 21 19 17 15 234 20 18 16 14 21 19 17 15 22 20 230 16 14 21 19 17 15 22 20 18 228 226 21 19 17 15 22 20 18 16 14 21 19 17 227 234 232 230 228 226 21 19 17 15 22 20 18 228 226 21 19 17 15 22 20 18 16 226 233 19 17 15 22 232 18 16 14 21 19 17 15 22 20 18 228 14 21 19 17 15 22 20 18 16 226 233 19 17 15 22 20 18 16 14 21 19 17 15 234 232 230 228 226 233 19 17 15 22 20 18 16 226 233 19 17 15 22 20 18 16 14 233 231 17 15 22 20 230 16 14 21 19 17 15 22 20 18 16 226 21 19 17 15 22 20 18 16 14 233 231 17 15 22 20 18 16 14 21 19 17 15 22 232 230 228 226 233 231 17 15 22 20 18 16 14 233 231 17 15 22 20 18 16 14 21 231 229 15 22 20 18 228 14 21 19 17 15 22 20 18 16 14 233 19 17 15 22 20 18 16 14 21 231 229 15 22 20 18 16 14 21 19 17 15 22 20 230 228 226 233 231 229 15 22 20 18 16 14 21 231 229 15 22 20 18 16 14 21 19 229 227 22 20 18 16 226 21 19 17 15 22 20 18 16 14 21 231 17 15 22 20 18 16 14 21 19 229 227 22 20 18 16 14 21 19 17 15 22 20 18 228 226 233 231 229 227 22 20 18 16 14
18 16 226 233 19 17 15 22 20 18 16 14 233 231 17 15 22 20 230 16 14 21 19 17 15 22 20 18 16 226 21 19 17 15 22 20 18 16 14 233 231 17 15 22 20 18 16 14 21 19 17 15 234 232 230 16 14 233 231 229 15 22 20 18 16 14 233 231 17 15 22 20 18 16 14 21 231 229 15 22 20 18 228 14 21 19 17 15 22 20 18 16 14 233 19 17 15 22 20 18 16 14 21 231 229 15 22 20 18 16 14 21 19 17 15 22 232 230 228 14 21 231 229 227 22 20 18 16 14 21 231 229 15 22 20 18 16 14 21 19 229 227 22 20 18 16 226 21 19 17 15 22 20 18 16 14 21 231 17 15 22 20 18 16 14 21 19 229 227 22 20 18 16 14 21 19 17 15 22 20 230 228 226 21 19 229 227 234 20 18 16 14 21 19 229 227 22 20 18 16 14 21 19 17 227 234 20 18 16 14 233 19 17 15 22 20 18 16 14 21 19 229 15 22 20 18 16 14 21 19 17 227 234 20 18 16 14 21 19 17 15 22 20 18 228 226 233 19 17 227 234 232 18 16 14 21 19 17 227 234 20 18 16 14 21 19 17 15 234 232 18 16 14 21 231 17 15 22 20 18 16 14 21 19 17 227 22 20 18 16 14 21 19 17 15 234 232 18 16 14 21 19 17 15 22 20 18 16 226 233 231 17 15 234 232 230 16 14 21 19
14 21 19 229 227 22 20 18 16 14 21 231 229 15 22 20 18 16 226 21 19 17 15 22 20 18 16 14 21 231 17 15 22 20 18 16 14 21 19 229 227 22 20 18 16 14 21 19 17 15 22 232 230 228 14 21 19 17 227 234 232 18 16 14 21 19 17 227 234 20 18 16 14 21 19 229 227 22 20 18 16 14 233 19 17 15 22 20 18 16 14 21 19 229 15 22 20 18 16 14 21 19 17 227 234 20 18 16 14 21 19 17 15 22 20 230 228 226 21 19 17 15 234 232 230 16 14 21 19 17 15 234 232 18 16 14 21 19 17 227 234 20 18 16 14 21 231 17 15 22 20 18 16 14 21 19 17 227 22 20 18 16 14 21 19 17 15 234 232 18 16 14 21 19 17 15 22 20 18 228 226 233 19 17 15 22 232 230 228 14 21 19 17 15 22 232 230 16 14 21 19 17 15 234 232 18 16 14 21 19 229 15 22 20 18 16 14 21 19 17 15 234 20 18 16 14 21 19 17 15 22 232 230 16 14 21 19 17 15 22 20 18 16 226 233 231 17 15 22 20 230 228 226 21 19 17 15 22 20 230 228 14 21 19 17 15 22 232 230 16 14 21 19 17 227 22 20 18 16 14 21 19 17 15 22 232 18 16 14 21 19 17 15 22 20 230 228 14 21 19 17 15 22 20 18 16 14 233 231 229 15 22 20 18 228 226 233 19 17 15
19 17 15 22 232 230 228 226 233 231 229 227 22 20 18 16 14 21 231 17 15 22 20 18 16 14 21 19 17 227 22 20 18 16 14 21 19 17 15 234 232 18 16 14 21 19 17 15 22 20 230 228 226 21 19 17 15 22 20 230 228 226 21 19 17 15 22 20 230 228 226 233 231 229 227 234 20 18 16 14 21 19 229 15 22 20 18 16 14 21 19 17 15 234 20 18 16 14 21 19 17 15 22 232 230 16 14 21 19 17 15 22 20 18 228 226 233 19 17 15 22 20 18 228 226 233 19 17 15 22 20 18 228 226 233 231 229 227 234 232 18 16 14 21 19 17 227 22 20 18 16 14 21 19 17 15 22 232 18 16 14 21 19 17 15 22 20 230 228 14 21 19 17 15 22 20 18 16 226 233 231 17 15 22 20 18 16 226 233 231 17 15 22 20 18 16 226 233 231 229 227 234 232 230 16 14 21 19 17 15 234 20 18 16 14 21 19 17 15 22 20 230 16 14 21 19 17 15 22 20 18 228 226 21 19 17 15 22 20 18 16 14 233 231 229 15 22 20 18 16 14 233 231 229 15 22 20 18 16 14 233 231 229 227 234 232 230 228 14 21 19 17 15 22 232 18 16 14 21 19 17 15 22 20 18 228 14 21 19 17 15 22 20 18 16 226 233 19 17 15 22 20 18 16 14 21 231 229 227 22 20 18 16 14 21 231 229 227 22 20
15 22 20 18 16 226 233 231 229 227 234 20 18 16 14 21 19 17 227 234 232 230 228 226 233 231 229 227 234 232 18 16 14 21 19 17 15 22 20 230 228 14 21 19 17 15 22 20 18 228 226 233 19 17 15 22 20 18 16 14 233 231 229 15 22 20 18 16 14 233 231 229 227 234 232 18 16 14 21 19 17 15 234 232 230 228 226 233 231 229 227 234 232 230 16 14 21 19 17 15 22 20 18 228 226 21 19 17 15 22 20 18 16 226 233 231 17 15 22 20 18 16 14 21 231 229 227 22 20 18 16 14 21 231 229 227 234 232 230 16 14 21 19 17 15 22 232 230 228 226 233 231 229 227 234 232 230 228 14 21 19 17 15 22 20 18 16 226 233 19 17 15 22 20 18 16 14 233 231 229 15 22 20 18 16 14 21 19 229 227 234 20 18 16 14 21 19 229 227 234 232 230 228 14 21 19 17 15 22 20 230 228 226 233 231 229 227 234 232 230 228 226 21 19 17 15 22 20 18 16 14 233 231 17 15 22 20 18 16 14 21 231 229 227 22 20 18 16 14 21 19 17 227 234 232 18 16 14 21 19 17 227 234 232 230 228 226 21 19 17 15 22 20 18 228 226 233 231 229 227 234 232 230 228 226 233 19 17 15 22 20 18 16 14 21 231 229 15 22 20 18 16 14 21 19 229 227 234 20 18 16 14 21 19 17 15 234 232 230 16
20 18 16 14 21 19 17 15 22 20 18 16 14 21 19 17 15 22 20 18 16 14 21 19 17 15 22 20 18 16 14 21 19 17 15 22 20 18 16 226 233 19 17 15 22 20 18 16 226 233 231 17 15 22 20 18 16 14 21 19 17 227 234 232 18 16 14 21 19 17 15 22 20 18 16 14 21 19 17 15 22 20 18 16 14 21 19 17 15 22 20 18 16 14 21 19 17 15 22 20 18 16 14 233 231 17 15 22 20 18 16 14 233 231 229 15 22 20 18 16 14 21 19 17 15 234 232 230 16 14 21 19 17 15 22 20 18 16 14 21 19 17 15 22 20 18 16 14 21 19 17 15 22 20 18 16 14 21 19 17 15 22 20 18 16 14 21 231 229 15 22 20 18 16 14 21 231 229 227 22 20 18 16 14 21 19 17 15 22 232 230 228 14 21 19 17 15 22 20 18 16 14 21 19 17 15 22 20 18 16 14 21 19 17 15 22 20 18 16 14 21 19 17 15 22 20 18 16 14 21 19 229 227 22 20 18 16 14 21 19 229 227 234 20 18 16 14 21 19 17 15 22 20 230 228 226 21 19 17 15 22 20 18 16 14 21 19 17 15 22 20 18 16 14 21 19 17 15 22 20 18 16 14 21 19 17 15 22 20 18 16 14 21 19 17 227 234 20 18 16 14 21 19 17 227 234 232 18 16 14 21 19 17 15 22 20 18 228 226 233
16 14 21 19 17 15 22 20 18 16 14 21 19 17 15 22 20 18 16 14 21 19 17 15 22 20 18 16 14 21 19 17 15 22 20 18 16 14 21 231 229 15 22 20 18 16 14 21 231 229 15 22 20 18 16 14 21 19 17 15 22 20 230 228 14 21 19 17 15 22 20 18 16 14 21 19 17 15 22 20 18 16 14 21 19 17 15 22 20 18 16 14 21 19 17 15 22 20 18 16 14 21 19 229 227 22 20 18 16 14 21 19 229 227 22 20 18 16 14 21 19 17 15 22 20 18 228 226 21 19 17 15 22 20 18 16 14 21 19 17 15 22 20 18 16 14 21 19 17 15 22 20 18 16 14 21 19 17 15 22 20 18 16 14 21 19 17 227 234 20 18 16 14 21 19 17 227 234 20 18 16 14 21 19 17 15 22 20 18 16 226 233 19 17 15 22 20 18 16 14 21 19 17 15 22 20 18 16 14 21 19 17 15 22 20 18 16 14 21 19 17 15 22 20 18 16 14 21 19 17 15 234 232 18 16 14 21 19 17 15 234 232 18 16 14 21 19 17 15 22 20 18 16 14 233 231 17 15 22 20 18 16 14 21 19 17 15 22 20 18 16 14 21 19 17 15 22 20 18 16 14 21 19 17 15 22 20 18 16 14 21 19 17 15 22 232 230 16 14 21 19 17 15 22 232 230 16 14 21 19 17 15 22 20 18 16 14 21 231 229
21 19 17 15 22 20 18 16 14 21 19 17 15 22 20 18 16 14 21 19 17 15 22 20 18 16 14 21 19 17 15 22 20 18 16 14 21 19 17 227 234 20 18 16 14 21 19 17 227 234 20 18 16 14 21 19 17 15 22 20 18 16 226 233 19 17 15 22 20 18 16 14 21 19 17 15 22 20 18 16 14 21 19 17 15 22 20 18 16 14 21 19 17 15 22 20 18 16 14 21 19 17 15 234 232 18 16 14 21 19 17 15 234 232 18 16 14 21 19 17 15 22 20 18 16 14 233 231 17 15 22 20 18 16 14 21 19 17 15 22 20 18 16 14 21 19 17 15 22 20 18 16 14 21 19 17 15 22 20 18 16 14 21 19 17 15 22 232 230 16 14 21 19 17 15 22 232 230 16 14 21 19 17 15 22 20 18 16 14 21 231 229 15 22 20 18 16 14 21 19 17 15 22 20 18 16 14 21 19 17 15 22 20 18 16 14 21 19 17 15 22 20 18 16 14 21 19 17 15 22 20 230 228 14 21 19 17 15 22 20 230 228 14 21 19 17 15 22 20 18 16 14 21 19 229 227 22 20 18 16 14 21 19 17 15 22 20 18 16 14 21 19 17 15 22 20 18 16 14 21 19 17 15 22 20 18 16 14 21 19 17 15 22 20 18 228 226 21 19 17 15 22 20 18 228 226 21 19 17 15 22 20 18 16 14 21 19 17 227 234
17 15 22 20 18 16 14 21 19 17 15 22 20 18 16 14 21 19 17 15 22 20 18 16 14 21 19 17 15 22 20 18 16 14 21 19 17 15 22 232 230 16 14 21 19 17 15 22 232 230 228 14 21 19 17 15 22 20 18 16 14 233 231 229 15 22 20 18 16 14 21 19 17 15 22 20 18 16 14 21 19 17 15 22 20 18 16 14 21 19 17 15 22 20 18 16 14 21 19 17 15 22 20 230 228 14 21 19 17 15 22 20 230 228 226 21 19 17 15 22 20 18 16 14 21 231 229 227 22 20 18 16 14 21 19 17 15 22 20 18 16 14 21 19 17 15 22 20 18 16 14 21 19 17 15 22 20 18 16 14 21 19 17 15 22 20 18 228 226 21 19 17 15 22 20 18 228 226 233 19 17 15 22 20 18 16 14 21 19 229 227 234 20 18 16 14 21 19 17 15 22 20 18 16 14 21 19 17 15 22 20 18 16 14 21 19 17 15 22 20 18 16 14 21 19 17 15 22 20 18 16 226 233 19 17 15 22 20 18 16 226 233 231 17 15 22 20 18 16 14 21 19 17 227 234 232 18 16 14 21 19 17 15 22 20 18 16 14 21 19 17 15 22 20 18 16 14 21 19 17 15 22 20 18 16 14 21 19 17 15 22 20 18 16 14 233 231 17 15 22 20 18 16 14 233 231 229 15 22 20 18 16 14 21 19 17 15 234 232 230
22 20 18 16 14 233 231 229 227 234 232 18 16 14 21 19 17 15 234 232 230 228 226 233 231 229 227 234 232 230 16 14 21 19 17 15 22 20 18 228 226 21 19 17 15 22 20 18 16 226 233 231 17 15 22 20 18 16 14 21 231 229 227 22 20 18 16 14 21 231 229 227 234 232 230 16 14 21 19 17 15 22 232 230 228 226 233 231 229 227 234 232 230 228 14 21 19 17 15 22 20 18 16 226 233 19 17 15 22 20 18 16 14 233 231 229 15 22 20 18 16 14 21 19 229 227 234 20 18 16 14 21 19 229 227 234 232 230 228 14 21 19 17 15 22 20 230 228 226 233 231 229 227 234 232 230 228 226 21 19 17 15 22 20 18 16 14 233 231 17 15 22 20 18 16 14 21 231 229 227 22 20 18 16 14 21 19 17 227 234 232 18 16 14 21 19 17 227 234 232 230 228 226 21 19 17 15 22 20 18 228 226 233 231 229 227 234 232 230 228 226 233 19 17 15 22 20 18 16 14 21 231 229 15 22 20 18 16 14 21 19 229 227 234 20 18 16 14 21 19 17 15 234 232 230 16 14 21 19 17 15 234 232 230 228 226 233 19 17 15 22 20 18 16 226 233 231 229 227 234 232 230 228 226 233 231 17 15 22 20 18 16 14 21 19 229 227 22 20 18 16 14 21 19 17 227 234 232 18 16 14 21 19 17 15 22 232 230 228 14
18 16 14 21 231 229 227 234 232 230 228 226 21 19 17 15 22 20 230 16 14 21 19 17 15 22 20 18 16 226 21 19 17 15 22 20 18 16 14 233 231 17 15 22 20 18 16 14 21 19 229 227 234 20 18 16 14 21 19 229 227 234 20 18 16 14 21 19 229 227 234 232 230 228 226 233 19 17 15 22 20 18 228 14 21 19 17 15 22 20 18 16 14 233 19 17 15 22 20 18 16 14 21 231 229 15 22 20 18 16 14 21 19 17 227 234 232 18 16 14 21 19 17 227 234 232 18 16 14 21 19 17 227 234 232 230 228 226 233 231 17 15 22 20 18 16 226 21 19 17 15 22 20 18 16 14 21 231 17 15 22 20 18 16 14 21 19 229 227 22 20 18 16 14 21 19 17 15 234 232 230 16 14 21 19 17 15 234 232 230 16 14 21 19 17 15 234 232 230 228 226 233 231 229 15 22 20 18 16 14 233 19 17 15 22 20 18 16 14 21 19 229 15 22 20 18 16 14 21 19 17 227 234 20 18 16 14 21 19 17 15 22 232 230 228 14 21 19 17 15 22 232 230 228 14 21 19 17 15 22 232 230 228 226 233 231 229 227 22 20 18 16 14 21 231 17 15 22 20 18 16 14 21 19 17 227 22 20 18 16 14 21 19 17 15 234 232 18 16 14 21 19 17 15 22 20 230 228 226 21 19 17 15 22 20 230 228 226 21 19
14 21 19 229 227 22 20 18 16 14 21 231 229 15 22 20 18 16 226 21 19 17 15 22 20 18 16 14 21 231 17 15 22 20 18 16 14 21 19 229 227 22 20 18 16 14 21 19 17 15 22 232 230 228 14 21 19 17 227 234 232 18 16 14 21 19 17 227 234 20 18 16 14 21 19 229 227 22 20 18 16 14 233 19 17 15 22 20 18 16 14 21 19 229 15 22 20 18 16 14 21 19 17 227 234 20 18 16 14 21 19 17 15 22 20 230 228 226 21 19 17 15 234 232 230 16 14 21 19 17 15 234 232 18 16 14 21 19 17 227 234 20 18 16 14 21 231 17 15 22 20 18 16 14 21 19 17 227 22 20 18 16 14 21 19 17 15 234 232 18 16 14 21 19 17 15 22 20 18 228 226 233 19 17 15 22 232 230 228 14 21 19 17 15 22 232 230 16 14 21 19 17 15 234 232 18 16 14 21 19 229 15 22 20 18 16 14 21 19 17 15 234 20 18 16 14 21 19 17 15 22 232 230 16 14 21 19 17 15 22 20 18 16 226 233 231 17 15 22 20 230 228 226 21 19 17 15 22 20 230 228 14 21 19 17 15 22 232 230 16 14 21 19 17 227 22 20 18 16 14 21 19 17 15 22 232 18 16 14 21 19 17 15 22 20 230 228 14 21 19 17 15 22 20 18 16 14 233 231 229 15 22 20 18 228 226 233 19 17 15
19 17 227 234 20 18 16 14 21 19 17 15 234 232 18 16 14 21 231 17 15 22 20 18 16 14 21 19 17 227 22 20 18 16 14 21 19 17 15 234 232 18 16 14 21 19 17 15 22 20 18 16 226 233 231 17 15 234 232 230 16 14 21 19 17 15 234 232 18 16 14 21 19 17 15 22 232 230 16 14 21 19 229 15 22 20 18 16 14 21 19 17 15 234 20 18 16 14 21 19 17 15 22 232 230 16 14 21 19 17 15 22 20 18 16 14 233 231 229 15 22 232 230 228 14 21 19 17 15 22 232 230 16 14 21 19 17 15 22 20 230 228 14 21 19 17 227 22 20 18 16 14 21 19 17 15 22 232 18 16 14 21 19 17 15 22 20 230 228 14 21 19 17 15 22 20 18 16 14 21 231 229 227 22 20 230 228 226 21 19 17 15 22 20 230 228 14 21 19 17 15 22 20 18 228 226 21 19 17 15 234 20 18 16 14 21 19 17 15 22 20 230 16 14 21 19 17 15 22 20 18 228 226 21 19 17 15 22 20 18 16 14 21 19 229 227 234 20 18 228 226 233 19 17 15 22 20 18 228 226 21 19 17 15 22 20 18 16 226 233 19 17 15 22 232 18 16 14 21 19 17 15 22 20 18 228 14 21 19 17 15 22 20 18 16 226 233 19 17 15 22 20 18 16 14 21 19 17 227 234 232 18 16 226 233 231 17 15 22 20
15 22 232 230 16 14 21 19 17 15 22 20 230 228 14 21 19 17 227 22 20 18 16 14 21 19 17 15 22 232 18 16 14 21 19 17 15 22 20 230 228 14 21 19 17 15 22 20 18 16 14 21 19 229 227 234 232 230 228 14 21 19 17 15 22 20 230 228 14 21 19 17 15 22 20 18 228 226 21 19 17 15 234 20 18 16 14 21 19 17 15 22 20 230 16 14 21 19 17 15 22 20 18 228 226 21 19 17 15 22 20 18 16 14 21 19 17 227 234 232 230 228 226 21 19 17 15 22 20 18 228 226 21 19 17 15 22 20 18 16 226 233 19 17 15 22 232 18 16 14 21 19 17 15 22 20 18 228 14 21 19 17 15 22 20 18 16 226 233 19 17 15 22 20 18 16 14 21 19 17 15 234 232 230 228 226 233 19 17 15 22 20 18 16 226 233 19 17 15 22 20 18 16 14 233 231 17 15 22 20 230 16 14 21 19 17 15 22 20 18 16 226 21 19 17 15 22 20 18 16 14 233 231 17 15 22 20 18 16 14 21 19 17 15 22 232 230 228 226 233 231 17 15 22 20 18 16 14 233 231 17 15 22 20 18 16 14 21 231 229 15 22 20 18 228 14 21 19 17 15 22 20 18 16 14 233 19 17 15 22 20 18 16 14 21 231 229 15 22 20 18 16 14 21 19 17 15 22 20 230 228 226 233 231 229 15 22 20 18 16
20 18 228 226 21 19 17 15 22 20 18 16 226 233 19 17 15 22 232 18 16 14 21 19 17 15 22 20 18 228 14 21 231 229 227 234 232 230 228 226 233 231 229 227 234 232 230 228 14 21 19 17 15 22 232 230 228 226 21 19 17 15 22 20 18 16 226 233 19 17 15 22 20 18 16 14 233 231 17 15 22 20 230 16 14 21 19 17 15 22 20 18 16 226 21 19 229 227 234 232 230 228 226 233 231 229 227 234 232 230 228 226 21 19 17 15 22 20 230 228 226 233 19 17 15 22 20 18 16 14 233 231 17 15 22 20 18 16 14 21 231 229 15 22 20 18 228 14 21 19 17 15 22 20 18 16 14 233 19 17 227 234 232 230 228 226 233 231 229 227 234 232 230 228 226 233 19 17 15 22 20 18 228 226 233 231 17 15 22 20 18 16 14 21 231 229 15 22 20 18 16 14 21 19 229 227 22 20 18 16 226 21 19 17 15 22 20 18 16 14 21 231 17 15 234 232 230 228 226 233 231 229 227 234 232 230 228 226 233 231 17 15 22 20 18 16 226 233 231 229 15 22 20 18 16 14 21 19 229 227 22 20 18 16 14 21 19 17 227 234 20 18 16 14 233 19 17 15 22 20 18 16 14 21 19 229 15 22 232 230 228 226 233 231 229 227 234 232 230 228 226 233 231 229 15 22 20 18 16 14 233 231 229 227 22 20 18 16 14 21
16 14 233 231 17 15 22 20 18 16 14 21 231 229 15 22 20 18 228 14 21 19 17 15 22 20 18 16 14 233 19 17 227 234 232 230 228 226 233 231 229 227 234 232 230 228 226 233 19 17 15 22 20 18 228 226 233 231 17 15 22 20 18 16 14 21 231 229 15 22 20 18 16 14 21 19 229 227 22 20 18 16 226 21 19 17 15 22 20 18 16 14 21 231 17 15 234 232 230 228 226 233 231 229 227 234 232 230 228 226 233 231 17 15 22 20 18 16 226 233 231 229 15 22 20 18 16 14 21 19 229 227 22 20 18 16 14 21 19 17 227 234 20 18 16 14 233 19 17 15 22 20 18 16 14 21 19 229 15 22 232 230 228 226 233 231 229 227 234 232 230 228 226 233 231 229 15 22 20 18 16 14 233 231 229 227 22 20 18 16 14 21 19 17 227 234 20 18 16 14 21 19 17 15 234 232 18 16 14 21 231 17 15 22 20 18 16 14 21 19 17 227 22 20 230 228 226 233 231 229 227 234 232 230 228 226 233 231 229 227 22 20 18 16 14 21 231 229 227 234 20 18 16 14 21 19 17 15 234 232 18 16 14 21 19 17 15 22 232 230 16 14 21 19 229 15 22 20 18 16 14 21 19 17 15 234 20 18 228 226 233 231 229 227 234 232 230 228 226 233 231 229 227 234 20 18 16 14 21 19 229 227 234 232 18 16 14 21 19 17
21 19 229 227 22 20 18 16 14 21 19 17 227 234 20 18 16 14 233 19 17 15 22 20 18 16 14 21 19 229 15 22 20 18 16 14 21 19 17 227 234 20 18 16 14 21 19 17 15 22 20 18 16 226 233 231 229 227 234 20 18 16 14 21 19 17 227 234 20 18 16 14 21 19 17 15 234 232 18 16 14 21 231 17 15 22 20 18 16 14 21 19 17 227 22 20 18 16 14 21 19 17 15 234 232 18 16 14 21 19 17 15 22 20 18 16 14 233 231 229 227 234 232 18 16 14 21 19 17 15 234 232 18 16 14 21 19 17 15 22 232 230 16 14 21 19 229 15 22 20 18 16 14 21 19 17 15 234 20 18 16 14 21 19 17 15 22 232 230 16 14 21 19 17 15 22 20 18 16 14 21 231 229 227 234 232 230 16 14 21 19 17 15 22 232 230 16 14 21 19 17 15 22 20 230 228 14 21 19 17 227 22 20 18 16 14 21 19 17 15 22 232 18 16 14 21 19 17 15 22 20 230 228 14 21 19 17 15 22 20 18 16 14 21 19 229 227 234 232 230 228 14 21 19 17 15 22 20 230 228 14 21 19 17 15 22 20 18 228 226 21 19 17 15 234 20 18 16 14 21 19 17 15 22 20 230 16 14 21 19 17 15 22 20 18 228 226 21 19 17 15 22 20 18 16 14 21 19 17 227 234 232 230 228 226 21 19 17 15 22
17 15 234 232 18 16 14 21 19 17 15 22 232 230 16 14 21 19 229 15 22 20 18 16 14 21 19 17 15 234 20 18 16 14 21 19 17 15 22 232 230 16 14 21 19 17 15 22 20 18 16 14 233 231 229 15 22 232 230 228 14 21 19 17 15 22 232 230 16 14 21 19 17 15 22 20 230 228 14 21 19 17 227 22 20 18 16 14 21 19 17 15 22 232 18 16 14 21 19 17 15 22 20 230 228 14 21 19 17 15 22 20 18 16 14 21 231 229 227 22 20 230 228 226 21 19 17 15 22 20 230 228 14 21 19 17 15 22 20 18 228 226 21 19 17 15 234 20 18 16 14 21 19 17 15 22 20 230 16 14 21 19 17 15 22 20 18 228 226 21 19 17 15 22 20 18 16 14 21 19 229 227 234 20 18 228 226 233 19 17 15 22 20 18 228 226 21 19 17 15 22 20 18 16 226 233 19 17 15 22 232 18 16 14 21 19 17 15 22 20 18 228 14 21 19 17 15 22 20 18 16 226 233 19 17 15 22 20 18 16 14 21 19 17 227 234 232 18 16 226 233 231 17 15 22 20 18 16 226 233 19 17 15 22 20 18 16 14 233 231 17 15 22 20 230 16 14 21 19 17 15 22 20 18 16 226 21 19 17 15 22 20 18 16 14 233 231 17 15 22 20 18 16 14 21 19 17 15 234 232 230 16 14 233 231 229 15 22 20 18
22 20 18 228 226 21 19 17 15 22 20 230 228 14 21 19 17 15 234 20 18 16 14 21 19 17 15 22 20 230 16 14 21 19 17 15 22 20 18 228 226 21 19 17 15 22 20 18 16 14 21 231 229 227 22 20 18 16 226 233 231 17 15 22 20 18 16 226 233 19 17 15 22 20 18 228 226 21 19 17 15 22 232 18 16 14 21 19 17 15 22 20 18 228 14 21 19 17 15 22 20 18 16 226 233 19 17 15 22 20 18 16 14 21 19 229 227 234 20 18 16 14 233 231 229 15 22 20 18 16 14 233 231 17 15 22 20 18 16 226 233 19 17 15 22 20 230 16 14 21 19 17 15 22 20 18 16 226 21 19 17 15 22 20 18 16 14 233 231 17 15 22 20 18 16 14 21 19 17 227 234 232 18 16 14 21 231 229 227 22 20 18 16 14 21 231 229 15 22 20 18 16 14 233 231 17 15 22 20 18 228 14 21 19 17 15 22 20 18 16 14 233 19 17 15 22 20 18 16 14 21 231 229 15 22 20 18 16 14 21 19 17 15 234 232 230 16 14 21 19 229 227 234 20 18 16 14 21 19 229 227 22 20 18 16 14 21 231 229 15 22 20 18 16 226 21 19 17 15 22 20 18 16 14 21 231 17 15 22 20 18 16 14 21 19 229 227 22 20 18 16 14 21 19 17 15 22 232 230 228 14 21 19 17 227 234 232 18 16 14
18 16 14 21 231 229 227 234 232 230 228 226 21 19 17 15 22 20 230 16 14 21 19 17 15 22 20 18 16 226 21 19 17 15 22 20 18 16 14 233 231 17 15 22 20 18 16 14 21 19 229 227 234 20 18 16 14 21 19 229 227 234 20 18 16 14 21 19 229 227 234 232 230 228 226 233 19 17 15 22 20 18 228 14 21 19 17 15 22 20 18 16 14 233 19 17 15 22 20 18 16 14 21 231 229 15 22 20 18 16 14 21 19 17 227 234 232 18 16 14 21 19 17 227 234 232 18 16 14 21 19 17 227 234 232 230 228 226 233 231 17 15 22 20 18 16 226 21 19 17 15 22 20 18 16 14 21 231 17 15 22 20 18 16 14 21 19 229 227 22 20 18 16 14 21 19 17 15 234 232 230 16 14 21 19 17 15 234 232 230 16 14 21 19 17 15 234 232 230 228 226 233 231 229 15 22 20 18 16 14 233 19 17 15 22 20 18 16 14 21 19 229 15 22 20 18 16 14 21 19 17 227 234 20 18 16 14 21 19 17 15 22 232 230 228 14 21 19 17 15 22 232 230 228 14 21 19 17 15 22 232 230 228 226 233 231 229 227 22 20 18 16 14 21 231 17 15 22 20 18 16 14 21 19 17 227 22 20 18 16 14 21 19 17 15 234 232 18 16 14 21 19 17 15 22 20 230 228 226 21 19 17 15 22 20 230 228 226 21 19
14 21 19 17 15 234 232 230 228 226 233 19 17 15 22 20 18 16 226 233 231 229 227 234 232 230 228 226 233 231 17 15 22 20 18 16 14 21 19 229 227 22 20 18 16 14 21 19 17 227 234 232 18 16 14 21 19 17 15 22 232 230 228 14 21 19 17 15 22 232 230 228 226 233 231 17 15 22 20 18 16 14 233 231 229 227 234 232 230 228 226 233 231 229 15 22 20 18 16 14 21 19 17 227 234 20 18 16 14 21 19 17 15 234 232 230 16 14 21 19 17 15 22 20 230 228 226 21 19 17 15 22 20 230 228 226 233 231 229 15 22 20 18 16 14 21 231 229 227 234 232 230 228 226 233 231 229 227 22 20 18 16 14 21 19 17 15 234 232 18 16 14 21 19 17 15 22 232 230 228 14 21 19 17 15 22 20 18 228 226 233 19 17 15 22 20 18 228 226 233 231 229 227 22 20 18 16 14 21 19 229 227 234 232 230 228 226 233 231 229 227 234 20 18 16 14 21 19 17 15 22 232 230 16 14 21 19 17 15 22 20 230 228 226 21 19 17 15 22 20 18 16 226 233 231 17 15 22 20 18 16 226 233 231 229 227 234 20 18 16 14 21 19 17 227 234 232 230 228 226 233 231 229 227 234 232 18 16 14 21 19 17 15 22 20 230 228 14 21 19 17 15 22 20 18 228 226 233 19 17 15 22 20 18 16 14 233 231 229 15
19 17 15 22 20 18 16 14 21 19 17 15 22 20 18 16 14 21 19 17 15 22 20 18 16 14 21 19 17 15 22 20 18 16 14 21 19 17 15 234 232 18 16 14 21 19 17 15 234 232 230 16 14 21 19 17 15 22 20 18 16 226 233 231 17 15 22 20 18 16 14 21 19 17 15 22 20 18 16 14 21 19 17 15 22 20 18 16 14 21 19 17 15 22 20 18 16 14 21 19 17 15 22 232 230 16 14 21 19 17 15 22 232 230 228 14 21 19 17 15 22 20 18 16 14 233 231 229 15 22 20 18 16 14 21 19 17 15 22 20 18 16 14 21 19 17 15 22 20 18 16 14 21 19 17 15 22 20 18 16 14 21 19 17 15 22 20 230 228 14 21 19 17 15 22 20 230 228 226 21 19 17 15 22 20 18 16 14 21 231 229 227 22 20 18 16 14 21 19 17 15 22 20 18 16 14 21 19 17 15 22 20 18 16 14 21 19 17 15 22 20 18 16 14 21 19 17 15 22 20 18 228 226 21 19 17 15 22 20 18 228 226 233 19 17 15 22 20 18 16 14 21 19 229 227 234 20 18 16 14 21 19 17 15 22 20 18 16 14 21 19 17 15 22 20 18 16 14 21 19 17 15 22 20 18 16 14 21 19 17 15 22 20 18 16 226 233 19 17 15 22 20 18 16 226 233 231 17 15 22 20 18 16 14 21 19 17 227 234 232
15 22 20 18 16 14 21 19 17 15 22 20 18 16 14 21 19 17 15 22 20 18 16 14 21 19 17 15 22 20 18 16 14 21 19 17 15 22 20 230 228 14 21 19 17 15 22 20 230 228 14 21 19 17 15 22 20 18 16 14 21 19 229 227 22 20 18 16 14 21 19 17 15 22 20 18 16 14 21 19 17 15 22 20 18 16 14 21 19 17 15 22 20 18 16 14 21 19 17 15 22 20 18 228 226 21 19 17 15 22 20 18 228 226 21 19 17 15 22 20 18 16 14 21 19 17 227 234 20 18 16 14 21 19 17 15 22 20 18 16 14 21 19 17 15 22 20 18 16 14 21 19 17 15 22 20 18 16 14 21 19 17 15 22 20 18 16 226 233 19 17 15 22 20 18 16 226 233 19 17 15 22 20 18 16 14 21 19 17 15 234 232 18 16 14 21 19 17 15 22 20 18 16 14 21 19 17 15 22 20 18 16 14 21 19 17 15 22 20 18 16 14 21 19 17 15 22 20 18 16 14 233 231 17 15 22 20 18 16 14 233 231 17 15 22 20 18 16 14 21 19 17 15 22 232 230 16 14 21 19 17 15 22 20 18 16 14 21 19 17 15 22 20 18 16 14 21 19 17 15 22 20 18 16 14 21 19 17 15 22 20 18 16 14 21 231 229 15 22 20 18 16 14 21 231 229 15 22 20 18 16 14 21 19 17 15 22 20 230 228
20 18 16 14 21 19 17 15 22 20 18 16 14 21 19 17 15 22 20 18 16 14 21 19 17 15 22 20 18 16 14 21 19 17 15 22 20 18 16 226 233 19 17 15 22 20 18 16 226 233 19 17 15 22 20 18 16 14 21 19 17 15 234 232 18 16 14 21 19 17 15 22 20 18 16 14 21 19 17 15 22 20 18 16 14 21 19 17 15 22 20 18 16 14 21 19 17 15 22 20 18 16 14 233 231 17 15 22 20 18 16 14 233 231 17 15 22 20 18 16 14 21 19 17 15 22 232 230 16 14 21 19 17 15 22 20 18 16 14 21 19 17 15 22 20 18 16 14 21 19 17 15 22 20 18 16 14 21 19 17 15 22 20 18 16 14 21 231 229 15 22 20 18 16 14 21 231 229 15 22 20 18 16 14 21 19 17 15 22 20 230 228 14 21 19 17 15 22 20 18 16 14 21 19 17 15 22 20 18 16 14 21 19 17 15 22 20 18 16 14 21 19 17 15 22 20 18 16 14 21 19 229 227 22 20 18 16 14 21 19 229 227 22 20 18 16 14 21 19 17 15 22 20 18 228 226 21 19 17 15 22 20 18 16 14 21 19 17 15 22 20 18 16 14 21 19 17 15 22 20 18 16 14 21 19 17 15 22 20 18 16 14 21 19 17 227 234 20 18 16 14 21 19 17 227 234 20 18 16 14 21 19 17 15 22 20 18 16 226 233
16 14 21 19 17 15 22 20 18 16 14 21 19 17 15 22 20 18 16 14 21 19 17 15 22 20 18 16 14 21 19 17 15 22 20 18 16 14 21 231 229 15 22 20 18 16 14 21 231 229 227 22 20 18 16 14 21 19 17 15 22 232 230 228 14 21 19 17 15 22 20 18 16 14 21 19 17 15 22 20 18 16 14 21 19 17 15 22 20 18 16 14 21 19 17 15 22 20 18 16 14 21 19 229 227 22 20 18 16 14 21 19 229 227 234 20 18 16 14 21 19 17 15 22 20 230 228 226 21 19 17 15 22 20 18 16 14 21 19 17 15 22 20 18 16 14 21 19 17 15 22 20 18 16 14 21 19 17 15 22 20 18 16 14 21 19 17 227 234 20 18 16 14 21 19 17 227 234 232 18 16 14 21 19 17 15 22 20 18 228 226 233 19 17 15 22 20 18 16 14 21 19 17 15 22 20 18 16 14 21 19 17 15 22 20 18 16 14 21 19 17 15 22 20 18 16 14 21 19 17 15 234 232 18 16 14 21 19 17 15 234 232 230 16 14 21 19 17 15 22 20 18 16 226 233 231 17 15 22 20 18 16 14 21 19 17 15 22 20 18 16 14 21 19 17 15 22 20 18 16 14 21 19 17 15 22 20 18 16 14 21 19 17 15 22 232 230 16 14 21 19 17 15 22 232 230 228 14 21 19 17 15 22 20 18 16 14 233 231 229
21 19 17 15 22 232 230 228 226 233 231 17 15 22 20 18 16 14 233 231 229 227 234 232 230 228 226 233 231 229 15 22 20 18 16 14 21 19 17 227 234 20 18 16 14 21 19 17 15 234 232 230 16 14 21 19 17 15 22 20 230 228 226 21 19 17 15 22 20 230 228 226 233 231 229 15 22 20 18 16 14 21 231 229 227 234 232 230 228 226 233 231 229 227 22 20 18 16 14 21 19 17 15 234 232 18 16 14 21 19 17 15 22 232 230 228 14 21 19 17 15 22 20 18 228 226 233 19 17 15 22 20 18 228 226 233 231 229 227 22 20 18 16 14 21 19 229 227 234 232 230 228 226 233 231 229 227 234 20 18 16 14 21 19 17 15 22 232 230 16 14 21 19 17 15 22 20 230 228 226 21 19 17 15 22 20 18 16 226 233 231 17 15 22 20 18 16 226 233 231 229 227 234 20 18 16 14 21 19 17 227 234 232 230 228 226 233 231 229 227 234 232 18 16 14 21 19 17 15 22 20 230 228 14 21 19 17 15 22 20 18 228 226 233 19 17 15 22 20 18 16 14 233 231 229 15 22 20 18 16 14 233 231 229 227 234 232 18 16 14 21 19 17 15 234 232 230 228 226 233 231 229 227 234 232 230 16 14 21 19 17 15 22 20 18 228 226 21 19 17 15 22 20 18 16 226 233 231 17 15 22 20 18 16 14 21 231 229 227 22
17 15 22 20 230 228 226 233 231 229 227 234 20 18 16 14 21 19 229 15 22 20 18 16 14 21 19 17 15 234 20 18 16 14 21 19 17 15 22 232 230 16 14 21 19 17 15 22 20 18 228 226 233 19 17 15 22 20 18 228 226 233 19 17 15 22 20 18 228 226 233 231 229 227 234 232 18 16 14 21 19 17 227 22 20 18 16 14 21 19 17 15 22 232 18 16 14 21 19 17 15 22 20 230 228 14 21 19 17 15 22 20 18 16 226 233 231 17 15 22 20 18 16 226 233 231 17 15 22 20 18 16 226 233 231 229 227 234 232 230 16 14 21 19 17 15 234 20 18 16 14 21 19 17 15 22 20 230 16 14 21 19 17 15 22 20 18 228 226 21 19 17 15 22 20 18 16 14 233 231 229 15 22 20 18 16 14 233 231 229 15 22 20 18 16 14 233 231 229 227 234 232 230 228 14 21 19 17 15 22 232 18 16 14 21 19 17 15 22 20 18 228 14 21 19 17 15 22 20 18 16 226 233 19 17 15 22 20 18 16 14 21 231 229 227 22 20 18 16 14 21 231 229 227 22 20 18 16 14 21 231 229 227 234 232 230 228 226 21 19 17 15 22 20 230 16 14 21 19 17 15 22 20 18 16 226 21 19 17 15 22 20 18 16 14 233 231 17 15 22 20 18 16 14 21 19 229 227 234 20 18 16 14 21 19 229 227 234 20 18
22 20 18 228 226 21 19 17 15 22 20 230 228 14 21 19 17 15 234 20 18 16 14 21 19 17 15 22 20 230 16 14 21 19 17 15 22 20 18 228 226 21 19 17 15 22 20 18 16 14 21 231 229 227 22 20 18 16 226 233 231 17 15 22 20 18 16 226 233 19 17 15 22 20 18 228 226 21 19 17 15 22 232 18 16 14 21 19 17 15 22 20 18 228 14 21 19 17 15 22 20 18 16 226 233 19 17 15 22 20 18 16 14 21 19 229 227 234 20 18 16 14 233 231 229 15 22 20 18 16 14 233 231 17 15 22 20 18 16 226 233 19 17 15 22 20 230 16 14 21 19 17 15 22 20 18 16 226 21 19 17 15 22 20 18 16 14 233 231 17 15 22 20 18 16 14 21 19 17 227 234 232 18 16 14 21 231 229 227 22 20 18 16 14 21 231 229 15 22 20 18 16 14 233 231 17 15 22 20 18 228 14 21 19 17 15 22 20 18 16 14 233 19 17 15 22 20 18 16 14 21 231 229 15 22 20 18 16 14 21 19 17 15 234 232 230 16 14 21 19 229 227 234 20 18 16 14 21 19 229 227 22 20 18 16 14 21 231 229 15 22 20 18 16 226 21 19 17 15 22 20 18 16 14 21 231 17 15 22 20 18 16 14 21 19 229 227 22 20 18 16 14 21 19 17 15 22 232 230 228 14 21 19 17 227 234 232 18 16 14
18 16 226 233 19 17 15 22 20 18 16 14 233 231 17 15 22 20 230 16 14 21 19 17 15 22 20 18 16 226 21 19 17 15 22 20 18 16 14 233 231 17 15 22 20 18 16 14 21 19 17 15 234 232 230 16 14 233 231 229 15 22 20 18 16 14 233 231 17 15 22 20 18 16 14 21 231 229 15 22 20 18 228 14 21 19 17 15 22 20 18 16 14 233 19 17 15 22 20 18 16 14 21 231 229 15 22 20 18 16 14 21 19 17 15 22 232 230 228 14 21 231 229 227 22 20 18 16 14 21 231 229 15 22 20 18 16 14 21 19 229 227 22 20 18 16 226 21 19 17 15 22 20 18 16 14 21 231 17 15 22 20 18 16 14 21 19 229 227 22 20 18 16 14 21 19 17 15 22 20 230 228 226 21 19 229 227 234 20 18 16 14 21 19 229 227 22 20 18 16 14 21 19 17 227 234 20 18 16 14 233 19 17 15 22 20 18 16 14 21 19 229 15 22 20 18 16 14 21 19 17 227 234 20 18 16 14 21 19 17 15 22 20 18 228 226 233 19 17 227 234 232 18 16 14 21 19 17 227 234 20 18 16 14 21 19 17 15 234 232 18 16 14 21 231 17 15 22 20 18 16 14 21 19 17 227 22 20 18 16 14 21 19 17 15 234 232 18 16 14 21 19 17 15 22 20 18 16 226 233 231 17 15 234 232 230 16 14 21 19
14 21 231 229 15 22 20 18 16 14 21 19 229 227 22 20 18 16 226 21 19 17 15 22 20 18 16 14 21 231 17 15 22 20 18 16 14 21 19 229 227 22 20 18 16 14 21 19 17 15 22 20 18 228 226 233 231 229 227 22 20 18 16 14 21 19 229 227 22 20 18 16 14 21 19 17 227 234 20 18 16 14 233 19 17 15 22 20 18 16 14 21 19 229 15 22 20 18 16 14 21 19 17 227 234 20 18 16 14 21 19 17 15 22 20 18 16 226 233 231 229 227 234 20 18 16 14 21 19 17 227 234 20 18 16 14 21 19 17 15 234 232 18 16 14 21 231 17 15 22 20 18 16 14 21 19 17 227 22 20 18 16 14 21 19 17 15 234 232 18 16 14 21 19 17 15 22 20 18 16 14 233 231 229 227 234 232 18 16 14 21 19 17 15 234 232 18 16 14 21 19 17 15 22 232 230 16 14 21 19 229 15 22 20 18 16 14 21 19 17 15 234 20 18 16 14 21 19 17 15 22 232 230 16 14 21 19 17 15 22 20 18 16 14 21 231 229 227 234 232 230 16 14 21 19 17 15 22 232 230 16 14 21 19 17 15 22 20 230 228 14 21 19 17 227 22 20 18 16 14 21 19 17 15 22 232 18 16 14 21 19 17 15 22 20 230 228 14 21 19 17 15 22 20 18 16 14 21 19 229 227 234 232 230 228 14 21 19 17 15
19 17 227 234 20 18 16 14 21 19 17 15 234 232 18 16 14 21 231 17 15 22 20 18 16 14 21 19 17 227 22 20 230 228 226 233 231 229 227 234 232 230 228 226 233 231 229 227 22 20 18 16 14 21 231 229 227 234 20 18 16 14 21 19 17 15 234 232 18 16 14 21 19 17 15 22 232 230 16 14 21 19 229 15 22 20 18 16 14 21 19 17 15 234 20 18 228 226 233 231 229 227 234 232 230 228 226 233 231 229 227 234 20 18 16 14 21 19 229 227 234 232 18 16 14 21 19 17 15 22 232 230 16 14 21 19 17 15 22 20 230 228 14 21 19 17 227 22 20 18 16 14 21 19 17 15 22 232 18 16 226 233 231 229 227 234 232 230 228 226 233 231 229 227 234 232 18 16 14 21 19 17 227 234 232 230 16 14 21 19 17 15 22 20 230 228 14 21 19 17 15 22 20 18 228 226 21 19 17 15 234 20 18 16 14 21 19 17 15 22 20 230 16 14 233 231 229 227 234 232 230 228 226 233 231 229 227 234 232 230 16 14 21 19 17 15 234 232 230 228 14 21 19 17 15 22 20 18 228 226 21 19 17 15 22 20 18 16 226 233 19 17 15 22 232 18 16 14 21 19 17 15 22 20 18 228 14 21 231 229 227 234 232 230 228 226 233 231 229 227 234 232 230 228 14 21 19 17 15 22 232 230 228 226 21 19 17 15 22 20
15 22 232 230 16 14 21 19 17 15 22 20 230 228 14 21 19 17 227 22 20 18 16 14 21 19 17 15 22 232 18 16 226 233 231 229 227 234 232 230 228 226 233 231 229 227 234 232 18 16 14 21 19 17 227 234 232 230 16 14 21 19 17 15 22 20 230 228 14 21 19 17 15 22 20 18 228 226 21 19 17 15 234 20 18 16 14 21 19 17 15 22 20 230 16 14 233 231 229 227 234 232 230 228 226 233 231 229 227 234 232 230 16 14 21 19 17 15 234 232 230 228 14 21 19 17 15 22 20 18 228 226 21 19 17 15 22 20 18 16 226 233 19 17 15 22 232 18 16 14 21 19 17 15 22 20 18 228 14 21 231 229 227 234 232 230 228 226 233 231 229 227 234 232 230 228 14 21 19 17 15 22 232 230 228 226 21 19 17 15 22 20 18 16 226 233 19 17 15 22 20 18 16 14 233 231 17 15 22 20 230 16 14 21 19 17 15 22 20 18 16 226 21 19 229 227 234 232 230 228 226 233 231 229 227 234 232 230 228 226 21 19 17 15 22 20 230 228 226 233 19 17 15 22 20 18 16 14 233 231 17 15 22 20 18 16 14 21 231 229 15 22 20 18 228 14 21 19 17 15 22 20 18 16 14 233 19 17 227 234 232 230 228 226 233 231 229 227 234 232 230 228 226 233 19 17 15 22 20 18 228 226 233 231 17 15 22 20 18 16
20 18 228 226 21 19 17 15 22 20 18 16 226 233 19 17 15 22 232 18 16 14 21 19 17 15 22 20 18 228 14 21 19 17 15 22 20 18 16 226 233 19 17 15 22 20 18 16 14 21 19 17 15 234 232 230 228 226 233 19 17 15 22 20 18 16 226 233 19 17 15 22 20 18 16 14 233 231 17 15 22 20 230 16 14 21 19 17 15 22 20 18 16 226 21 19 17 15 22 20 18 16 14 233 231 17 15 22 20 18 16 14 21 19 17 15 22 232 230 228 226 233 231 17 15 22 20 18 16 14 233 231 17 15 22 20 18 16 14 21 231 229 15 22 20 18 228 14 21 19 17 15 22 20 18 16 14 233 19 17 15 22 20 18 16 14 21 231 229 15 22 20 18 16 14 21 19 17 15 22 20 230 228 226 233 231 229 15 22 20 18 16 14 21 231 229 15 22 20 18 16 14 21 19 229 227 22 20 18 16 226 21 19 17 15 22 20 18 16 14 21 231 17 15 22 20 18 16 14 21 19 229 227 22 20 18 16 14 21 19 17 15 22 20 18 228 226 233 231 229 227 22 20 18 16 14 21 19 229 227 22 20 18 16 14 21 19 17 227 234 20 18 16 14 233 19 17 15 22 20 18 16 14 21 19 229 15 22 20 18 16 14 21 19 17 227 234 20 18 16 14 21 19 17 15 22 20 18 16 226 233 231 229 227 234 20 18 16 14 21
16 14 233 231 17 15 22 20 18 16 14 21 231 229 15 22 20 18 228 14 21 19 17 15 22 20 18 16 14 233 19 17 15 22 20 18 16 14 21 231 229 15 22 20 18 16 14 21 19 17 15 22 232 230 228 14 21 231 229 227 22 20 18 16 14 21 231 229 15 22 20 18 16 14 21 19 229 227 22 20 18 16 226 21 19 17 15 22 20 18 16 14 21 231 17 15 22 20 18 16 14 21 19 229 227 22 20 18 16 14 21 19 17 15 22 20 230 228 226 21 19 229 227 234 20 18 16 14 21 19 229 227 22 20 18 16 14 21 19 17 227 234 20 18 16 14 233 19 17 15 22 20 18 16 14 21 19 229 15 22 20 18 16 14 21 19 17 227 234 20 18 16 14 21 19 17 15 22 20 18 228 226 233 19 17 227 234 232 18 16 14 21 19 17 227 234 20 18 16 14 21 19 17 15 234 232 18 16 14 21 231 17 15 22 20 18 16 14 21 19 17 227 22 20 18 16 14 21 19 17 15 234 232 18 16 14 21 19 17 15 22 20 18 16 226 233 231 17 15 234 232 230 16 14 21 19 17 15 234 232 18 16 14 21 19 17 15 22 232 230 16 14 21 19 229 15 22 20 18 16 14 21 19 17 15 234 20 18 16 14 21 19 17 15 22 232 230 16 14 21 19 17 15 22 20 18 16 14 233 231 229 15 22 232 230 228 14 21 19 17
21 19 17 227 234 20 18 16 14 21 19 229 227 22 20 18 16 14 233 19 17 15 22 20 18 16 14 21 19 229 15 22 20 18 16 14 21 19 17 227 234 20 18 16 14 21 19 17 15 22 20 230 228 226 21 19 17 15 234 232 230 16 14 21 19 17 15 234 232 18 16 14 21 19 17 227 234 20 18 16 14 21 231 17 15 22 20 18 16 14 21 19 17 227 22 20 18 16 14 21 19 17 15 234 232 18 16 14 21 19 17 15 22 20 18 228 226 233 19 17 15 22 232 230 228 14 21 19 17 15 22 232 230 16 14 21 19 17 15 234 232 18 16 14 21 19 229 15 22 20 18 16 14 21 19 17 15 234 20 18 16 14 21 19 17 15 22 232 230 16 14 21 19 17 15 22 20 18 16 226 233 231 17 15 22 20 230 228 226 21 19 17 15 22 20 230 228 14 21 19 17 15 22 232 230 16 14 21 19 17 227 22 20 18 16 14 21 19 17 15 22 232 18 16 14 21 19 17 15 22 20 230 228 14 21 19 17 15 22 20 18 16 14 233 231 229 15 22 20 18 228 226 233 19 17 15 22 20 18 228 226 21 19 17 15 22 20 230 228 14 21 19 17 15 234 20 18 16 14 21 19 17 15 22 20 230 16 14 21 19 17 15 22 20 18 228 226 21 19 17 15 22 20 18 16 14 21 231 229 227 22 20 18 16 226 233 231 17 15 22
17 15 22 20 230 228 226 233 231 229 227 234 20 18 16 14 21 19 229 15 22 20 18 16 14 21 19 17 15 234 20 18 16 14 21 19 17 15 22 232 230 16 14 21 19 17 15 22 20 18 228 226 233 19 17 15 22 20 18 228 226 233 19 17 15 22 20 18 228 226 233 231 229 227 234 232 18 16 14 21 19 17 227 22 20 18 16 14 21 19 17 15 22 232 18 16 14 21 19 17 15 22 20 230 228 14 21 19 17 15 22 20 18 16 226 233 231 17 15 22 20 18 16 226 233 231 17 15 22 20 18 16 226 233 231 229 227 234 232 230 16 14 21 19 17 15 234 20 18 16 14 21 19 17 15 22 20 230 16 14 21 19 17 15 22 20 18 228 226 21 19 17 15 22 20 18 16 14 233 231 229 15 22 20 18 16 14 233 231 229 15 22 20 18 16 14 233 231 229 227 234 232 230 228 14 21 19 17 15 22 232 18 16 14 21 19 17 15 22 20 18 228 14 21 19 17 15 22 20 18 16 226 233 19 17 15 22 20 18 16 14 21 231 229 227 22 20 18 16 14 21 231 229 227 22 20 18 16 14 21 231 229 227 234 232 230 228 226 21 19 17 15 22 20 230 16 14 21 19 17 15 22 20 18 16 226 21 19 17 15 22 20 18 16 14 233 231 17 15 22 20 18 16 14 21 19 229 227 234 20 18 16 14 21 19 229 227 234 20 18
22 20 18 16 14 233 231 229 227 234 232 18 16 14 21 19 17 15 234 232 230 228 226 233 231 229 227 234 232 230 16 14 21 19 17 15 22 20 18 228 226 21 19 17 15 22 20 18 16 226 233 231 17 15 22 20 18 16 14 21 231 229 227 22 20 18 16 14 21 231 229 227 234 232 230 16 14 21 19 17 15 22 232 230 228 226 233 231 229 227 234 232 230 228 14 21 19 17 15 22 20 18 16 226 233 19 17 15 22 20 18 16 14 233 231 229 15 22 20 18 16 14 21 19 229 227 234 20 18 16 14 21 19 229 227 234 232 230 228 14 21 19 17 15 22 20 230 228 226 233 231 229 227 234 232 230 228 226 21 19 17 15 22 20 18 16 14 233 231 17 15 22 20 18 16 14 21 231 229 227 22 20 18 16 14 21 19 17 227 234 232 18 16 14 21 19 17 227 234 232 230 228 226 21 19 17 15 22 20 18 228 226 233 231 229 227 234 232 230 228 226 233 19 17 15 22 20 18 16 14 21 231 229 15 22 20 18 16 14 21 19 229 227 234 20 18 16 14 21 19 17 15 234 232 230 16 14 21 19 17 15 234 232 230 228 226 233 19 17 15 22 20 18 16 226 233 231 229 227 234 232 230 228 226 233 231 17 15 22 20 18 16 14 21 19 229 227 22 20 18 16 14 21 19 17 227 234 232 18 16 14 21 19 17 15 22 232 230 228 14
18 16 14 21 19 17 15 22 20 18 16 14 21 19 17 15 22 20 18 16 14 21 19 17 15 22 20 18 16 14 21 19 17 15 22 20 18 16 14 233 231 17 15 22 20 18 16 14 233 231 229 15 22 20 18 16 14 21 19 17 15 234 232 230 16 14 21 19 17 15 22 20 18 16 14 21 19 17 15 22 20 18 16 14 21 19 17 15 22 20 18 16 14 21 19 17 15 22 20 18 16 14 21 231 229 15 22 20 18 16 14 21 231 229 227 22 20 18 16 14 21 19 17 15 22 232 230 228 14 21 19 17 15 22 20 18 16 14 21 19 17 15 22 20 18 16 14 21 19 17 15 22 20 18 16 14 21 19 17 15 22 20 18 16 14 21 19 229 227 22 20 18 16 14 21 19 229 227 234 20 18 16 14 21 19 17 15 22 20 230 228 226 21 19 17 15 22 20 18 16 14 21 19 17 15 22 20 18 16 14 21 19 17 15 22 20 18 16 14 21 19 17 15 22 20 18 16 14 21 19 17 227 234 20 18 16 14 21 19 17 227 234 232 18 16 14 21 19 17 15 22 20 18 228 226 233 19 17 15 22 20 18 16 14 21 19 17 15 22 20 18 16 14 21 19 17 15 22 20 18 16 14 21 19 17 15 22 20 18 16 14 21 19 17 15 234 232 18 16 14 21 19 17 15 234 232 230 16 14 21 19 17 15 22 20 18 16 226 233 231
14 21 19 17 15 22 20 18 16 14 21 19 17 15 22 20 18 16 14 21 19 17 15 22 20 18 16 14 21 19 17 15 22 20 18 16 14 21 19 229 227 22 20 18 16 14 21 19 229 227 22 20 18 16 14 21 19 17 15 22 20 18 228 226 21 19 17 15 22 20 18 16 14 21 19 17 15 22 20 18 16 14 21 19 17 15 22 20 18 16 14 21 19 17 15 22 20 18 16 14 21 19 17 227 234 20 18 16 14 21 19 17 227 234 20 18 16 14 21 19 17 15 22 20 18 16 226 233 19 17 15 22 20 18 16 14 21 19 17 15 22 20 18 16 14 21 19 17 15 22 20 18 16 14 21 19 17 15 22 20 18 16 14 21 19 17 15 234 232 18 16 14 21 19 17 15 234 232 18 16 14 21 19 17 15 22 20 18 16 14 233 231 17 15 22 20 18 16 14 21 19 17 15 22 20 18 16 14 21 19 17 15 22 20 18 16 14 21 19 17 15 22 20 18 16 14 21 19 17 15 22 232 230 16 14 21 19 17 15 22 232 230 16 14 21 19 17 15 22 20 18 16 14 21 231 229 15 22 20 18 16 14 21 19 17 15 22 20 18 16 14 21 19 17 15 22 20 18 16 14 21 19 17 15 22 20 18 16 14 21 19 17 15 22 20 230 228 14 21 19 17 15 22 20 230 228 14 21 19 17 15 22 20 18 16 14 21 19 229 227
19 17 15 22 20 18 16 14 21 19 17 15 22 20 18 16 14 21 19 17 15 22 20 18 16 14 21 19 17 15 22 20 18 16 14 21 19 17 15 234 232 18 16 14 21 19 17 15 234 232 18 16 14 21 19 17 15 22 20 18 16 14 233 231 17 15 22 20 18 16 14 21 19 17 15 22 20 18 16 14 21 19 17 15 22 20 18 16 14 21 19 17 15 22 20 18 16 14 21 19 17 15 22 232 230 16 14 21 19 17 15 22 232 230 16 14 21 19 17 15 22 20 18 16 14 21 231 229 15 22 20 18 16 14 21 19 17 15 22 20 18 16 14 21 19 17 15 22 20 18 16 14 21 19 17 15 22 20 18 16 14 21 19 17 15 22 20 230 228 14 21 19 17 15 22 20 230 228 14 21 19 17 15 22 20 18 16 14 21 19 229 227 22 20 18 16 14 21 19 17 15 22 20 18 16 14 21 19 17 15 22 20 18 16 14 21 19 17 15 22 20 18 16 14 21 19 17 15 22 20 18 228 226 21 19 17 15 22 20 18 228 226 21 19 17 15 22 20 18 16 14 21 19 17 227 234 20 18 16 14 21 19 17 15 22 20 18 16 14 21 19 17 15 22 20 18 16 14 21 19 17 15 22 20 18 16 14 21 19 17 15 22 20 18 16 226 233 19 17 15 22 20 18 16 226 233 19 17 15 22 20 18 16 14 21 19 17 15 234 232
15 22 20 18 16 14 21 19 17 15 22 20 18 16 14 21 19 17 15 22 20 18 16 14 21 19 17 15 22 20 18 16 14 21 19 17 15 22 20 230 228 14 21 19 17 15 22 20 230 228 226 21 19 17 15 22 20 18 16 14 21 231 229 227 22 20 18 16 14 21 19 17 15 22 20 18 16 14 21 19 17 15 22 20 18 16 14 21 19 17 15 22 20 18 16 14 21 19 17 15 22 20 18 228 226 21 19 17 15 22 20 18 228 226 233 19 17 15 22 20 18 16 14 21 19 229 227 234 20 18 16 14 21 19 17 15 22 20 18 16 14 21 19 17 15 22 20 18 16 14 21 19 17 15 22 20 18 16 14 21 19 17 15 22 20 18 16 226 233 19 17 15 22 20 18 16 226 233 231 17 15 22 20 18 16 14 21 19 17 227 234 232 18 16 14 21 19 17 15 22 20 18 16 14 21 19 17 15 22 20 18 16 14 21 19 17 15 22 20 18 16 14 21 19 17 15 22 20 18 16 14 233 231 17 15 22 20 18 16 14 233 231 229 15 22 20 18 16 14 21 19 17 15 234 232 230 16 14 21 19 17 15 22 20 18 16 14 21 19 17 15 22 20 18 16 14 21 19 17 15 22 20 18 16 14 21 19 17 15 22 20 18 16 14 21 231 229 15 22 20 18 16 14 21 231 229 227 22 20 18 16 14 21 19 17 15 22 232 230 228
20 18 16 14 21 231 229 227 234 232 230 16 14 21 19 17 15 22 232 230 228 226 233 231 229 227 234 232 230 228 14 21 19 17 15 22 20 18 16 226 233 19 17 15 22 20 18 16 14 233 231 229 15 22 20 18 16 14 21 19 229 227 234 20 18 16 14 21 19 229 227 234 232 230 228 14 21 19 17 15 22 20 230 228 226 233 231 229 227 234 232 230 228 226 21 19 17 15 22 20 18 16 14 233 231 17 15 22 20 18 16 14 21 231 229 227 22 20 18 16 14 21 19 17 227 234 232 18 16 14 21 19 17 227 234 232 230 228 226 21 19 17 15 22 20 18 228 226 233 231 229 227 234 232 230 228 226 233 19 17 15 22 20 18 16 14 21 231 229 15 22 20 18 16 14 21 19 229 227 234 20 18 16 14 21 19 17 15 234 232 230 16 14 21 19 17 15 234 232 230 228 226 233 19 17 15 22 20 18 16 226 233 231 229 227 234 232 230 228 226 233 231 17 15 22 20 18 16 14 21 19 229 227 22 20 18 16 14 21 19 17 227 234 232 18 16 14 21 19 17 15 22 232 230 228 14 21 19 17 15 22 232 230 228 226 233 231 17 15 22 20 18 16 14 233 231 229 227 234 232 230 228 226 233 231 229 15 22 20 18 16 14 21 19 17 227 234 20 18 16 14 21 19 17 15 234 232 230 16 14 21 19 17 15 22 20 230 228 226 21
16 14 21 19 229 227 234 232 230 228 226 233 19 17 15 22 20 18 228 14 21 19 17 15 22 20 18 16 14 233 19 17 15 22 20 18 16 14 21 231 229 15 22 20 18 16 14 21 19 17 227 234 232 18 16 14 21 19 17 227 234 232 18 16 14 21 19 17 227 234 232 230 228 226 233 231 17 15 22 20 18 16 226 21 19 17 15 22 20 18 16 14 21 231 17 15 22 20 18 16 14 21 19 229 227 22 20 18 16 14 21 19 17 15 234 232 230 16 14 21 19 17 15 234 232 230 16 14 21 19 17 15 234 232 230 228 226 233 231 229 15 22 20 18 16 14 233 19 17 15 22 20 18 16 14 21 19 229 15 22 20 18 16 14 21 19 17 227 234 20 18 16 14 21 19 17 15 22 232 230 228 14 21 19 17 15 22 232 230 228 14 21 19 17 15 22 232 230 228 226 233 231 229 227 22 20 18 16 14 21 231 17 15 22 20 18 16 14 21 19 17 227 22 20 18 16 14 21 19 17 15 234 232 18 16 14 21 19 17 15 22 20 230 228 226 21 19 17 15 22 20 230 228 226 21 19 17 15 22 20 230 228 226 233 231 229 227 234 20 18 16 14 21 19 229 15 22 20 18 16 14 21 19 17 15 234 20 18 16 14 21 19 17 15 22 232 230 16 14 21 19 17 15 22 20 18 228 226 233 19 17 15 22 20 18 228 226 233 19 17
21 19 17 227 234 20 18 16 14 21 19 229 227 22 20 18 16 14 233 19 17 15 22 20 18 16 14 21 19 229 15 22 20 18 16 14 21 19 17 227 234 20 18 16 14 21 19 17 15 22 20 230 228 226 21 19 17 15 234 232 230 16 14 21 19 17 15 234 232 18 16 14 21 19 17 227 234 20 18 16 14 21 231 17 15 22 20 18 16 14 21 19 17 227 22 20 18 16 14 21 19 17 15 234 232 18 16 14 21 19 17 15 22 20 18 228 226 233 19 17 15 22 232 230 228 14 21 19 17 15 22 232 230 16 14 21 19 17 15 234 232 18 16 14 21 19 229 15 22 20 18 16 14 21 19 17 15 234 20 18 16 14 21 19 17 15 22 232 230 16 14 21 19 17 15 22 20 18 16 226 233 231 17 15 22 20 230 228 226 21 19 17 15 22 20 230 228 14 21 19 17 15 22 232 230 16 14 21 19 17 227 22 20 18 16 14 21 19 17 15 22 232 18 16 14 21 19 17 15 22 20 230 228 14 21 19 17 15 22 20 18 16 14 233 231 229 15 22 20 18 228 226 233 19 17 15 22 20 18 228 226 21 19 17 15 22 20 230 228 14 21 19 17 15 234 20 18 16 14 21 19 17 15 22 20 230 16 14 21 19 17 15 22 20 18 228 226 21 19 17 15 22 20 18 16 14 21 231 229 227 22 20 18 16 226 233 231 17 15 22
17 15 234 232 18 16 14 21 19 17 15 22 232 230 16 14 21 19 229 15 22 20 18 16 14 21 19 17 15 234 20 18 16 14 21 19 17 15 22 232 230 16 14 21 19 17 15 22 20 18 16 14 233 231 229 15 22 232 230 228 14 21 19 17 15 22 232 230 16 14 21 19 17 15 22 20 230 228 14 21 19 17 227 22 20 18 16 14 21 19 17 15 22 232 18 16 14 21 19 17 15 22 20 230 228 14 21 19 17 15 22 20 18 16 14 21 231 229 227 22 20 230 228 226 21 19 17 15 22 20 230 228 14 21 19 17 15 22 20 18 228 226 21 19 17 15 234 20 18 16 14 21 19 17 15 22 20 230 16 14 21 19 17 15 22 20 18 228 226 21 19 17 15 22 20 18 16 14 21 19 229 227 234 20 18 228 226 233 19 17 15 22 20 18 228 226 21 19 17 15 22 20 18 16 226 233 19 17 15 22 232 18 16 14 21 19 17 15 22 20 18 228 14 21 19 17 15 22 20 18 16 226 233 19 17 15 22 20 18 16 14 21 19 17 227 234 232 18 16 226 233 231 17 15 22 20 18 16 226 233 19 17 15 22 20 18 16 14 233 231 17 15 22 20 230 16 14 21 19 17 15 22 20 18 16 226 21 19 17 15 22 20 18 16 14 233 231 17 15 22 20 18 16 14 21 19 17 15 234 232 230 16 14 233 231 229 15 22 20 18
22 20 230 228 14 21 19 17 15 22 20 18 228 226 21 19 17 15 234 20 18 16 14 21 19 17 15 22 20 230 16 14 21 19 17 15 22 20 18 228 226 21 19 17 15 22 20 18 16 14 21 19 17 227 234 232 230 228 226 21 19 17 15 22 20 18 228 226 21 19 17 15 22 20 18 16 226 233 19 17 15 22 232 18 16 14 21 19 17 15 22 20 18 228 14 21 19 17 15 22 20 18 16 226 233 19 17 15 22 20 18 16 14 21 19 17 15 234 232 230 228 226 233 19 17 15 22 20 18 16 226 233 19 17 15 22 20 18 16 14 233 231 17 15 22 20 230 16 14 21 19 17 15 22 20 18 16 226 21 19 17 15 22 20 18 16 14 233 231 17 15 22 20 18 16 14 21 19 17 15 22 232 230 228 226 233 231 17 15 22 20 18 16 14 233 231 17 15 22 20 18 16 14 21 231 229 15 22 20 18 228 14 21 19 17 15 22 20 18 16 14 233 19 17 15 22 20 18 16 14 21 231 229 15 22 20 18 16 14 21 19 17 15 22 20 230 228 226 233 231 229 15 22 20 18 16 14 21 231 229 15 22 20 18 16 14 21 19 229 227 22 20 18 16 226 21 19 17 15 22 20 18 16 14 21 231 17 15 22 20 18 16 14 21 19 229 227 22 20 18 16 14 21 19 17 15 22 20 18 228 226 233 231 229 227 22 20 18 16 14
18 16 226 233 19 17 15 22 20 18 16 14 233 231 17 15 22 20 230 16 14 21 19 17 15 22 20 18 16 226 21 19 229 227 234 232 230 228 226 233 231 229 227 234 232 230 228 226 21 19 17 15 22 20 230 228 226 233 19 17 15 22 20 18 16 14 233 231 17 15 22 20 18 16 14 21 231 229 15 22 20 18 228 14 21 19 17 15 22 20 18 16 14 233 19 17 227 234 232 230 228 226 233 231 229 227 234 232 230 228 226 233 19 17 15 22 20 18 228 226 233 231 17 15 22 20 18 16 14 21 231 229 15 22 20 18 16 14 21 19 229 227 22 20 18 16 226 21 19 17 15 22 20 18 16 14 21 231 17 15 234 232 230 228 226 233 231 229 227 234 232 230 228 226 233 231 17 15 22 20 18 16 226 233 231 229 15 22 20 18 16 14 21 19 229 227 22 20 18 16 14 21 19 17 227 234 20 18 16 14 233 19 17 15 22 20 18 16 14 21 19 229 15 22 232 230 228 226 233 231 229 227 234 232 230 228 226 233 231 229 15 22 20 18 16 14 233 231 229 227 22 20 18 16 14 21 19 17 227 234 20 18 16 14 21 19 17 15 234 232 18 16 14 21 231 17 15 22 20 18 16 14 21 19 17 227 22 20 230 228 226 233 231 229 227 234 232 230 228 226 233 231 229 227 22 20 18 16 14 21 231 229 227 234 20 18 16 14 21 19
14 21 231 229 15 22 20 18 16 14 21 19 229 227 22 20 18 16 226 21 19 17 15 22 20 18 16 14 21 231 17 15 234 232 230 228 226 233 231 229 227 234 232 230 228 226 233 231 17 15 22 20 18 16 226 233 231 229 15 22 20 18 16 14 21 19 229 227 22 20 18 16 14 21 19 17 227 234 20 18 16 14 233 19 17 15 22 20 18 16 14 21 19 229 15 22 232 230 228 226 233 231 229 227 234 232 230 228 226 233 231 229 15 22 20 18 16 14 233 231 229 227 22 20 18 16 14 21 19 17 227 234 20 18 16 14 21 19 17 15 234 232 18 16 14 21 231 17 15 22 20 18 16 14 21 19 17 227 22 20 230 228 226 233 231 229 227 234 232 230 228 226 233 231 229 227 22 20 18 16 14 21 231 229 227 234 20 18 16 14 21 19 17 15 234 232 18 16 14 21 19 17 15 22 232 230 16 14 21 19 229 15 22 20 18 16 14 21 19 17 15 234 20 18 228 226 233 231 229 227 234 232 230 228 226 233 231 229 227 234 20 18 16 14 21 19 229 227 234 232 18 16 14 21 19 17 15 22 232 230 16 14 21 19 17 15 22 20 230 228 14 21 19 17 227 22 20 18 16 14 21 19 17 15 22 232 18 16 226 233 231 229 227 234 232 230 228 226 233 231 229 227 234 232 18 16 14 21 19 17 227 234 232 230 16 14 21 19 17 15
19 17 227 234 20 18 16 14 21 19 17 15 234 232 18 16 14 21 231 17 15 22 20 18 16 14 21 19 17 227 22 20 18 16 14 21 19 17 15 234 232 18 16 14 21 19 17 15 22 20 18 16 14 233 231 229 227 234 232 18 16 14 21 19 17 15 234 232 18 16 14 21 19 17 15 22 232 230 16 14 21 19 229 15 22 20 18 16 14 21 19 17 15 234 20 18 16 14 21 19 17 15 22 232 230 16 14 21 19 17 15 22 20 18 16 14 21 231 229 227 234 232 230 16 14 21 19 17 15 22 232 230 16 14 21 19 17 15 22 20 230 228 14 21 19 17 227 22 20 18 16 14 21 19 17 15 22 232 18 16 14 21 19 17 15 22 20 230 228 14 21 19 17 15 22 20 18 16 14 21 19 229 227 234 232 230 228 14 21 19 17 15 22 20 230 228 14 21 19 17 15 22 20 18 228 226 21 19 17 15 234 20 18 16 14 21 19 17 15 22 20 230 16 14 21 19 17 15 22 20 18 228 226 21 19 17 15 22 20 18 16 14 21 19 17 227 234 232 230 228 226 21 19 17 15 22 20 18 228 226 21 19 17 15 22 20 18 16 226 233 19 17 15 22 232 18 16 14 21 19 17 15 22 20 18 228 14 21 19 17 15 22 20 18 16 226 233 19 17 15 22 20 18 16 14 21 19 17 15 234 232 230 228 226 233 19 17 15 22 20
15 22 232 230 16 14 21 19 17 15 22 20 230 228 14 21 19 17 227 22 20 18 16 14 21 19 17 15 22 232 18 16 14 21 19 17 15 22 20 230 228 14 21 19 17 15 22 20 18 16 14 21 231 229 227 22 20 230 228 226 21 19 17 15 22 20 230 228 14 21 19 17 15 22 20 18 228 226 21 19 17 15 234 20 18 16 14 21 19 17 15 22 20 230 16 14 21 19 17 15 22 20 18 228 226 21 19 17 15 22 20 18 16 14 21 19 229 227 234 20 18 228 226 233 19 17 15 22 20 18 228 226 21 19 17 15 22 20 18 16 226 233 19 17 15 22 232 18 16 14 21 19 17 15 22 20 18 228 14 21 19 17 15 22 20 18 16 226 233 19 17 15 22 20 18 16 14 21 19 17 227 234 232 18 16 226 233 231 17 15 22 20 18 16 226 233 19 17 15 22 20 18 16 14 233 231 17 15 22 20 230 16 14 21 19 17 15 22 20 18 16 226 21 19 17 15 22 20 18 16 14 233 231 17 15 22 20 18 16 14 21 19 17 15 234 232 230 16 14 233 231 229 15 22 20 18 16 14 233 231 17 15 22 20 18 16 14 21 231 229 15 22 20 18 228 14 21 19 17 15 22 20 18 16 14 233 19 17 15 22 20 18 16 14 21 231 229 15 22 20 18 16 14 21 19 17 15 22 232 230 228 14 21 231 229 227 22 20 18 16
20 18 16 226 233 19 17 15 22 20 18 228 226 21 19 17 15 22 232 18 16 14 21 19 17 15 22 20 18 228 14 21 19 17 15 22 20 18 16 226 233 19 17 15 22 20 18 16 14 21 19 229 227 234 20 18 16 14 233 231 229 15 22 20 18 16 14 233 231 17 15 22 20 18 16 226 233 19 17 15 22 20 230 16 14 21 19 17 15 22 20 18 16 226 21 19 17 15 22 20 18 16 14 233 231 17 15 22 20 18 16 14 21 19 17 227 234 232 18 16 14 21 231 229 227 22 20 18 16 14 21 231 229 15 22 20 18 16 14 233 231 17 15 22 20 18 228 14 21 19 17 15 22 20 18 16 14 233 19 17 15 22 20 18 16 14 21 231 229 15 22 20 18 16 14 21 19 17 15 234 232 230 16 14 21 19 229 227 234 20 18 16 14 21 19 229 227 22 20 18 16 14 21 231 229 15 22 20 18 16 226 21 19 17 15 22 20 18 16 14 21 231 17 15 22 20 18 16 14 21 19 229 227 22 20 18 16 14 21 19 17 15 22 232 230 228 14 21 19 17 227 234 232 18 16 14 21 19 17 227 234 20 18 16 14 21 19 229 227 22 20 18 16 14 233 19 17 15 22 20 18 16 14 21 19 229 15 22 20 18 16 14 21 19 17 227 234 20 18 16 14 21 19 17 15 22 20 230 228 226 21 19 17 15 234 232 230 16 14 21
16 14 21 19 229 227 234 232 230 228 226 233 19 17 15 22 20 18 228 14 21 19 17 15 22 20 18 16 14 233 19 17 15 22 20 18 16 14 21 231 229 15 22 20 18 16 14 21 19 17 227 234 232 18 16 14 21 19 17 227 234 232 18 16 14 21 19 17 227 234 232 230 228 226 233 231 17 15 22 20 18 16 226 21 19 17 15 22 20 18 16 14 21 231 17 15 22 20 18 16 14 21 19 229 227 22 20 18 16 14 21 19 17 15 234 232 230 16 14 21 19 17 15 234 232 230 16 14 21 19 17 15 234 232 230 228 226 233 231 229 15 22 20 18 16 14 233 19 17 15 22 20 18 16 14 21 19 229 15 22 20 18 16 14 21 19 17 227 234 20 18 16 14 21 19 17 15 22 232 230 228 14 21 19 17 15 22 232 230 228 14 21 19 17 15 22 232 230 228 226 233 231 229 227 22 20 18 16 14 21 231 17 15 22 20 18 16 14 21 19 17 227 22 20 18 16 14 21 19 17 15 234 232 18 16 14 21 19 17 15 22 20 230 228 226 21 19 17 15 22 20 230 228 226 21 19 17 15 22 20 230 228 226 233 231 229 227 234 20 18 16 14 21 19 229 15 22 20 18 16 14 21 19 17 15 234 20 18 16 14 21 19 17 15 22 232 230 16 14 21 19 17 15 22 20 18 228 226 233 19 17 15 22 20 18 228 226 233 19 17
21 19 17 15 22 232 230 228 226 233 231 17 15 22 20 18 16 14 233 231 229 227 234 232 230 228 226 233 231 229 15 22 20 18 16 14 21 19 17 227 234 20 18 16 14 21 19 17 15 234 232 230 16 14 21 19 17 15 22 20 230 228 226 21 19 17 15 22 20 230 228 226 233 231 229 15 22 20 18 16 14 21 231 229 227 234 232 230 228 226 233 231 229 227 22 20 18 16 14 21 19 17 15 234 232 18 16 14 21 19 17 15 22 232 230 228 14 21 19 17 15 22 20 18 228 226 233 19 17 15 22 20 18 228 226 233 231 229 227 22 20 18 16 14 21 19 229 227 234 232 230 228 226 233 231 229 227 234 20 18 16 14 21 19 17 15 22 232 230 16 14 21 19 17 15 22 20 230 228 226 21 19 17 15 22 20 18 16 226 233 231 17 15 22 20 18 16 226 233 231 229 227 234 20 18 16 14 21 19 17 227 234 232 230 228 226 233 231 229 227 234 232 18 16 14 21 19 17 15 22 20 230 228 14 21 19 17 15 22 20 18 228 226 233 19 17 15 22 20 18 16 14 233 231 229 15 22 20 18 16 14 233 231 229 227 234 232 18 16 14 21 19 17 15 234 232 230 228 226 233 231 229 227 234 232 230 16 14 21 19 17 15 22 20 18 228 226 21 19 17 15 22 20 18 16 226 233 231 17 15 22 20 18 16 14 21 231 229 227 22
17 15 22 20 18 16 14 21 19 17 15 22 20 18 16 14 21 19 17 15 22 20 18 16 14 21 19 17 15 22 20 18 16 14 21 19 17 15 22 232 230 16 14 21 19 17 15 22 232 230 228 14 21 19 17 15 22 20 18 16 14 233 231 229 15 22 20 18 16 14 21 19 17 15 22 20 18 16 14 21 19 17 15 22 20 18 16 14 21 19 17 15 22 20 18 16 14 21 19 17 15 22 20 230 228 14 21 19 17 15 22 20 230 228 226 21 19 17 15 22 20 18 16 14 21 231 229 227 22 20 18 16 14 21 19 17 15 22 20 18 16 14 21 19 17 15 22 20 18 16 14 21 19 17 15 22 20 18 16 14 21 19 17 15 22 20 18 228 226 21 19 17 15 22 20 18 228 226 233 19 17 15 22 20 18 16 14 21 19 229 227 234 20 18 16 14 21 19 17 15 22 20 18 16 14 21 19 17 15 22 20 18 16 14 21 19 17 15 22 20 18 16 14 21 19 17 15 22 20 18 16 226 233 19 17 15 22 20 18 16 226 233 231 17 15 22 20 18 16 14 21 19 17 227 234 232 18 16 14 21 19 17 15 22 20 18 16 14 21 19 17 15 22 20 18 16 14 21 19 17 15 22 20 18 16 14 21 19 17 15 22 20 18 16 14 233 231 17 15 22 20 18 16 14 233 231 229 15 22 20 18 16 14 21 19 17 15 234 232 230
22 20 18 16 14 21 19 17 15 22 20 18 16 14 21 19 17 15 22 20 18 16 14 21 19 17 15 22 20 18 16 14 21 19 17 15 22 20 18 228 226 21 19 17 15 22 20 18 228 226 21 19 17 15 22 20 18 16 14 21 19 17 227 234 20 18 16 14 21 19 17 15 22 20 18 16 14 21 19 17 15 22 20 18 16 14 21 19 17 15 22 20 18 16 14 21 19 17 15 22 20 18 16 226 233 19 17 15 22 20 18 16 226 233 19 17 15 22 20 18 16 14 21 19 17 15 234 232 18 16 14 21 19 17 15 22 20 18 16 14 21 19 17 15 22 20 18 16 14 21 19 17 15 22 20 18 16 14 21 19 17 15 22 20 18 16 14 233 231 17 15 22 20 18 16 14 233 231 17 15 22 20 18 16 14 21 19 17 15 22 232 230 16 14 21 19 17 15 22 20 18 16 14 21 19 17 15 22 20 18 16 14 21 19 17 15 22 20 18 16 14 21 19 17 15 22 20 18 16 14 21 231 229 15 22 20 18 16 14 21 231 229 15 22 20 18 16 14 21 19 17 15 22 20 230 228 14 21 19 17 15 22 20 18 16 14 21 19 17 15 22 20 18 16 14 21 19 17 15 22 20 18 16 14 21 19 17 15 22 20 18 16 14 21 19 229 227 22 20 18 16 14 21 19 229 227 22 20 18 16 14 21 19 17 15 22 20 18 228 226
18 16 14 21 19 17 15 22 20 18 16 14 21 19 17 15 22 20 18 16 14 21 19 17 15 22 20 18 16 14 21 19 17 15 22 20 18 16 14 233 231 17 15 22 20 18 16 14 233 231 17 15 22 20 18 16 14 21 19 17 15 22 232 230 16 14 21 19 17 15 22 20 18 16 14 21 19 17 15 22 20 18 16 14 21 19 17 15 22 20 18 16 14 21 19 17 15 22 20 18 16 14 21 231 229 15 22 20 18 16 14 21 231 229 15 22 20 18 16 14 21 19 17 15 22 20 230 228 14 21 19 17 15 22 20 18 16 14 21 19 17 15 22 20 18 16 14 21 19 17 15 22 20 18 16 14 21 19 17 15 22 20 18 16 14 21 19 229 227 22 20 18 16 14 21 19 229 227 22 20 18 16 14 21 19 17 15 22 20 18 228 226 21 19 17 15 22 20 18 16 14 21 19 17 15 22 20 18 16 14 21 19 17 15 22 20 18 16 14 21 19 17 15 22 20 18 16 14 21 19 17 227 234 20 18 16 14 21 19 17 227 234 20 18 16 14 21 19 17 15 22 20 18 16 226 233 19 17 15 22 20 18 16 14 21 19 17 15 22 20 18 16 14 21 19 17 15 22 20 18 16 14 21 19 17 15 22 20 18 16 14 21 19 17 15 234 232 18 16 14 21 19 17 15 234 232 18 16 14 21 19 17 15 22 20 18 16 14 233 231
14 21 19 17 15 22 20 18 16 14 21 19 17 15 22 20 18 16 14 21 19 17 15 22 20 18 16 14 21 19 17 15 22 20 18 16 14 21 19 229 227 22 20 18 16 14 21 19 229 227 234 20 18 16 14 21 19 17 15 22 20 230 228 226 21 19 17 15 22 20 18 16 14 21 19 17 15 22 20 18 16 14 21 19 17 15 22 20 18 16 14 21 19 17 15 22 20 18 16 14 21 19 17 227 234 20 18 16 14 21 19 17 227 234 232 18 16 14 21 19 17 15 22 20 18 228 226 233 19 17 15 22 20 18 16 14 21 19 17 15 22 20 18 16 14 21 19 17 15 22 20 18 16 14 21 19 17 15 22 20 18 16 14 21 19 17 15 234 232 18 16 14 21 19 17 15 234 232 230 16 14 21 19 17 15 22 20 18 16 226 233 231 17 15 22 20 18 16 14 21 19 17 15 22 20 18 16 14 21 19 17 15 22 20 18 16 14 21 19 17 15 22 20 18 16 14 21 19 17 15 22 232 230 16 14 21 19 17 15 22 232 230 228 14 21 19 17 15 22 20 18 16 14 233 231 229 15 22 20 18 16 14 21 19 17 15 22 20 18 16 14 21 19 17 15 22 20 18 16 14 21 19 17 15 22 20 18 16 14 21 19 17 15 22 20 230 228 14 21 19 17 15 22 20 230 228 226 21 19 17 15 22 20 18 16 14 21 231 229 227
19 17 15 22 20 230 228 226 233 231 229 15 22 20 18 16 14 21 231 229 227 234 232 230 228 226 233 231 229 227 22 20 18 16 14 21 19 17 15 234 232 18 16 14 21 19 17 15 22 232 230 228 14 21 19 17 15 22 20 18 228 226 233 19 17 15 22 20 18 228 226 233 231 229 227 22 20 18 16 14 21 19 229 227 234 232 230 228 226 233 231 229 227 234 20 18 16 14 21 19 17 15 22 232 230 16 14 21 19 17 15 22 20 230 228 226 21 19 17 15 22 20 18 16 226 233 231 17 15 22 20 18 16 226 233 231 229 227 234 20 18 16 14 21 19 17 227 234 232 230 228 226 233 231 229 227 234 232 18 16 14 21 19 17 15 22 20 230 228 14 21 19 17 15 22 20 18 228 226 233 19 17 15 22 20 18 16 14 233 231 229 15 22 20 18 16 14 233 231 229 227 234 232 18 16 14 21 19 17 15 234 232 230 228 226 233 231 229 227 234 232 230 16 14 21 19 17 15 22 20 18 228 226 21 19 17 15 22 20 18 16 226 233 231 17 15 22 20 18 16 14 21 231 229 227 22 20 18 16 14 21 231 229 227 234 232 230 16 14 21 19 17 15 22 232 230 228 226 233 231 229 227 234 232 230 228 14 21 19 17 15 22 20 18 16 226 233 19 17 15 22 20 18 16 14 233 231 229 15 22 20 18 16 14 21 19 229 227 234 20
15 22 20 18 228 226 233 231 229 227 234 232 18 16 14 21 19 17 227 22 20 18 16 14 21 19 17 15 22 232 18 16 14 21 19 17 15 22 20 230 228 14 21 19 17 15 22 20 18 16 226 233 231 17 15 22 20 18 16 226 233 231 17 15 22 20 18 16 226 233 231 229 227 234 232 230 16 14 21 19 17 15 234 20 18 16 14 21 19 17 15 22 20 230 16 14 21 19 17 15 22 20 18 228 226 21 19 17 15 22 20 18 16 14 233 231 229 15 22 20 18 16 14 233 231 229 15 22 20 18 16 14 233 231 229 227 234 232 230 228 14 21 19 17 15 22 232 18 16 14 21 19 17 15 22 20 18 228 14 21 19 17 15 22 20 18 16 226 233 19 17 15 22 20 18 16 14 21 231 229 227 22 20 18 16 14 21 231 229 227 22 20 18 16 14 21 231 229 227 234 232 230 228 226 21 19 17 15 22 20 230 16 14 21 19 17 15 22 20 18 16 226 21 19 17 15 22 20 18 16 14 233 231 17 15 22 20 18 16 14 21 19 229 227 234 20 18 16 14 21 19 229 227 234 20 18 16 14 21 19 229 227 234 232 230 228 226 233 19 17 15 22 20 18 228 14 21 19 17 15 22 20 18 16 14 233 19 17 15 22 20 18 16 14 21 231 229 15 22 20 18 16 14 21 19 17 227 234 232 18 16 14 21 19 17 227 234 232 18 16
20 18 16 226 233 19 17 15 22 20 18 228 226 21 19 17 15 22 232 18 16 14 21 19 17 15 22 20 18 228 14 21 19 17 15 22 20 18 16 226 233 19 17 15 22 20 18 16 14 21 19 229 227 234 20 18 16 14 233 231 229 15 22 20 18 16 14 233 231 17 15 22 20 18 16 226 233 19 17 15 22 20 230 16 14 21 19 17 15 22 20 18 16 226 21 19 17 15 22 20 18 16 14 233 231 17 15 22 20 18 16 14 21 19 17 227 234 232 18 16 14 21 231 229 227 22 20 18 16 14 21 231 229 15 22 20 18 16 14 233 231 17 15 22 20 18 228 14 21 19 17 15 22 20 18 16 14 233 19 17 15 22 20 18 16 14 21 231 229 15 22 20 18 16 14 21 19 17 15 234 232 230 16 14 21 19 229 227 234 20 18 16 14 21 19 229 227 22 20 18 16 14 21 231 229 15 22 20 18 16 226 21 19 17 15 22 20 18 16 14 21 231 17 15 22 20 18 16 14 21 19 229 227 22 20 18 16 14 21 19 17 15 22 232 230 228 14 21 19 17 227 234 232 18 16 14 21 19 17 227 234 20 18 16 14 21 19 229 227 22 20 18 16 14 233 19 17 15 22 20 18 16 14 21 19 229 15 22 20 18 16 14 21 19 17 227 234 20 18 16 14 21 19 17 15 22 20 230 228 226 21 19 17 15 234 232 230 16 14 21
16 14 233 231 17 15 22 20 18 16 14 21 231 229 15 22 20 18 228 14 21 19 17 15 22 20 18 16 14 233 19 17 15 22 20 18 16 14 21 231 229 15 22 20 18 16 14 21 19 17 15 22 232 230 228 14 21 231 229 227 22 20 18 16 14 21 231 229 15 22 20 18 16 14 21 19 229 227 22 20 18 16 226 21 19 17 15 22 20 18 16 14 21 231 17 15 22 20 18 16 14 21 19 229 227 22 20 18 16 14 21 19 17 15 22 20 230 228 226 21 19 229 227 234 20 18 16 14 21 19 229 227 22 20 18 16 14 21 19 17 227 234 20 18 16 14 233 19 17 15 22 20 18 16 14 21 19 229 15 22 20 18 16 14 21 19 17 227 234 20 18 16 14 21 19 17 15 22 20 18 228 226 233 19 17 227 234 232 18 16 14 21 19 17 227 234 20 18 16 14 21 19 17 15 234 232 18 16 14 21 231 17 15 22 20 18 16 14 21 19 17 227 22 20 18 16 14 21 19 17 15 234 232 18 16 14 21 19 17 15 22 20 18 16 226 233 231 17 15 234 232 230 16 14 21 19 17 15 234 232 18 16 14 21 19 17 15 22 232 230 16 14 21 19 229 15 22 20 18 16 14 21 19 17 15 234 20 18 16 14 21 19 17 15 22 232 230 16 14 21 19 17 15 22 20 18 16 14 233 231 229 15 22 232 230 228 14 21 19 17
21 19 229 227 22 20 18 16 14 21 19 17 227 234 20 18 16 14 233 19 17 15 22 20 18 16 14 21 19 229 15 22 20 18 16 14 21 19 17 227 234 20 18 16 14 21 19 17 15 22 20 18 16 226 233 231 229 227 234 20 18 16 14 21 19 17 227 234 20 18 16 14 21 19 17 15 234 232 18 16 14 21 231 17 15 22 20 18 16 14 21 19 17 227 22 20 18 16 14 21 19 17 15 234 232 18 16 14 21 19 17 15 22 20 18 16 14 233 231 229 227 234 232 18 16 14 21 19 17 15 234 232 18 16 14 21 19 17 15 22 232 230 16 14 21 19 229 15 22 20 18 16 14 21 19 17 15 234 20 18 16 14 21 19 17 15 22 232 230 16 14 21 19 17 15 22 20 18 16 14 21 231 229 227 234 232 230 16 14 21 19 17 15 22 232 230 16 14 21 19 17 15 22 20 230 228 14 21 19 17 227 22 20 18 16 14 21 19 17 15 22 232 18 16 14 21 19 17 15 22 20 230 228 14 21 19 17 15 22 20 18 16 14 21 19 229 227 234 232 230 228 14 21 19 17 15 22 20 230 228 14 21 19 17 15 22 20 18 228 226 21 19 17 15 234 20 18 16 14 21 19 17 15 22 20 230 16 14 21 19 17 15 22 20 18 228 226 21 19 17 15 22 20 18 16 14 21 19 17 227 234 232 230 228 226 21 19 17 15 22
17 15 234 232 18 16 14 21 19 17 15 22 232 230 16 14 21 19 229 15 22 20 18 16 14 21 19 17 15 234 20 18 228 226 233 231 229 227 234 232 230 228 226 233 231 229 227 234 20 18 16 14 21 19 229 227 234 232 18 16 14 21 19 17 15 22 232 230 16 14 21 19 17 15 22 20 230 228 14 21 19 17 227 22 20 18 16 14 21 19 17 15 22 232 18 16 226 233 231 229 227 234 232 230 228 226 233 231 229 227 234 232 18 16 14 21 19 17 227 234 232 230 16 14 21 19 17 15 22 20 230 228 14 21 19 17 15 22 20 18 228 226 21 19 17 15 234 20 18 16 14 21 19 17 15 22 20 230 16 14 233 231 229 227 234 232 230 228 226 233 231 229 227 234 232 230 16 14 21 19 17 15 234 232 230 228 14 21 19 17 15 22 20 18 228 226 21 19 17 15 22 20 18 16 226 233 19 17 15 22 232 18 16 14 21 19 17 15 22 20 18 228 14 21 231 229 227 234 232 230 228 226 233 231 229 227 234 232 230 228 14 21 19 17 15 22 232 230 228 226 21 19 17 15 22 20 18 16 226 233 19 17 15 22 20 18 16 14 233 231 17 15 22 20 230 16 14 21 19 17 15 22 20 18 16 226 21 19 229 227 234 232 230 228 226 233 231 229 227 234 232 230 228 226 21 19 17 15 22 20 230 228 226 233 19 17 15 22 20 18
22 20 230 228 14 21 19 17 15 22 20 18 228 226 21 19 17 15 234 20 18 16 14 21 19 17 15 22 20 230 16 14 233 231 229 227 234 232 230 228 226 233 231 229 227 234 232 230 16 14 21 19 17 15 234 232 230 228 14 21 19 17 15 22 20 18 228 226 21 19 17 15 22 20 18 16 226 233 19 17 15 22 232 18 16 14 21 19 17 15 22 20 18 228 14 21 231 229 227 234 232 230 228 226 233 231 229 227 234 232 230 228 14 21 19 17 15 22 232 230 228 226 21 19 17 15 22 20 18 16 226 233 19 17 15 22 20 18 16 14 233 231 17 15 22 20 230 16 14 21 19 17 15 22 20 18 16 226 21 19 229 227 234 232 230 228 226 233 231 229 227 234 232 230 228 226 21 19 17 15 22 20 230 228 226 233 19 17 15 22 20 18 16 14 233 231 17 15 22 20 18 16 14 21 231 229 15 22 20 18 228 14 21 19 17 15 22 20 18 16 14 233 19 17 227 234 232 230 228 226 233 231 229 227 234 232 230 228 226 233 19 17 15 22 20 18 228 226 233 231 17 15 22 20 18 16 14 21 231 229 15 22 20 18 16 14 21 19 229 227 22 20 18 16 226 21 19 17 15 22 20 18 16 14 21 231 17 15 234 232 230 228 226 233 231 229 227 234 232 230 228 226 233 231 17 15 22 20 18 16 226 233 231 229 15 22 20 18 16 14
18 16 226 233 19 17 15 22 20 18 16 14 233 231 17 15 22 20 230 16 14 21 19 17 15 22 20 18 16 226 21 19 17 15 22 20 18 16 14 233 231 17 15 22 20 18 16 14 21 19 17 15 22 232 230 228 226 233 231 17 15 22 20 18 16 14 233 231 17 15 22 20 18 16 14 21 231 229 15 22 20 18 228 14 21 19 17 15 22 20 18 16 14 233 19 17 15 22 20 18 16 14 21 231 229 15 22 20 18 16 14 21 19 17 15 22 20 230 228 226 233 231 229 15 22 20 18 16 14 21 231 229 15 22 20 18 16 14 21 19 229 227 22 20 18 16 226 21 19 17 15 22 20 18 16 14 21 231 17 15 22 20 18 16 14 21 19 229 227 22 20 18 16 14 21 19 17 15 22 20 18 228 226 233 231 229 227 22 20 18 16 14 21 19 229 227 22 20 18 16 14 21 19 17 227 234 20 18 16 14 233 19 17 15 22 20 18 16 14 21 19 229 15 22 20 18 16 14 21 19 17 227 234 20 18 16 14 21 19 17 15 22 20 18 16 226 233 231 229 227 234 20 18 16 14 21 19 17 227 234 20 18 16 14 21 19 17 15 234 232 18 16 14 21 231 17 15 22 20 18 16 14 21 19 17 227 22 20 18 16 14 21 19 17 15 234 232 18 16 14 21 19 17 15 22 20 18 16 14 233 231 229 227 234 232 18 16 14 21 19
14 21 231 229 15 22 20 18 16 14 21 19 229 227 22 20 18 16 226 21 19 17 15 22 20 18 16 14 21 231 17 15 22 20 18 16 14 21 19 229 227 22 20 18 16 14 21 19 17 15 22 20 230 228 226 21 19 229 227 234 20 18 16 14 21 19 229 227 22 20 18 16 14 21 19 17 227 234 20 18 16 14 233 19 17 15 22 20 18 16 14 21 19 229 15 22 20 18 16 14 21 19 17 227 234 20 18 16 14 21 19 17 15 22 20 18 228 226 233 19 17 227 234 232 18 16 14 21 19 17 227 234 20 18 16 14 21 19 17 15 234 232 18 16 14 21 231 17 15 22 20 18 16 14 21 19 17 227 22 20 18 16 14 21 19 17 15 234 232 18 16 14 21 19 17 15 22 20 18 16 226 233 231 17 15 234 232 230 16 14 21 19 17 15 234 232 18 16 14 21 19 17 15 22 232 230 16 14 21 19 229 15 22 20 18 16 14 21 19 17 15 234 20 18 16 14 21 19 17 15 22 232 230 16 14 21 19 17 15 22 20 18 16 14 233 231 229 15 22 232 230 228 14 21 19 17 15 22 232 230 16 14 21 19 17 15 22 20 230 228 14 21 19 17 227 22 20 18 16 14 21 19 17 15 22 232 18 16 14 21 19 17 15 22 20 230 228 14 21 19 17 15 22 20 18 16 14 21 231 229 227 22 20 230 228 226 21 19 17 15
19 17 15 234 232 18 16 14 21 19 17 227 234 20 18 16 14 21 231 17 15 22 20 18 16 14 21 19 17 227 22 20 18 16 14 21 19 17 15 234 232 18 16 14 21 19 17 15 22 20 18 228 226 233 19 17 15 22 232 230 228 14 21 19 17 15 22 232 230 16 14 21 19 17 15 234 232 18 16 14 21 19 229 15 22 20 18 16 14 21 19 17 15 234 20 18 16 14 21 19 17 15 22 232 230 16 14 21 19 17 15 22 20 18 16 226 233 231 17 15 22 20 230 228 226 21 19 17 15 22 20 230 228 14 21 19 17 15 22 232 230 16 14 21 19 17 227 22 20 18 16 14 21 19 17 15 22 232 18 16 14 21 19 17 15 22 20 230 228 14 21 19 17 15 22 20 18 16 14 233 231 229 15 22 20 18 228 226 233 19 17 15 22 20 18 228 226 21 19 17 15 22 20 230 228 14 21 19 17 15 234 20 18 16 14 21 19 17 15 22 20 230 16 14 21 19 17 15 22 20 18 228 226 21 19 17 15 22 20 18 16 14 21 231 229 227 22 20 18 16 226 233 231 17 15 22 20 18 16 226 233 19 17 15 22 20 18 228 226 21 19 17 15 22 232 18 16 14 21 19 17 15 22 20 18 228 14 21 19 17 15 22 20 18 16 226 233 19 17 15 22 20 18 16 14 21 19 229 227 234 20 18 16 14 233 231 229 15 22 20
15 22 20 18 228 226 233 231 229 227 234 232 18 16 14 21 19 17 227 22 20 18 16 14 21 19 17 15 22 232 18 16 14 21 19 17 15 22 20 230 228 14 21 19 17 15 22 20 18 16 226 233 231 17 15 22 20 18 16 226 233 231 17 15 22 20 18 16 226 233 231 229 227 234 232 230 16 14 21 19 17 15 234 20 18 16 14 21 19 17 15 22 20 230 16 14 21 19 17 15 22 20 18 228 226 21 19 17 15 22 20 18 16 14 233 231 229 15 22 20 18 16 14 233 231 229 15 22 20 18 16 14 233 231 229 227 234 232 230 228 14 21 19 17 15 22 232 18 16 14 21 19 17 15 22 20 18 228 14 21 19 17 15 22 20 18 16 226 233 19 17 15 22 20 18 16 14 21 231 229 227 22 20 18 16 14 21 231 229 227 22 20 18 16 14 21 231 229 227 234 232 230 228 226 21 19 17 15 22 20 230 16 14 21 19 17 15 22 20 18 16 226 21 19 17 15 22 20 18 16 14 233 231 17 15 22 20 18 16 14 21 19 229 227 234 20 18 16 14 21 19 229 227 234 20 18 16 14 21 19 229 227 234 232 230 228 226 233 19 17 15 22 20 18 228 14 21 19 17 15 22 20 18 16 14 233 19 17 15 22 20 18 16 14 21 231 229 15 22 20 18 16 14 21 19 17 227 234 232 18 16 14 21 19 17 227 234 232 18 16
20 18 16 14 21 231 229 227 234 232 230 16 14 21 19 17 15 22 232 230 228 226 233 231 229 227 234 232 230 228 14 21 19 17 15 22 20 18 16 226 233 19 17 15 22 20 18 16 14 233 231 229 15 22 20 18 16 14 21 19 229 227 234 20 18 16 14 21 19 229 227 234 232 230 228 14 21 19 17 15 22 20 230 228 226 233 231 229 227 234 232 230 228 226 21 19 17 15 22 20 18 16 14 233 231 17 15 22 20 18 16 14 21 231 229 227 22 20 18 16 14 21 19 17 227 234 232 18 16 14 21 19 17 227 234 232 230 228 226 21 19 17 15 22 20 18 228 226 233 231 229 227 234 232 230 228 226 233 19 17 15 22 20 18 16 14 21 231 229 15 22 20 18 16 14 21 19 229 227 234 20 18 16 14 21 19 17 15 234 232 230 16 14 21 19 17 15 234 232 230 228 226 233 19 17 15 22 20 18 16 226 233 231 229 227 234 232 230 228 226 233 231 17 15 22 20 18 16 14 21 19 229 227 22 20 18 16 14 21 19 17 227 234 232 18 16 14 21 19 17 15 22 232 230 228 14 21 19 17 15 22 232 230 228 226 233 231 17 15 22 20 18 16 14 233 231 229 227 234 232 230 228 226 233 231 229 15 22 20 18 16 14 21 19 17 227 234 20 18 16 14 21 19 17 15 234 232 230 16 14 21 19 17 15 22 20 230 228 226 21
16 14 21 19 17 15 22 20 18 16 14 21 19 17 15 22 20 18 16 14 21 19 17 15 22 20 18 16 14 21 19 17 15 22 20 18 16 14 21 231 229 15 22 20 18 16 14 21 231 229 227 22 20 18 16 14 21 19 17 15 22 232 230 228 14 21 19 17 15 22 20 18 16 14 21 19 17 15 22 20 18 16 14 21 19 17 15 22 20 18 16 14 21 19 17 15 22 20 18 16 14 21 19 229 227 22 20 18 16 14 21 19 229 227 234 20 18 16 14 21 19 17 15 22 20 230 228 226 21 19 17 15 22 20 18 16 14 21 19 17 15 22 20 18 16 14 21 19 17 15 22 20 18 16 14 21 19 17 15 22 20 18 16 14 21 19 17 227 234 20 18 16 14 21 19 17 227 234 232 18 16 14 21 19 17 15 22 20 18 228 226 233 19 17 15 22 20 18 16 14 21 19 17 15 22 20 18 16 14 21 19 17 15 22 20 18 16 14 21 19 17 15 22 20 18 16 14 21 19 17 15 234 232 18 16 14 21 19 17 15 234 232 230 16 14 21 19 17 15 22 20 18 16 226 233 231 17 15 22 20 18 16 14 21 19 17 15 22 20 18 16 14 21 19 17 15 22 20 18 16 14 21 19 17 15 22 20 18 16 14 21 19 17 15 22 232 230 16 14 21 19 17 15 22 232 230 228 14 21 19 17 15 22 20 18 16 14 233 231 229
21 19 17 15 22 20 18 16 14 21 19 17 15 22 20 18 16 14 21 19 17 15 22 20 18 16 14 21 19 17 15 22 20 18 16 14 21 19 17 227 234 20 18 16 14 21 19 17 227 234 20 18 16 14 21 19 17 15 22 20 18 16 226 233 19 17 15 22 20 18 16 14 21 19 17 15 22 20 18 16 14 21 19 17 15 22 20 18 16 14 21 19 17 15 22 20 18 16 14 21 19 17 15 234 232 18 16 14 21 19 17 15 234 232 18 16 14 21 19 17 15 22 20 18 16 14 233 231 17 15 22 20 18 16 14 21 19 17 15 22 20 18 16 14 21 19 17 15 22 20 18 16 14 21 19 17 15 22 20 18 16 14 21 19 17 15 22 232 230 16 14 21 19 17 15 22 232 230 16 14 21 19 17 15 22 20 18 16 14 21 231 229 15 22 20 18 16 14 21 19 17 15 22 20 18 16 14 21 19 17 15 22 20 18 16 14 21 19 17 15 22 20 18 16 14 21 19 17 15 22 20 230 228 14 21 19 17 15 22 20 230 228 14 21 19 17 15 22 20 18 16 14 21 19 229 227 22 20 18 16 14 21 19 17 15 22 20 18 16 14 21 19 17 15 22 20 18 16 14 21 19 17 15 22 20 18 16 14 21 19 17 15 22 20 18 228 226 21 19 17 15 22 20 18 228 226 21 19 17 15 22 20 18 16 14 21 19 17 227 234
17 15 22 20 18 16 14 21 19 17 15 22 20 18 16 14 21 19 17 15 22 20 18 16 14 21 19 17 15 22 20 18 16 14 21 19 17 15 22 232 230 16 14 21 19 17 15 22 232 230 16 14 21 19 17 15 22 20 18 16 14 21 231 229 15 22 20 18 16 14 21 19 17 15 22 20 18 16 14 21 19 17 15 22 20 18 16 14 21 19 17 15 22 20 18 16 14 21 19 17 15 22 20 230 228 14 21 19 17 15 22 20 230 228 14 21 19 17 15 22 20 18 16 14 21 19 229 227 22 20 18 16 14 21 19 17 15 22 20 18 16 14 21 19 17 15 22 20 18 16 14 21 19 17 15 22 20 18 16 14 21 19 17 15 22 20 18 228 226 21 19 17 15 22 20 18 228 226 21 19 17 15 22 20 18 16 14 21 19 17 227 234 20 18 16 14 21 19 17 15 22 20 18 16 14 21 19 17 15 22 20 18 16 14 21 19 17 15 22 20 18 16 14 21 19 17 15 22 20 18 16 226 233 19 17 15 22 20 18 16 226 233 19 17 15 22 20 18 16 14 21 19 17 15 234 232 18 16 14 21 19 17 15 22 20 18 16 14 21 19 17 15 22 20 18 16 14 21 19 17 15 22 20 18 16 14 21 19 17 15 22 20 18 16 14 233 231 17 15 22 20 18 16 14 233 231 17 15 22 20 18 16 14 21 19 17 15 22 232 230
22 20 18 16 14 21 19 17 15 22 20 18 16 14 21 19 17 15 22 20 18 16 14 21 19 17 15 22 20 18 16 14 21 19 17 15 22 20 18 228 226 21 19 17 15 22 20 18 228 226 233 19 17 15 22 20 18 16 14 21 19 229 227 234 20 18 16 14 21 19 17 15 22 20 18 16 14 21 19 17 15 22 20 18 16 14 21 19 17 15 22 20 18 16 14 21 19 17 15 22 20 18 16 226 233 19 17 15 22 20 18 16 226 233 231 17 15 22 20 18 16 14 21 19 17 227 234 232 18 16 14 21 19 17 15 22 20 18 16 14 21 19 17 15 22 20 18 16 14 21 19 17 15 22 20 18 16 14 21 19 17 15 22 20 18 16 14 233 231 17 15 22 20 18 16 14 233 231 229 15 22 20 18 16 14 21 19 17 15 234 232 230 16 14 21 19 17 15 22 20 18 16 14 21 19 17 15 22 20 18 16 14 21 19 17 15 22 20 18 16 14 21 19 17 15 22 20 18 16 14 21 231 229 15 22 20 18 16 14 21 231 229 227 22 20 18 16 14 21 19 17 15 22 232 230 228 14 21 19 17 15 22 20 18 16 14 21 19 17 15 22 20 18 16 14 21 19 17 15 22 20 18 16 14 21 19 17 15 22 20 18 16 14 21 19 229 227 22 20 18 16 14 21 19 229 227 234 20 18 16 14 21 19 17 15 22 20 230 228 226
18 16 14 21 19 229 227 234 232 230 228 14 21 19 17 15 22 20 230 228 226 233 231 229 227 234 232 230 228 226 21 19 17 15 22 20 18 16 14 233 231 17 15 22 20 18 16 14 21 231 229 227 22 20 18 16 14 21 19 17 227 234 232 18 16 14 21 19 17 227 234 232 230 228 226 21 19 17 15 22 20 18 228 226 233 231 229 227 234 232 230 228 226 233 19 17 15 22 20 18 16 14 21 231 229 15 22 20 18 16 14 21 19 229 227 234 20 18 16 14 21 19 17 15 234 232 230 16 14 21 19 17 15 234 232 230 228 226 233 19 17 15 22 20 18 16 226 233 231 229 227 234 232 230 228 226 233 231 17 15 22 20 18 16 14 21 19 229 227 22 20 18 16 14 21 19 17 227 234 232 18 16 14 21 19 17 15 22 232 230 228 14 21 19 17 15 22 232 230 228 226 233 231 17 15 22 20 18 16 14 233 231 229 227 234 232 230 228 226 233 231 229 15 22 20 18 16 14 21 19 17 227 234 20 18 16 14 21 19 17 15 234 232 230 16 14 21 19 17 15 22 20 230 228 226 21 19 17 15 22 20 230 228 226 233 231 229 15 22 20 18 16 14 21 231 229 227 234 232 230 228 226 233 231 229 227 22 20 18 16 14 21 19 17 15 234 232 18 16 14 21 19 17 15 22 232 230 228 14 21 19 17 15 22 20 18 228 226 233 19
14 21 19 17 227 234 232 230 228 226 233 231 17 15 22 20 18 16 226 21 19 17 15 22 20 18 16 14 21 231 17 15 22 20 18 16 14 21 19 229 227 22 20 18 16 14 21 19 17 15 234 232 230 16 14 21 19 17 15 234 232 230 16 14 21 19 17 15 234 232 230 228 226 233 231 229 15 22 20 18 16 14 233 19 17 15 22 20 18 16 14 21 19 229 15 22 20 18 16 14 21 19 17 227 234 20 18 16 14 21 19 17 15 22 232 230 228 14 21 19 17 15 22 232 230 228 14 21 19 17 15 22 232 230 228 226 233 231 229 227 22 20 18 16 14 21 231 17 15 22 20 18 16 14 21 19 17 227 22 20 18 16 14 21 19 17 15 234 232 18 16 14 21 19 17 15 22 20 230 228 226 21 19 17 15 22 20 230 228 226 21 19 17 15 22 20 230 228 226 233 231 229 227 234 20 18 16 14 21 19 229 15 22 20 18 16 14 21 19 17 15 234 20 18 16 14 21 19 17 15 22 232 230 16 14 21 19 17 15 22 20 18 228 226 233 19 17 15 22 20 18 228 226 233 19 17 15 22 20 18 228 226 233 231 229 227 234 232 18 16 14 21 19 17 227 22 20 18 16 14 21 19 17 15 22 232 18 16 14 21 19 17 15 22 20 230 228 14 21 19 17 15 22 20 18 16 226 233 231 17 15 22 20 18 16 226 233 231 17 15
19 17 15 234 232 18 16 14 21 19 17 227 234 20 18 16 14 21 231 17 15 22 20 18 16 14 21 19 17 227 22 20 18 16 14 21 19 17 15 234 232 18 16 14 21 19 17 15 22 20 18 228 226 233 19 17 15 22 232 230 228 14 21 19 17 15 22 232 230 16 14 21 19 17 15 234 232 18 16 14 21 19 229 15 22 20 18 16 14 21 19 17 15 234 20 18 16 14 21 19 17 15 22 232 230 16 14 21 19 17 15 22 20 18 16 226 233 231 17 15 22 20 230 228 226 21 19 17 15 22 20 230 228 14 21 19 17 15 22 232 230 16 14 21 19 17 227 22 20 18 16 14 21 19 17 15 22 232 18 16 14 21 19 17 15 22 20 230 228 14 21 19 17 15 22 20 18 16 14 233 231 229 15 22 20 18 228 226 233 19 17 15 22 20 18 228 226 21 19 17 15 22 20 230 228 14 21 19 17 15 234 20 18 16 14 21 19 17 15 22 20 230 16 14 21 19 17 15 22 20 18 228 226 21 19 17 15 22 20 18 16 14 21 231 229 227 22 20 18 16 226 233 231 17 15 22 20 18 16 226 233 19 17 15 22 20 18 228 226 21 19 17 15 22 232 18 16 14 21 19 17 15 22 20 18 228 14 21 19 17 15 22 20 18 16 226 233 19 17 15 22 20 18 16 14 21 19 229 227 234 20 18 16 14 233 231 229 15 22 20
15 22 232 230 16 14 21 19 17 15 22 20 230 228 14 21 19 17 227 22 20 18 16 14 21 19 17 15 22 232 18 16 14 21 19 17 15 22 20 230 228 14 21 19 17 15 22 20 18 16 14 21 231 229 227 22 20 230 228 226 21 19 17 15 22 20 230 228 14 21 19 17 15 22 20 18 228 226 21 19 17 15 234 20 18 16 14 21 19 17 15 22 20 230 16 14 21 19 17 15 22 20 18 228 226 21 19 17 15 22 20 18 16 14 21 19 229 227 234 20 18 228 226 233 19 17 15 22 20 18 228 226 21 19 17 15 22 20 18 16 226 233 19 17 15 22 232 18 16 14 21 19 17 15 22 20 18 228 14 21 19 17 15 22 20 18 16 226 233 19 17 15 22 20 18 16 14 21 19 17 227 234 232 18 16 226 233 231 17 15 22 20 18 16 226 233 19 17 15 22 20 18 16 14 233 231 17 15 22 20 230 16 14 21 19 17 15 22 20 18 16 226 21 19 17 15 22 20 18 16 14 233 231 17 15 22 20 18 16 14 21 19 17 15 234 232 230 16 14 233 231 229 15 22 20 18 16 14 233 231 17 15 22 20 18 16 14 21 231 229 15 22 20 18 228 14 21 19 17 15 22 20 18 16 14 233 19 17 15 22 20 18 16 14 21 231 229 15 22 20 18 16 14 21 19 17 15 22 232 230 228 14 21 231 229 227 22 20 18 16
20 18 228 226 21 19 17 15 22 20 18 16 226 233 19 17 15 22 232 18 16 14 21 19 17 15 22 20 18 228 14 21 19 17 15 22 20 18 16 226 233 19 17 15 22 20 18 16 14 21 19 17 15 234 232 230 228 226 233 19 17 15 22 20 18 16 226 233 19 17 15 22 20 18 16 14 233 231 17 15 22 20 230 16 14 21 19 17 15 22 20 18 16 226 21 19 17 15 22 20 18 16 14 233 231 17 15 22 20 18 16 14 21 19 17 15 22 232 230 228 226 233 231 17 15 22 20 18 16 14 233 231 17 15 22 20 18 16 14 21 231 229 15 22 20 18 228 14 21 19 17 15 22 20 18 16 14 233 19 17 15 22 20 18 16 14 21 231 229 15 22 20 18 16 14 21 19 17 15 22 20 230 228 226 233 231 229 15 22 20 18 16 14 21 231 229 15 22 20 18 16 14 21 19 229 227 22 20 18 16 226 21 19 17 15 22 20 18 16 14 21 231 17 15 22 20 18 16 14 21 19 229 227 22 20 18 16 14 21 19 17 15 22 20 18 228 226 233 231 229 227 22 20 18 16 14 21 19 229 227 22 20 18 16 14 21 19 17 227 234 20 18 16 14 233 19 17 15 22 20 18 16 14 21 19 229 15 22 20 18 16 14 21 19 17 227 234 20 18 16 14 21 19 17 15 22 20 18 16 226 233 231 229 227 234 20 18 16 14 21
16 14 233 231 17 15 22 20 18 16 14 21 231 229 15 22 20 18 228 14 21 19 17 15 22 20 18 16 14 233 19 17 227 234 232 230 228 226 233 231 229 227 234 232 230 228 226 233 19 17 15 22 20 18 228 226 233 231 17 15 22 20 18 16 14 21 231 229 15 22 20 18 16 14 21 19 229 227 22 20 18 16 226 21 19 17 15 22 20 18 16 14 21 231 17 15 234 232 230 228 226 233 231 229 227 234 232 230 228 226 233 231 17 15 22 20 18 16 226 233 231 229 15 22 20 18 16 14 21 19 229 227 22 20 18 16 14 21 19 17 227 234 20 18 16 14 233 19 17 15 22 20 18 16 14 21 19 229 15 22 232 230 228 226 233 231 229 227 234 232 230 228 226 233 231 229 15 22 20 18 16 14 233 231 229 227 22 20 18 16 14 21 19 17 227 234 20 18 16 14 21 19 17 15 234 232 18 16 14 21 231 17 15 22 20 18 16 14 21 19 17 227 22 20 230 228 226 233 231 229 227 234 232 230 228 226 233 231 229 227 22 20 18 16 14 21 231 229 227 234 20 18 16 14 21 19 17 15 234 232 18 16 14 21 19 17 15 22 232 230 16 14 21 19 229 15 22 20 18 16 14 21 19 17 15 234 20 18 228 226 233 231 229 227 234 232 230 228 226 233 231 229 227 234 20 18 16 14 21 19 229 227 234 232 18 16 14 21 19 17
21 19 229 227 22 20 18 16 14 21 19 17 227 234 20 18 16 14 233 19 17 15 22 20 18 16 14 21 19 229 15 22 232 230 228 226 233 231 229 227 234 232 230 228 226 233 231 229 15 22 20 18 16 14 233 231 229 227 22 20 18 16 14 21 19 17 227 234 20 18 16 14 21 19 17 15 234 232 18 16 14 21 231 17 15 22 20 18 16 14 21 19 17 227 22 20 230 228 226 233 231 229 227 234 232 230 228 226 233 231 229 227 22 20 18 16 14 21 231 229 227 234 20 18 16 14 21 19 17 15 234 232 18 16 14 21 19 17 15 22 232 230 16 14 21 19 229 15 22 20 18 16 14 21 19 17 15 234 20 18 228 226 233 231 229 227 234 232 230 228 226 233 231 229 227 234 20 18 16 14 21 19 229 227 234 232 18 16 14 21 19 17 15 22 232 230 16 14 21 19 17 15 22 20 230 228 14 21 19 17 227 22 20 18 16 14 21 19 17 15 22 232 18 16 226 233 231 229 227 234 232 230 228 226 233 231 229 227 234 232 18 16 14 21 19 17 227 234 232 230 16 14 21 19 17 15 22 20 230 228 14 21 19 17 15 22 20 18 228 226 21 19 17 15 234 20 18 16 14 21 19 17 15 22 20 230 16 14 233 231 229 227 234 232 230 228 226 233 231 229 227 234 232 230 16 14 21 19 17 15 234 232 230 228 14 21 19 17 15 22
17 15 234 232 18 16 14 21 19 17 15 22 232 230 16 14 21 19 229 15 22 20 18 16 14 21 19 17 15 234 20 18 16 14 21 19 17 15 22 232 230 16 14 21 19 17 15 22 20 18 16 14 21 231 229 227 234 232 230 16 14 21 19 17 15 22 232 230 16 14 21 19 17 15 22 20 230 228 14 21 19 17 227 22 20 18 16 14 21 19 17 15 22 232 18 16 14 21 19 17 15 22 20 230 228 14 21 19 17 15 22 20 18 16 14 21 19 229 227 234 232 230 228 14 21 19 17 15 22 20 230 228 14 21 19 17 15 22 20 18 228 226 21 19 17 15 234 20 18 16 14 21 19 17 15 22 20 230 16 14 21 19 17 15 22 20 18 228 226 21 19 17 15 22 20 18 16 14 21 19 17 227 234 232 230 228 226 21 19 17 15 22 20 18 228 226 21 19 17 15 22 20 18 16 226 233 19 17 15 22 232 18 16 14 21 19 17 15 22 20 18 228 14 21 19 17 15 22 20 18 16 226 233 19 17 15 22 20 18 16 14 21 19 17 15 234 232 230 228 226 233 19 17 15 22 20 18 16 226 233 19 17 15 22 20 18 16 14 233 231 17 15 22 20 230 16 14 21 19 17 15 22 20 18 16 226 21 19 17 15 22 20 18 16 14 233 231 17 15 22 20 18 16 14 21 19 17 15 22 232 230 228 226 233 231 17 15 22 20 18
22 20 230 228 14 21 19 17 15 22 20 18 228 226 21 19 17 15 234 20 18 16 14 21 19 17 15 22 20 230 16 14 21 19 17 15 22 20 18 228 226 21 19 17 15 22 20 18 16 14 21 19 229 227 234 20 18 228 226 233 19 17 15 22 20 18 228 226 21 19 17 15 22 20 18 16 226 233 19 17 15 22 232 18 16 14 21 19 17 15 22 20 18 228 14 21 19 17 15 22 20 18 16 226 233 19 17 15 22 20 18 16 14 21 19 17 227 234 232 18 16 226 233 231 17 15 22 20 18 16 226 233 19 17 15 22 20 18 16 14 233 231 17 15 22 20 230 16 14 21 19 17 15 22 20 18 16 226 21 19 17 15 22 20 18 16 14 233 231 17 15 22 20 18 16 14 21 19 17 15 234 232 230 16 14 233 231 229 15 22 20 18 16 14 233 231 17 15 22 20 18 16 14 21 231 229 15 22 20 18 228 14 21 19 17 15 22 20 18 16 14 233 19 17 15 22 20 18 16 14 21 231 229 15 22 20 18 16 14 21 19 17 15 22 232 230 228 14 21 231 229 227 22 20 18 16 14 21 231 229 15 22 20 18 16 14 21 19 229 227 22 20 18 16 226 21 19 17 15 22 20 18 16 14 21 231 17 15 22 20 18 16 14 21 19 229 227 22 20 18 16 14 21 19 17 15 22 20 230 228 226 21 19 229 227 234 20 18 16 14
18 16 14 233 231 17 15 22 20 18 16 226 233 19 17 15 22 20 230 16 14 21 19 17 15 22 20 18 16 226 21 19 17 15 22 20 18 16 14 233 231 17 15 22 20 18 16 14 21 19 17 227 234 232 18 16 14 21 231 229 227 22 20 18 16 14 21 231 229 15 22 20 18 16 14 233 231 17 15 22 20 18 228 14 21 19 17 15 22 20 18 16 14 233 19 17 15 22 20 18 16 14 21 231 229 15 22 20 18 16 14 21 19 17 15 234 232 230 16 14 21 19 229 227 234 20 18 16 14 21 19 229 227 22 20 18 16 14 21 231 229 15 22 20 18 16 226 21 19 17 15 22 20 18 16 14 21 231 17 15 22 20 18 16 14 21 19 229 227 22 20 18 16 14 21 19 17 15 22 232 230 228 14 21 19 17 227 234 232 18 16 14 21 19 17 227 234 20 18 16 14 21 19 229 227 22 20 18 16 14 233 19 17 15 22 20 18 16 14 21 19 229 15 22 20 18 16 14 21 19 17 227 234 20 18 16 14 21 19 17 15 22 20 230 228 226 21 19 17 15 234 232 230 16 14 21 19 17 15 234 232 18 16 14 21 19 17 227 234 20 18 16 14 21 231 17 15 22 20 18 16 14 21 19 17 227 22 20 18 16 14 21 19 17 15 234 232 18 16 14 21 19 17 15 22 20 18 228 226 233 19 17 15 22 232 230 228 14 21 19
14 21 19 17 227 234 232 230 228 226 233 231 17 15 22 20 18 16 226 21 19 17 15 22 20 18 16 14 21 231 17 15 22 20 18 16 14 21 19 229 227 22 20 18 16 14 21 19 17 15 234 232 230 16 14 21 19 17 15 234 232 230 16 14 21 19 17 15 234 232 230 228 226 233 231 229 15 22 20 18 16 14 233 19 17 15 22 20 18 16 14 21 19 229 15 22 20 18 16 14 21 19 17 227 234 20 18 16 14 21 19 17 15 22 232 230 228 14 21 19 17 15 22 232 230 228 14 21 19 17 15 22 232 230 228 226 233 231 229 227 22 20 18 16 14 21 231 17 15 22 20 18 16 14 21 19 17 227 22 20 18 16 14 21 19 17 15 234 232 18 16 14 21 19 17 15 22 20 230 228 226 21 19 17 15 22 20 230 228 226 21 19 17 15 22 20 230 228 226 233 231 229 227 234 20 18 16 14 21 19 229 15 22 20 18 16 14 21 19 17 15 234 20 18 16 14 21 19 17 15 22 232 230 16 14 21 19 17 15 22 20 18 228 226 233 19 17 15 22 20 18 228 226 233 19 17 15 22 20 18 228 226 233 231 229 227 234 232 18 16 14 21 19 17 227 22 20 18 16 14 21 19 17 15 22 232 18 16 14 21 19 17 15 22 20 230 228 14 21 19 17 15 22 20 18 16 226 233 231 17 15 22 20 18 16 226 233 231 17 15
19 17 15 22 20 230 228 226 233 231 229 15 22 20 18 16 14 21 231 229 227 234 232 230 228 226 233 231 229 227 22 20 18 16 14 21 19 17 15 234 232 18 16 14 21 19 17 15 22 232 230 228 14 21 19 17 15 22 20 18 228 226 233 19 17 15 22 20 18 228 226 233 231 229 227 22 20 18 16 14 21 19 229 227 234 232 230 228 226 233 231 229 227 234 20 18 16 14 21 19 17 15 22 232 230 16 14 21 19 17 15 22 20 230 228 226 21 19 17 15 22 20 18 16 226 233 231 17 15 22 20 18 16 226 233 231 229 227 234 20 18 16 14 21 19 17 227 234 232 230 228 226 233 231 229 227 234 232 18 16 14 21 19 17 15 22 20 230 228 14 21 19 17 15 22 20 18 228 226 233 19 17 15 22 20 18 16 14 233 231 229 15 22 20 18 16 14 233 231 229 227 234 232 18 16 14 21 19 17 15 234 232 230 228 226 233 231 229 227 234 232 230 16 14 21 19 17 15 22 20 18 228 226 21 19 17 15 22 20 18 16 226 233 231 17 15 22 20 18 16 14 21 231 229 227 22 20 18 16 14 21 231 229 227 234 232 230 16 14 21 19 17 15 22 232 230 228 226 233 231 229 227 234 232 230 228 14 21 19 17 15 22 20 18 16 226 233 19 17 15 22 20 18 16 14 233 231 229 15 22 20 18 16 14 21 19 229 227 234 20
15 22 20 18 16 14 21 19 17 15 22 20 18 16 14 21 19 17 15 22 20 18 16 14 21 19 17 15 22 20 18 16 14 21 19 17 15 22 20 230 228 14 21 19 17 15 22 20 230 228 226 21 19 17 15 22 20 18 16 14 21 231 229 227 22 20 18 16 14 21 19 17 15 22 20 18 16 14 21 19 17 15 22 20 18 16 14 21 19 17 15 22 20 18 16 14 21 19 17 15 22 20 18 228 226 21 19 17 15 22 20 18 228 226 233 19 17 15 22 20 18 16 14 21 19 229 227 234 20 18 16 14 21 19 17 15 22 20 18 16 14 21 19 17 15 22 20 18 16 14 21 19 17 15 22 20 18 16 14 21 19 17 15 22 20 18 16 226 233 19 17 15 22 20 18 16 226 233 231 17 15 22 20 18 16 14 21 19 17 227 234 232 18 16 14 21 19 17 15 22 20 18 16 14 21 19 17 15 22 20 18 16 14 21 19 17 15 22 20 18 16 14 21 19 17 15 22 20 18 16 14 233 231 17 15 22 20 18 16 14 233 231 229 15 22 20 18 16 14 21 19 17 15 234 232 230 16 14 21 19 17 15 22 20 18 16 14 21 19 17 15 22 20 18 16 14 21 19 17 15 22 20 18 16 14 21 19 17 15 22 20 18 16 14 21 231 229 15 22 20 18 16 14 21 231 229 227 22 20 18 16 14 21 19 17 15 22 232 230 228
20 18 16 14 21 19 17 15 22 20 18 16 14 21 19 17 15 22 20 18 16 14 21 19 17 15 22 20 18 16 14 21 19 17 15 22 20 18 16 226 233 19 17 15 22 20 18 16 226 233 19 17 15 22 20 18 16 14 21 19 17 15 234 232 18 16 14 21 19 17 15 22 20 18 16 14 21 19 17 15 22 20 18 16 14 21 19 17 15 22 20 18 16 14 21 19 17 15 22 20 18 16 14 233 231 17 15 22 20 18 16 14 233 231 17 15 22 20 18 16 14 21 19 17 15 22 232 230 16 14 21 19 17 15 22 20 18 16 14 21 19 17 15 22 20 18 16 14 21 19 17 15 22 20 18 16 14 21 19 17 15 22 20 18 16 14 21 231 229 15 22 20 18 16 14 21 231 229 15 22 20 18 16 14 21 19 17 15 22 20 230 228 14 21 19 17 15 22 20 18 16 14 21 19 17 15 22 20 18 16 14 21 19 17 15 22 20 18 16 14 21 19 17 15 22 20 18 16 14 21 19 229 227 22 20 18 16 14 21 19 229 227 22 20 18 16 14 21 19 17 15 22 20 18 228 226 21 19 17 15 22 20 18 16 14 21 19 17 15 22 20 18 16 14 21 19 17 15 22 20 18 16 14 21 19 17 15 22 20 18 16 14 21 19 17 227 234 20 18 16 14 21 19 17 227 234 20 18 16 14 21 19 17 15 22 20 18 16 226 233
16 14 21 19 17 15 22 20 18 16 14 21 19 17 15 22 20 18 16 14 21 19 17 15 22 20 18 16 14 21 19 17 15 22 20 18 16 14 21 231 229 15 22 20 18 16 14 21 231 229 15 22 20 18 16 14 21 19 17 15 22 20 230 228 14 21 19 17 15 22 20 18 16 14 21 19 17 15 22 20 18 16 14 21 19 17 15 22 20 18 16 14 21 19 17 15 22 20 18 16 14 21 19 229 227 22 20 18 16 14 21 19 229 227 22 20 18 16 14 21 19 17 15 22 20 18 228 226 21 19 17 15 22 20 18 16 14 21 19 17 15 22 20 18 16 14 21 19 17 15 22 20 18 16 14 21 19 17 15 22 20 18 16 14 21 19 17 227 234 20 18 16 14 21 19 17 227 234 20 18 16 14 21 19 17 15 22 20 18 16 226 233 19 17 15 22 20 18 16 14 21 19 17 15 22 20 18 16 14 21 19 17 15 22 20 18 16 14 21 19 17 15 22 20 18 16 14 21 19 17 15 234 232 18 16 14 21 19 17 15 234 232 18 16 14 21 19 17 15 22 20 18 16 14 233 231 17 15 22 20 18 16 14 21 19 17 15 22 20 18 16 14 21 19 17 15 22 20 18 16 14 21 19 17 15 22 20 18 16 14 21 19 17 15 22 232 230 16 14 21 19 17 15 22 232 230 16 14 21 19 17 15 22 20 18 16 14 21 231 229
21 19 17 15 22 20 18 16 14 21 19 17 15 22 20 18 16 14 21 19 17 15 22 20 18 16 14 21 19 17 15 22 20 18 16 14 21 19 17 227 234 20 18 16 14 21 19 17 227 234 232 18 16 14 21 19 17 15 22 20 18 228 226 233 19 17 15 22 20 18 16 14 21 19 17 15 22 20 18 16 14 21 19 17 15 22 20 18 16 14 21 19 17 15 22 20 18 16 14 21 19 17 15 234 232 18 16 14 21 19 17 15 234 232 230 16 14 21 19 17 15 22 20 18 16 226 233 231 17 15 22 20 18 16 14 21 19 17 15 22 20 18 16 14 21 19 17 15 22 20 18 16 14 21 19 17 15 22 20 18 16 14 21 19 17 15 22 232 230 16 14 21 19 17 15 22 232 230 228 14 21 19 17 15 22 20 18 16 14 233 231 229 15 22 20 18 16 14 21 19 17 15 22 20 18 16 14 21 19 17 15 22 20 18 16 14 21 19 17 15 22 20 18 16 14 21 19 17 15 22 20 230 228 14 21 19 17 15 22 20 230 228 226 21 19 17 15 22 20 18 16 14 21 231 229 227 22 20 18 16 14 21 19 17 15 22 20 18 16 14 21 19 17 15 22 20 18 16 14 21 19 17 15 22 20 18 16 14 21 19 17 15 22 20 18 228 226 21 19 17 15 22 20 18 228 226 233 19 17 15 22 20 18 16 14 21 19 229 227 234
17 15 22 20 18 228 226 233 231 229 227 22 20 18 16 14 21 19 229 227 234 232 230 228 226 233 231 229 227 234 20 18 16 14 21 19 17 15 22 232 230 16 14 21 19 17 15 22 20 230 228 226 21 19 17 15 22 20 18 16 226 233 231 17 15 22 20 18 16 226 233 231 229 227 234 20 18 16 14 21 19 17 227 234 232 230 228 226 233 231 229 227 234 232 18 16 14 21 19 17 15 22 20 230 228 14 21 19 17 15 22 20 18 228 226 233 19 17 15 22 20 18 16 14 233 231 229 15 22 20 18 16 14 233 231 229 227 234 232 18 16 14 21 19 17 15 234 232 230 228 226 233 231 229 227 234 232 230 16 14 21 19 17 15 22 20 18 228 226 21 19 17 15 22 20 18 16 226 233 231 17 15 22 20 18 16 14 21 231 229 227 22 20 18 16 14 21 231 229 227 234 232 230 16 14 21 19 17 15 22 232 230 228 226 233 231 229 227 234 232 230 228 14 21 19 17 15 22 20 18 16 226 233 19 17 15 22 20 18 16 14 233 231 229 15 22 20 18 16 14 21 19 229 227 234 20 18 16 14 21 19 229 227 234 232 230 228 14 21 19 17 15 22 20 230 228 226 233 231 229 227 234 232 230 228 226 21 19 17 15 22 20 18 16 14 233 231 17 15 22 20 18 16 14 21 231 229 227 22 20 18 16 14 21 19 17 227 234 232 18
22 20 18 16 226 233 231 229 227 234 232 230 16 14 21 19 17 15 234 20 18 16 14 21 19 17 15 22 20 230 16 14 21 19 17 15 22 20 18 228 226 21 19 17 15 22 20 18 16 14 233 231 229 15 22 20 18 16 14 233 231 229 15 22 20 18 16 14 233 231 229 227 234 232 230 228 14 21 19 17 15 22 232 18 16 14 21 19 17 15 22 20 18 228 14 21 19 17 15 22 20 18 16 226 233 19 17 15 22 20 18 16 14 21 231 229 227 22 20 18 16 14 21 231 229 227 22 20 18 16 14 21 231 229 227 234 232 230 228 226 21 19 17 15 22 20 230 16 14 21 19 17 15 22 20 18 16 226 21 19 17 15 22 20 18 16 14 233 231 17 15 22 20 18 16 14 21 19 229 227 234 20 18 16 14 21 19 229 227 234 20 18 16 14 21 19 229 227 234 232 230 228 226 233 19 17 15 22 20 18 228 14 21 19 17 15 22 20 18 16 14 233 19 17 15 22 20 18 16 14 21 231 229 15 22 20 18 16 14 21 19 17 227 234 232 18 16 14 21 19 17 227 234 232 18 16 14 21 19 17 227 234 232 230 228 226 233 231 17 15 22 20 18 16 226 21 19 17 15 22 20 18 16 14 21 231 17 15 22 20 18 16 14 21 19 229 227 22 20 18 16 14 21 19 17 15 234 232 230 16 14 21 19 17 15 234 232 230 16 14
18 16 14 233 231 17 15 22 20 18 16 226 233 19 17 15 22 20 230 16 14 21 19 17 15 22 20 18 16 226 21 19 17 15 22 20 18 16 14 233 231 17 15 22 20 18 16 14 21 19 17 227 234 232 18 16 14 21 231 229 227 22 20 18 16 14 21 231 229 15 22 20 18 16 14 233 231 17 15 22 20 18 228 14 21 19 17 15 22 20 18 16 14 233 19 17 15 22 20 18 16 14 21 231 229 15 22 20 18 16 14 21 19 17 15 234 232 230 16 14 21 19 229 227 234 20 18 16 14 21 19 229 227 22 20 18 16 14 21 231 229 15 22 20 18 16 226 21 19 17 15 22 20 18 16 14 21 231 17 15 22 20 18 16 14 21 19 229 227 22 20 18 16 14 21 19 17 15 22 232 230 228 14 21 19 17 227 234 232 18 16 14 21 19 17 227 234 20 18 16 14 21 19 229 227 22 20 18 16 14 233 19 17 15 22 20 18 16 14 21 19 229 15 22 20 18 16 14 21 19 17 227 234 20 18 16 14 21 19 17 15 22 20 230 228 226 21 19 17 15 234 232 230 16 14 21 19 17 15 234 232 18 16 14 21 19 17 227 234 20 18 16 14 21 231 17 15 22 20 18 16 14 21 19 17 227 22 20 18 16 14 21 19 17 15 234 232 18 16 14 21 19 17 15 22 20 18 228 226 233 19 17 15 22 232 230 228 14 21 19
14 21 231 229 15 22 20 18 16 14 21 19 229 227 22 20 18 16 226 21 19 17 15 22 20 18 16 14 21 231 17 15 22 20 18 16 14 21 19 229 227 22 20 18 16 14 21 19 17 15 22 20 230 228 226 21 19 229 227 234 20 18 16 14 21 19 229 227 22 20 18 16 14 21 19 17 227 234 20 18 16 14 233 19 17 15 22 20 18 16 14 21 19 229 15 22 20 18 16 14 21 19 17 227 234 20 18 16 14 21 19 17 15 22 20 18 228 226 233 19 17 227 234 232 18 16 14 21 19 17 227 234 20 18 16 14 21 19 17 15 234 232 18 16 14 21 231 17 15 22 20 18 16 14 21 19 17 227 22 20 18 16 14 21 19 17 15 234 232 18 16 14 21 19 17 15 22 20 18 16 226 233 231 17 15 234 232 230 16 14 21 19 17 15 234 232 18 16 14 21 19 17 15 22 232 230 16 14 21 19 229 15 22 20 18 16 14 21 19 17 15 234 20 18 16 14 21 19 17 15 22 232 230 16 14 21 19 17 15 22 20 18 16 14 233 231 229 15 22 232 230 228 14 21 19 17 15 22 232 230 16 14 21 19 17 15 22 20 230 228 14 21 19 17 227 22 20 18 16 14 21 19 17 15 22 232 18 16 14 21 19 17 15 22 20 230 228 14 21 19 17 15 22 20 18 16 14 21 231 229 227 22 20 230 228 226 21 19 17 15
19 17 227 234 20 18 16 14 21 19 17 15 234 232 18 16 14 21 231 17 15 22 20 18 16 14 21 19 17 227 22 20 18 16 14 21 19 17 15 234 232 18 16 14 21 19 17 15 22 20 18 16 14 233 231 229 227 234 232 18 16 14 21 19 17 15 234 232 18 16 14 21 19 17 15 22 232 230 16 14 21 19 229 15 22 20 18 16 14 21 19 17 15 234 20 18 16 14 21 19 17 15 22 232 230 16 14 21 19 17 15 22 20 18 16 14 21 231 229 227 234 232 230 16 14 21 19 17 15 22 232 230 16 14 21 19 17 15 22 20 230 228 14 21 19 17 227 22 20 18 16 14 21 19 17 15 22 232 18 16 14 21 19 17 15 22 20 230 228 14 21 19 17 15 22 20 18 16 14 21 19 229 227 234 232 230 228 14 21 19 17 15 22 20 230 228 14 21 19 17 15 22 20 18 228 226 21 19 17 15 234 20 18 16 14 21 19 17 15 22 20 230 16 14 21 19 17 15 22 20 18 228 226 21 19 17 15 22 20 18 16 14 21 19 17 227 234 232 230 228 226 21 19 17 15 22 20 18 228 226 21 19 17 15 22 20 18 16 226 233 19 17 15 22 232 18 16 14 21 19 17 15 22 20 18 228 14 21 19 17 15 22 20 18 16 226 233 19 17 15 22 20 18 16 14 21 19 17 15 234 232 230 228 226 233 19 17 15 22 20
15 22 232 230 16 14 21 19 17 15 22 20 230 228 14 21 19 17 227 22 20 18 16 14 21 19 17 15 22 232 18 16 226 233 231 229 227 234 232 230 228 226 233 231 229 227 234 232 18 16 14 21 19 17 227 234 232 230 16 14 21 19 17 15 22 20 230 228 14 21 19 17 15 22 20 18 228 226 21 19 17 15 234 20 18 16 14 21 19 17 15 22 20 230 16 14 233 231 229 227 234 232 230 228 226 233 231 229 227 234 232 230 16 14 21 19 17 15 234 232 230 228 14 21 19 17 15 22 20 18 228 226 21 19 17 15 22 20 18 16 226 233 19 17 15 22 232 18 16 14 21 19 17 15 22 20 18 228 14 21 231 229 227 234 232 230 228 226 233 231 229 227 234 232 230 228 14 21 19 17 15 22 232 230 228 226 21 19 17 15 22 20 18 16 226 233 19 17 15 22 20 18 16 14 233 231 17 15 22 20 230 16 14 21 19 17 15 22 20 18 16 226 21 19 229 227 234 232 230 228 226 233 231 229 227 234 232 230 228 226 21 19 17 15 22 20 230 228 226 233 19 17 15 22 20 18 16 14 233 231 17 15 22 20 18 16 14 21 231 229 15 22 20 18 228 14 21 19 17 15 22 20 18 16 14 233 19 17 227 234 232 230 228 226 233 231 229 227 234 232 230 228 226 233 19 17 15 22 20 18 228 226 233 231 17 15 22 20 18 16
20 18 228 226 21 19 17 15 22 20 18 16 226 233 19 17 15 22 232 18 16 14 21 19 17 15 22 20 18 228 14 21 231 229 227 234 232 230 228 226 233 231 229 227 234 232 230 228 14 21 19 17 15 22 232 230 228 226 21 19 17 15 22 20 18 16 226 233 19 17 15 22 20 18 16 14 233 231 17 15 22 20 230 16 14 21 19 17 15 22 20 18 16 226 21 19 229 227 234 232 230 228 226 233 231 229 227 234 232 230 228 226 21 19 17 15 22 20 230 228 226 233 19 17 15 22 20 18 16 14 233 231 17 15 22 20 18 16 14 21 231 229 15 22 20 18 228 14 21 19 17 15 22 20 18 16 14 233 19 17 227 234 232 230 228 226 233 231 229 227 234 232 230 228 226 233 19 17 15 22 20 18 228 226 233 231 17 15 22 20 18 16 14 21 231 229 15 22 20 18 16 14 21 19 229 227 22 20 18 16 226 21 19 17 15 22 20 18 16 14 21 231 17 15 234 232 230 228 226 233 231 229 227 234 232 230 228 226 233 231 17 15 22 20 18 16 226 233 231 229 15 22 20 18 16 14 21 19 229 227 22 20 18 16 14 21 19 17 227 234 20 18 16 14 233 19 17 15 22 20 18 16 14 21 19 229 15 22 232 230 228 226 233 231 229 227 234 232 230 228 226 233 231 229 15 22 20 18 16 14 233 231 229 227 22 20 18 16 14 21
16 14 233 231 17 15 22 20 18 16 14 21 231 229 15 22 20 18 228 14 21 19 17 15 22 20 18 16 14 233 19 17 15 22 20 18 16 14 21 231 229 15 22 20 18 16 14 21 19 17 15 22 20 230 228 226 233 231 229 15 22 20 18 16 14 21 231 229 15 22 20 18 16 14 21 19 229 227 22 20 18 16 226 21 19 17 15 22 20 18 16 14 21 231 17 15 22 20 18 16 14 21 19 229 227 22 20 18 16 14 21 19 17 15 22 20 18 228 226 233 231 229 227 22 20 18 16 14 21 19 229 227 22 20 18 16 14 21 19 17 227 234 20 18 16 14 233 19 17 15 22 20 18 16 14 21 19 229 15 22 20 18 16 14 21 19 17 227 234 20 18 16 14 21 19 17 15 22 20 18 16 226 233 231 229 227 234 20 18 16 14 21 19 17 227 234 20 18 16 14 21 19 17 15 234 232 18 16 14 21 231 17 15 22 20 18 16 14 21 19 17 227 22 20 18 16 14 21 19 17 15 234 232 18 16 14 21 19 17 15 22 20 18 16 14 233 231 229 227 234 232 18 16 14 21 19 17 15 234 232 18 16 14 21 19 17 15 22 232 230 16 14 21 19 229 15 22 20 18 16 14 21 19 17 15 234 20 18 16 14 21 19 17 15 22 232 230 16 14 21 19 17 15 22 20 18 16 14 21 231 229 227 234 232 230 16 14 21 19 17
21 19 229 227 22 20 18 16 14 21 19 17 227 234 20 18 16 14 233 19 17 15 22 20 18 16 14 21 19 229 15 22 20 18 16 14 21 19 17 227 234 20 18 16 14 21 19 17 15 22 20 18 228 226 233 19 17 227 234 232 18 16 14 21 19 17 227 234 20 18 16 14 21 19 17 15 234 232 18 16 14 21 231 17 15 22 20 18 16 14 21 19 17 227 22 20 18 16 14 21 19 17 15 234 232 18 16 14 21 19 17 15 22 20 18 16 226 233 231 17 15 234 232 230 16 14 21 19 17 15 234 232 18 16 14 21 19 17 15 22 232 230 16 14 21 19 229 15 22 20 18 16 14 21 19 17 15 234 20 18 16 14 21 19 17 15 22 232 230 16 14 21 19 17 15 22 20 18 16 14 233 231 229 15 22 232 230 228 14 21 19 17 15 22 232 230 16 14 21 19 17 15 22 20 230 228 14 21 19 17 227 22 20 18 16 14 21 19 17 15 22 232 18 16 14 21 19 17 15 22 20 230 228 14 21 19 17 15 22 20 18 16 14 21 231 229 227 22 20 230 228 226 21 19 17 15 22 20 230 228 14 21 19 17 15 22 20 18 228 226 21 19 17 15 234 20 18 16 14 21 19 17 15 22 20 230 16 14 21 19 17 15 22 20 18 228 226 21 19 17 15 22 20 18 16 14 21 19 229 227 234 20 18 228 226 233 19 17 15 22
17 15 22 232 230 16 14 21 19 17 15 234 232 18 16 14 21 19 229 15 22 20 18 16 14 21 19 17 15 234 20 18 16 14 21 19 17 15 22 232 230 16 14 21 19 17 15 22 20 18 16 226 233 231 17 15 22 20 230 228 226 21 19 17 15 22 20 230 228 14 21 19 17 15 22 232 230 16 14 21 19 17 227 22 20 18 16 14 21 19 17 15 22 232 18 16 14 21 19 17 15 22 20 230 228 14 21 19 17 15 22 20 18 16 14 233 231 229 15 22 20 18 228 226 233 19 17 15 22 20 18 228 226 21 19 17 15 22 20 230 228 14 21 19 17 15 234 20 18 16 14 21 19 17 15 22 20 230 16 14 21 19 17 15 22 20 18 228 226 21 19 17 15 22 20 18 16 14 21 231 229 227 22 20 18 16 226 233 231 17 15 22 20 18 16 226 233 19 17 15 22 20 18 228 226 21 19 17 15 22 232 18 16 14 21 19 17 15 22 20 18 228 14 21 19 17 15 22 20 18 16 226 233 19 17 15 22 20 18 16 14 21 19 229 227 234 20 18 16 14 233 231 229 15 22 20 18 16 14 233 231 17 15 22 20 18 16 226 233 19 17 15 22 20 230 16 14 21 19 17 15 22 20 18 16 226 21 19 17 15 22 20 18 16 14 233 231 17 15 22 20 18 16 14 21 19 17 227 234 232 18 16 14 21 231 229 227 22 20 18
22 20 18 16 226 233 231 229 227 234 232 230 16 14 21 19 17 15 234 20 18 16 14 21 19 17 15 22 20 230 16 14 21 19 17 15 22 20 18 228 226 21 19 17 15 22 20 18 16 14 233 231 229 15 22 20 18 16 14 233 231 229 15 22 20 18 16 14 233 231 229 227 234 232 230 228 14 21 19 17 15 22 232 18 16 14 21 19 17 15 22 20 18 228 14 21 19 17 15 22 20 18 16 226 233 19 17 15 22 20 18 16 14 21 231 229 227 22 20 18 16 14 21 231 229 227 22 20 18 16 14 21 231 229 227 234 232 230 228 226 21 19 17 15 22 20 230 16 14 21 19 17 15 22 20 18 16 226 21 19 17 15 22 20 18 16 14 233 231 17 15 22 20 18 16 14 21 19 229 227 234 20 18 16 14 21 19 229 227 234 20 18 16 14 21 19 229 227 234 232 230 228 226 233 19 17 15 22 20 18 228 14 21 19 17 15 22 20 18 16 14 233 19 17 15 22 20 18 16 14 21 231 229 15 22 20 18 16 14 21 19 17 227 234 232 18 16 14 21 19 17 227 234 232 18 16 14 21 19 17 227 234 232 230 228 226 233 231 17 15 22 20 18 16 226 21 19 17 15 22 20 18 16 14 21 231 17 15 22 20 18 16 14 21 19 229 227 22 20 18 16 14 21 19 17 15 234 232 230 16 14 21 19 17 15 234 232 230 16 14
18 16 14 21 19 229 227 234 232 230 228 14 21 19 17 15 22 20 230 228 226 233 231 229 227 234 232 230 228 226 21 19 17 15 22 20 18 16 14 233 231 17 15 22 20 18 16 14 21 231 229 227 22 20 18 16 14 21 19 17 227 234 232 18 16 14 21 19 17 227 234 232 230 228 226 21 19 17 15 22 20 18 228 226 233 231 229 227 234 232 230 228 226 233 19 17 15 22 20 18 16 14 21 231 229 15 22 20 18 16 14 21 19 229 227 234 20 18 16 14 21 19 17 15 234 232 230 16 14 21 19 17 15 234 232 230 228 226 233 19 17 15 22 20 18 16 226 233 231 229 227 234 232 230 228 226 233 231 17 15 22 20 18 16 14 21 19 229 227 22 20 18 16 14 21 19 17 227 234 232 18 16 14 21 19 17 15 22 232 230 228 14 21 19 17 15 22 232 230 228 226 233 231 17 15 22 20 18 16 14 233 231 229 227 234 232 230 228 226 233 231 229 15 22 20 18 16 14 21 19 17 227 234 20 18 16 14 21 19 17 15 234 232 230 16 14 21 19 17 15 22 20 230 228 226 21 19 17 15 22 20 230 228 226 233 231 229 15 22 20 18 16 14 21 231 229 227 234 232 230 228 226 233 231 229 227 22 20 18 16 14 21 19 17 15 234 232 18 16 14 21 19 17 15 22 232 230 228 14 21 19 17 15 22 20 18 228 226 233 19
14 21 19 17 15 22 20 18 16 14 21 19 17 15 22 20 18 16 14 21 19 17 15 22 20 18 16 14 21 19 17 15 22 20 18 16 14 21 19 229 227 22 20 18 16 14 21 19 229 227 234 20 18 16 14 21 19 17 15 22 20 230 228 226 21 19 17 15 22 20 18 16 14 21 19 17 15 22 20 18 16 14 21 19 17 15 22 20 18 16 14 21 19 17 15 22 20 18 16 14 21 19 17 227 234 20 18 16 14 21 19 17 227 234 232 18 16 14 21 19 17 15 22 20 18 228 226 233 19 17 15 22 20 18 16 14 21 19 17 15 22 20 18 16 14 21 19 17 15 22 20 18 16 14 21 19 17 15 22 20 18 16 14 21 19 17 15 234 232 18 16 14 21 19 17 15 234 232 230 16 14 21 19 17 15 22 20 18 16 226 233 231 17 15 22 20 18 16 14 21 19 17 15 22 20 18 16 14 21 19 17 15 22 20 18 16 14 21 19 17 15 22 20 18 16 14 21 19 17 15 22 232 230 16 14 21 19 17 15 22 232 230 228 14 21 19 17 15 22 20 18 16 14 233 231 229 15 22 20 18 16 14 21 19 17 15 22 20 18 16 14 21 19 17 15 22 20 18 16 14 21 19 17 15 22 20 18 16 14 21 19 17 15 22 20 230 228 14 21 19 17 15 22 20 230 228 226 21 19 17 15 22 20 18 16 14 21 231 229 227
19 17 15 22 20 18 16 14 21 19 17 15 22 20 18 16 14 21 19 17 15 22 20 18 16 14 21 19 17 15 22 20 18 16 14 21 19 17 15 234 232 18 16 14 21 19 17 15 234 232 18 16 14 21 19 17 15 22 20 18 16 14 233 231 17 15 22 20 18 16 14 21 19 17 15 22 20 18 16 14 21 19 17 15 22 20 18 16 14 21 19 17 15 22 20 18 16 14 21 19 17 15 22 232 230 16 14 21 19 17 15 22 232 230 16 14 21 19 17 15 22 20 18 16 14 21 231 229 15 22 20 18 16 14 21 19 17 15 22 20 18 16 14 21 19 17 15 22 20 18 16 14 21 19 17 15 22 20 18 16 14 21 19 17 15 22 20 230 228 14 21 19 17 15 22 20 230 228 14 21 19 17 15 22 20 18 16 14 21 19 229 227 22 20 18 16 14 21 19 17 15 22 20 18 16 14 21 19 17 15 22 20 18 16 14 21 19 17 15 22 20 18 16 14 21 19 17 15 22 20 18 228 226 21 19 17 15 22 20 18 228 226 21 19 17 15 22 20 18 16 14 21 19 17 227 234 20 18 16 14 21 19 17 15 22 20 18 16 14 21 19 17 15 22 20 18 16 14 21 19 17 15 22 20 18 16 14 21 19 17 15 22 20 18 16 226 233 19 17 15 22 20 18 16 226 233 19 17 15 22 20 18 16 14 21 19 17 15 234 232
