P3
240 64
255
150 70 60 150 70 60 150 70 60 150 70 60 150 70 60 150 70 60 150 70 60 150 70 60 175 95 85 175 95 85 175 95 85 175 95 85 175 95 85 175 95 85 175 95 85 175 95 85 150 70 60 150 70 60 150 70 60 150 70 60 150 70 60 150 70 60 150 70 60 150 70 60 175 95 85 175 95 85 175 95 85 175 95 85 175 95 85 175 95 85 175 95 85 175 95 85 150 70 60 150 70 60 150 70 60 150 70 60 150 70 60 150 70 60 150 70 60 150 70 60 175 95 85 175 95 85 175 95 85 175 95 85 175 95 85 175 95 85 175 95 85 175 95 85 175 95 85 175 95 85 175 95 85 175 95 85 175 95 85 175 95 85 175 95 85 175 95 85 150 70 60 150 70 60 150 70 60 150 70 60 150 70 60 150 70 60 150 70 60 150 70 60 175 95 85 175 95 85 175 95 85 175 95 85 175 95 85 175 95 85 175 95 85 175 95 85 150 70 60 150 70 60 150 70 60 150 70 60 150 70 60 150 70 60 150 70 60 150 70 60 175 95 85 175 95 85 175 95 85 175 95 85 175 95 85 175 95 85 175 95 85 175 95 85 150 70 60 150 70 60 150 70 60 150 70 60 150 70 60 150 70 60 150 70 60 150 70 60 150 70 60 150 70 60 150 70 60 150 70 60 150 70 60 150 70 60 150 70 60 150 70 60 175 95 85 175 95 85 175 95 85 175 95 85 175 95 85 175 95 85 175 95 85 175 95 85 150 70 60 150 70 60 150 70 60 150 70 60 150 70 60 150 70 60 150 70 60 150 70 60 175 95 85 175 95 85 175 95 85 175 95 85 175 95 85 175 95 85 175 95 85 175 95 85 150 70 60 150 70 60 150 70 60 150 70 60 150 70 60 150 70 60 150 70 60 150 70 60 175 95 85 175 95 85 175 95 85 175 95 85 175 95 85 175 95 85 175 95 85 175 95 85 175 95 85 175 95 85 175 95 85 175 95 85 175 95 85 175 95 85 175 95 85 175 95 85 150 70 60 150 70 60 150 70 60 150 70 60 150 70 60 150 70 60 150 70 60 150 70 60 175 95 85 175 95 85 175 95 85 175 95 85 175 95 85 175 95 85 175 95 85 175 95 85 150 70 60 150 70 60 150 70 60 150 70 60 150 70 60 150 70 60 150 70 60 150 70 60 175 95 85 175 95 85 175 95 85 175 95 85 175 95 85 175 95 85 175 95 85 175 95 85 150 70 60 150 70 60 150 70 60 150 70 60 150 70 60 150 70 60 150 70 60 150 70 60 150 70 60 150 70 60 150 70 60 150 70 60 150 70 60 150 70 60 150 70 60 150 70 60 175 95 85 175 95 85 175 95 85 175 95 85 175 95 85 175 95 85 175 95 85 175 95 85 150 70 60 150 70 60 150 70 60 150 70 60 150 70 60 150 70 60 150 70 60 150 70 60 175 95 85 175 95 85 175 95 85 175 95 85 175 95 85 175 95 85 175 95 85 175 95 85 150 70 60 150 70 60 150 70 60 150 70 60 150 70 60 150 70 60 150 70 60 150 70 60 175 95 85 175 95 85 175 95 85 175 95 85 175 95 85 175 95 85 175 95 85 175 95 85
150 70 60 150 70 60 150 70 60 150 70 60 150 70 60 150 70 60 150 70 60 150 70 60 175 95 85 175 95 85 175 95 85 175 95 85 175 95 85 175 95 85 175 95 85 175 95 85 150 70 60 150 70 60 150 70 60 150 70 60 150 70 60 150 70 60 150 70 60 150 70 60 175 95 85 175 95 85 175 95 85 175 95 85 175 95 85 175 95 85 175 95 85 175 95 85 150 70 60 150 70 60 150 70 60 150 70 60 150 70 60 150 70 60 150 70 60 150 70 60 175 95 85 175 95 85 175 95 85 175 95 85 175 95 85 175 95 85 175 95 85 175 95 85 175 95 85 175 95 85 175 95 85 175 95 85 175 95 85 175 95 85 175 95 85 175 95 85 150 70 60 150 70 60 150 70 60 150 70 60 150 70 60 150 70 60 150 70 60 150 70 60 175 95 85 175 95 85 175 95 85 175 95 85 175 95 85 175 95 85 175 95 85 175 95 85 150 70 60 150 70 60 150 70 60 150 70 60 150 70 60 150 70 60 150 70 60 150 70 60 175 95 85 175 95 85 175 95 85 175 95 85 175 95 85 175 95 85 175 95 85 175 95 85 150 70 60 150 70 60 150 70 60 150 70 60 150 70 60 150 70 60 150 70 60 150 70 60 150 70 60 150 70 60 150 70 60 150 70 60 150 70 60 150 70 60 150 70 60 150 70 60 175 95 85 175 95 85 175 95 85 175 95 85 175 95 85 175 95 85 175 95 85 175 95 85 150 70 60 150 70 60 150 70 60 150 70 60 150 70 60 150 70 60 150 70 60 150 70 60 175 95 85 175 95 85 175 95 85 175 95 85 175 95 85 175 95 85 175 95 85 175 95 85 150 70 60 150 70 60 150 70 60 150 70 60 150 70 60 150 70 60 150 70 60 150 70 60 175 95 85 175 95 85 175 95 85 175 95 85 175 95 85 175 95 85 175 95 85 175 95 85 175 95 85 175 95 85 175 95 85 175 95 85 175 95 85 175 95 85 175 95 85 175 95 85 150 70 60 150 70 60 150 70 60 150 70 60 150 70 60 150 70 60 150 70 60 150 70 60 175 95 85 175 95 85 175 95 85 175 95 85 175 95 85 175 95 85 175 95 85 175 95 85 150 70 60 150 70 60 150 70 60 150 70 60 150 70 60 150 70 60 150 70 60 150 70 60 175 95 85 175 95 85 175 95 85 175 95 85 175 95 85 175 95 85 175 95 85 175 95 85 150 70 60 150 70 60 150 70 60 150 70 60 150 70 60 150 70 60 150 70 60 150 70 60 150 70 60 150 70 60 150 70 60 150 70 60 150 70 60 150 70 60 150 70 60 150 70 60 175 95 85 175 95 85 175 95 85 175 95 85 175 95 85 175 95 85 175 95 85 175 95 85 150 70 60 150 70 60 150 70 60 150 70 60 150 70 60 150 70 60 150 70 60 150 70 60 175 95 85 175 95 85 175 95 85 175 95 85 175 95 85 175 95 85 175 95 85 175 95 85 150 70 60 150 70 60 150 70 60 150 70 60 150 70 60 150 70 60 150 70 60 150 70 60 175 95 85 175 95 85 175 95 85 175 95 85 175 95 85 175 95 85 175 95 85 175 95 85
150 70 60 150 70 60 150 70 60 150 70 60 150 70 60 150 70 60 150 70 60 150 70 60 175 95 85 175 95 85 175 95 85 175 95 85 175 95 85 175 95 85 175 95 85 175 95 85 150 70 60 150 70 60 150 70 60 150 70 60 150 70 60 150 70 60 150 70 60 150 70 60 175 95 85 175 95 85 175 95 85 175 95 85 175 95 85 175 95 85 175 95 85 175 95 85 150 70 60 150 70 60 150 70 60 150 70 60 150 70 60 150 70 60 150 70 60 150 70 60 175 95 85 175 95 85 175 95 85 175 95 85 175 95 85 175 95 85 175 95 85 175 95 85 175 95 85 175 95 85 175 95 85 175 95 85 175 95 85 175 95 85 175 95 85 175 95 85 150 70 60 150 70 60 150 70 60 150 70 60 150 70 60 150 70 60 150 70 60 150 70 60 175 95 85 175 95 85 175 95 85 175 95 85 175 95 85 175 95 85 175 95 85 175 95 85 150 70 60 150 70 60 150 70 60 150 70 60 150 70 60 150 70 60 150 70 60 150 70 60 175 95 85 175 95 85 175 95 85 175 95 85 175 95 85 175 95 85 175 95 85 175 95 85 150 70 60 150 70 60 150 70 60 150 70 60 150 70 60 150 70 60 150 70 60 150 70 60 150 70 60 150 70 60 150 70 60 150 70 60 150 70 60 150 70 60 150 70 60 150 70 60 175 95 85 175 95 85 175 95 85 175 95 85 175 95 85 175 95 85 175 95 85 175 95 85 150 70 60 150 70 60 150 70 60 150 70 60 150 70 60 150 70 60 150 70 60 150 70 60 175 95 85 175 95 85 175 95 85 175 95 85 175 95 85 175 95 85 175 95 85 175 95 85 150 70 60 150 70 60 150 70 60 150 70 60 150 70 60 150 70 60 150 70 60 150 70 60 175 95 85 175 95 85 175 95 85 175 95 85 175 95 85 175 95 85 175 95 85 175 95 85 175 95 85 175 95 85 175 95 85 175 95 85 175 95 85 175 95 85 175 95 85 175 95 85 150 70 60 150 70 60 150 70 60 150 70 60 150 70 60 150 70 60 150 70 60 150 70 60 175 95 85 175 95 85 175 95 85 175 95 85 175 95 85 175 95 85 175 95 85 175 95 85 150 70 60 150 70 60 150 70 60 150 70 60 150 70 60 150 70 60 150 70 60 150 70 60 175 95 85 175 95 85 175 95 85 175 95 85 175 95 85 175 95 85 175 95 85 175 95 85 150 70 60 150 70 60 150 70 60 150 70 60 150 70 60 150 70 60 150 70 60 150 70 60 150 70 60 150 70 60 150 70 60 150 70 60 150 70 60 150 70 60 150 70 60 150 70 60 175 95 85 175 95 85 175 95 85 175 95 85 175 95 85 175 95 85 175 95 85 175 95 85 150 70 60 150 70 60 150 70 60 150 70 60 150 70 60 150 70 60 150 70 60 150 70 60 175 95 85 175 95 85 175 95 85 175 95 85 175 95 85 175 95 85 175 95 85 175 95 85 150 70 60 150 70 60 150 70 60 150 70 60 150 70 60 150 70 60 150 70 60 150 70 60 175 95 85 175 95 85 175 95 85 175 95 85 175 95 85 175 95 85 175 95 85 175 95 85
150 70 60 150 70 60 150 70 60 150 70 60 150 70 60 150 70 60 150 70 60 150 70 60 175 95 85 175 95 85 175 95 85 175 95 85 175 95 85 175 95 85 175 95 85 175 95 85 150 70 60 150 70 60 150 70 60 150 70 60 150 70 60 150 70 60 150 70 60 150 70 60 175 95 85 175 95 85 175 95 85 175 95 85 175 95 85 175 95 85 175 95 85 175 95 85 150 70 60 150 70 60 150 70 60 150 70 60 150 70 60 150 70 60 150 70 60 150 70 60 175 95 85 175 95 85 175 95 85 175 95 85 175 95 85 175 95 85 175 95 85 175 95 85 175 95 85 175 95 85 175 95 85 175 95 85 175 95 85 175 95 85 175 95 85 175 95 85 150 70 60 150 70 60 150 70 60 150 70 60 150 70 60 150 70 60 150 70 60 150 70 60 175 95 85 175 95 85 175 95 85 175 95 85 175 95 85 175 95 85 175 95 85 175 95 85 150 70 60 150 70 60 150 70 60 150 70 60 150 70 60 150 70 60 150 70 60 150 70 60 175 95 85 175 95 85 175 95 85 175 95 85 175 95 85 175 95 85 175 95 85 175 95 85 150 70 60 150 70 60 150 70 60 150 70 60 150 70 60 150 70 60 150 70 60 150 70 60 150 70 60 150 70 60 150 70 60 150 70 60 150 70 60 150 70 60 150 70 60 150 70 60 175 95 85 175 95 85 175 95 85 175 95 85 175 95 85 175 95 85 175 95 85 175 95 85 150 70 60 150 70 60 150 70 60 150 70 60 150 70 60 150 70 60 150 70 60 150 70 60 175 95 85 175 95 85 175 95 85 175 95 85 175 95 85 175 95 85 175 95 85 175 95 85 150 70 60 150 70 60 150 70 60 150 70 60 150 70 60 150 70 60 150 70 60 150 70 60 175 95 85 175 95 85 175 95 85 175 95 85 175 95 85 175 95 85 175 95 85 175 95 85 175 95 85 175 95 85 175 95 85 175 95 85 175 95 85 175 95 85 175 95 85 175 95 85 150 70 60 150 70 60 150 70 60 150 70 60 150 70 60 150 70 60 150 70 60 150 70 60 175 95 85 175 95 85 175 95 85 175 95 85 175 95 85 175 95 85 175 95 85 175 95 85 150 70 60 150 70 60 150 70 60 150 70 60 150 70 60 150 70 60 150 70 60 150 70 60 175 95 85 175 95 85 175 95 85 175 95 85 175 95 85 175 95 85 175 95 85 175 95 85 150 70 60 150 70 60 150 70 60 150 70 60 150 70 60 150 70 60 150 70 60 150 70 60 150 70 60 150 70 60 150 70 60 150 70 60 150 70 60 150 70 60 150 70 60 150 70 60 175 95 85 175 95 85 175 95 85 175 95 85 175 95 85 175 95 85 175 95 85 175 95 85 150 70 60 150 70 60 150 70 60 150 70 60 150 70 60 150 70 60 150 70 60 150 70 60 175 95 85 175 95 85 175 95 85 175 95 85 175 95 85 175 95 85 175 95 85 175 95 85 150 70 60 150 70 60 150 70 60 150 70 60 150 70 60 150 70 60 150 70 60 150 70 60 175 95 85 175 95 85 175 95 85 175 95 85 175 95 85 175 95 85 175 95 85 175 95 85
150 70 60 150 70 60 150 70 60 150 70 60 150 70 60 150 70 60 150 70 60 150 70 60 175 95 85 175 95 85 175 95 85 175 95 85 175 95 85 175 95 85 175 95 85 175 95 85 150 70 60 150 70 60 150 70 60 150 70 60 150 70 60 150 70 60 150 70 60 150 70 60 175 95 85 175 95 85 175 95 85 175 95 85 175 95 85 175 95 85 175 95 85 175 95 85 150 70 60 150 70 60 150 70 60 150 70 60 150 70 60 150 70 60 150 70 60 150 70 60 175 95 85 175 95 85 175 95 85 175 95 85 175 95 85 175 95 85 175 95 85 175 95 85 175 95 85 175 95 85 175 95 85 175 95 85 175 95 85 175 95 85 175 95 85 175 95 85 150 70 60 150 70 60 150 70 60 150 70 60 150 70 60 150 70 60 150 70 60 150 70 60 175 95 85 175 95 85 175 95 85 175 95 85 175 95 85 175 95 85 175 95 85 175 95 85 150 70 60 150 70 60 150 70 60 150 70 60 150 70 60 150 70 60 150 70 60 150 70 60 175 95 85 175 95 85 175 95 85 175 95 85 175 95 85 175 95 85 175 95 85 175 95 85 150 70 60 150 70 60 150 70 60 150 70 60 150 70 60 150 70 60 150 70 60 150 70 60 150 70 60 150 70 60 150 70 60 150 70 60 150 70 60 150 70 60 150 70 60 150 70 60 175 95 85 175 95 85 175 95 85 175 95 85 175 95 85 175 95 85 175 95 85 175 95 85 150 70 60 150 70 60 150 70 60 150 70 60 150 70 60 150 70 60 150 70 60 150 70 60 175 95 85 175 95 85 175 95 85 175 95 85 175 95 85 175 95 85 175 95 85 175 95 85 150 70 60 150 70 60 150 70 60 150 70 60 150 70 60 150 70 60 150 70 60 150 70 60 175 95 85 175 95 85 175 95 85 175 95 85 175 95 85 175 95 85 175 95 85 175 95 85 175 95 85 175 95 85 175 95 85 175 95 85 175 95 85 175 95 85 175 95 85 175 95 85 150 70 60 150 70 60 150 70 60 150 70 60 150 70 60 150 70 60 150 70 60 150 70 60 175 95 85 175 95 85 175 95 85 175 95 85 175 95 85 175 95 85 175 95 85 175 95 85 150 70 60 150 70 60 150 70 60 150 70 60 150 70 60 150 70 60 150 70 60 150 70 60 175 95 85 175 95 85 175 95 85 175 95 85 175 95 85 175 95 85 175 95 85 175 95 85 150 70 60 150 70 60 150 70 60 150 70 60 150 70 60 150 70 60 150 70 60 150 70 60 150 70 60 150 70 60 150 70 60 150 70 60 150 70 60 150 70 60 150 70 60 150 70 60 175 95 85 175 95 85 175 95 85 175 95 85 175 95 85 175 95 85 175 95 85 175 95 85 150 70 60 150 70 60 150 70 60 150 70 60 150 70 60 150 70 60 150 70 60 150 70 60 175 95 85 175 95 85 175 95 85 175 95 85 175 95 85 175 95 85 175 95 85 175 95 85 150 70 60 150 70 60 150 70 60 150 70 60 150 70 60 150 70 60 150 70 60 150 70 60 175 95 85 175 95 85 175 95 85 175 95 85 175 95 85 175 95 85 175 95 85 175 95 85
150 70 60 150 70 60 150 70 60 150 70 60 150 70 60 150 70 60 150 70 60 150 70 60 175 95 85 175 95 85 175 95 85 175 95 85 175 95 85 175 95 85 175 95 85 175 95 85 150 70 60 150 70 60 150 70 60 150 70 60 150 70 60 150 70 60 150 70 60 150 70 60 175 95 85 175 95 85 175 95 85 175 95 85 175 95 85 175 95 85 175 95 85 175 95 85 150 70 60 150 70 60 150 70 60 150 70 60 150 70 60 150 70 60 150 70 60 150 70 60 175 95 85 175 95 85 175 95 85 175 95 85 175 95 85 175 95 85 175 95 85 175 95 85 175 95 85 175 95 85 175 95 85 175 95 85 175 95 85 175 95 85 175 95 85 175 95 85 150 70 60 150 70 60 150 70 60 150 70 60 150 70 60 150 70 60 150 70 60 150 70 60 175 95 85 175 95 85 175 95 85 175 95 85 175 95 85 175 95 85 175 95 85 175 95 85 150 70 60 150 70 60 150 70 60 150 70 60 150 70 60 150 70 60 150 70 60 150 70 60 175 95 85 175 95 85 175 95 85 175 95 85 175 95 85 175 95 85 175 95 85 175 95 85 150 70 60 150 70 60 150 70 60 150 70 60 150 70 60 150 70 60 150 70 60 150 70 60 150 70 60 150 70 60 150 70 60 150 70 60 150 70 60 150 70 60 150 70 60 150 70 60 175 95 85 175 95 85 175 95 85 175 95 85 175 95 85 175 95 85 175 95 85 175 95 85 150 70 60 150 70 60 150 70 60 150 70 60 150 70 60 150 70 60 150 70 60 150 70 60 175 95 85 175 95 85 175 95 85 175 95 85 175 95 85 175 95 85 175 95 85 175 95 85 150 70 60 150 70 60 150 70 60 150 70 60 150 70 60 150 70 60 150 70 60 150 70 60 175 95 85 175 95 85 175 95 85 175 95 85 175 95 85 175 95 85 175 95 85 175 95 85 175 95 85 175 95 85 175 95 85 175 95 85 175 95 85 175 95 85 175 95 85 175 95 85 150 70 60 150 70 60 150 70 60 150 70 60 150 70 60 150 70 60 150 70 60 150 70 60 175 95 85 175 95 85 175 95 85 175 95 85 175 95 85 175 95 85 175 95 85 175 95 85 150 70 60 150 70 60 150 70 60 150 70 60 150 70 60 150 70 60 150 70 60 150 70 60 175 95 85 175 95 85 175 95 85 175 95 85 175 95 85 175 95 85 175 95 85 175 95 85 150 70 60 150 70 60 150 70 60 150 70 60 150 70 60 150 70 60 150 70 60 150 70 60 150 70 60 150 70 60 150 70 60 150 70 60 150 70 60 150 70 60 150 70 60 150 70 60 175 95 85 175 95 85 175 95 85 175 95 85 175 95 85 175 95 85 175 95 85 175 95 85 150 70 60 150 70 60 150 70 60 150 70 60 150 70 60 150 70 60 150 70 60 150 70 60 175 95 85 175 95 85 175 95 85 175 95 85 175 95 85 175 95 85 175 95 85 175 95 85 150 70 60 150 70 60 150 70 60 150 70 60 150 70 60 150 70 60 150 70 60 150 70 60 175 95 85 175 95 85 175 95 85 175 95 85 175 95 85 175 95 85 175 95 85 175 95 85
150 70 60 150 70 60 150 70 60 150 70 60 150 70 60 150 70 60 150 70 60 150 70 60 175 95 85 175 95 85 175 95 85 175 95 85 175 95 85 175 95 85 175 95 85 175 95 85 150 70 60 150 70 60 150 70 60 150 70 60 150 70 60 150 70 60 150 70 60 150 70 60 175 95 85 175 95 85 175 95 85 175 95 85 175 95 85 175 95 85 175 95 85 175 95 85 150 70 60 150 70 60 150 70 60 150 70 60 150 70 60 150 70 60 150 70 60 150 70 60 175 95 85 175 95 85 175 95 85 175 95 85 175 95 85 175 95 85 175 95 85 175 95 85 175 95 85 175 95 85 175 95 85 175 95 85 175 95 85 175 95 85 175 95 85 175 95 85 150 70 60 150 70 60 150 70 60 150 70 60 150 70 60 150 70 60 150 70 60 150 70 60 175 95 85 175 95 85 175 95 85 175 95 85 175 95 85 175 95 85 175 95 85 175 95 85 150 70 60 150 70 60 150 70 60 150 70 60 150 70 60 150 70 60 150 70 60 150 70 60 175 95 85 175 95 85 175 95 85 175 95 85 175 95 85 175 95 85 175 95 85 175 95 85 150 70 60 150 70 60 150 70 60 150 70 60 150 70 60 150 70 60 150 70 60 150 70 60 150 70 60 150 70 60 150 70 60 150 70 60 150 70 60 150 70 60 150 70 60 150 70 60 175 95 85 175 95 85 175 95 85 175 95 85 175 95 85 175 95 85 175 95 85 175 95 85 150 70 60 150 70 60 150 70 60 150 70 60 150 70 60 150 70 60 150 70 60 150 70 60 175 95 85 175 95 85 175 95 85 175 95 85 175 95 85 175 95 85 175 95 85 175 95 85 150 70 60 150 70 60 150 70 60 150 70 60 150 70 60 150 70 60 150 70 60 150 70 60 175 95 85 175 95 85 175 95 85 175 95 85 175 95 85 175 95 85 175 95 85 175 95 85 175 95 85 175 95 85 175 95 85 175 95 85 175 95 85 175 95 85 175 95 85 175 95 85 150 70 60 150 70 60 150 70 60 150 70 60 150 70 60 150 70 60 150 70 60 150 70 60 175 95 85 175 95 85 175 95 85 175 95 85 175 95 85 175 95 85 175 95 85 175 95 85 150 70 60 150 70 60 150 70 60 150 70 60 150 70 60 150 70 60 150 70 60 150 70 60 175 95 85 175 95 85 175 95 85 175 95 85 175 95 85 175 95 85 175 95 85 175 95 85 150 70 60 150 70 60 150 70 60 150 70 60 150 70 60 150 70 60 150 70 60 150 70 60 150 70 60 150 70 60 150 70 60 150 70 60 150 70 60 150 70 60 150 70 60 150 70 60 175 95 85 175 95 85 175 95 85 175 95 85 175 95 85 175 95 85 175 95 85 175 95 85 150 70 60 150 70 60 150 70 60 150 70 60 150 70 60 150 70 60 150 70 60 150 70 60 175 95 85 175 95 85 175 95 85 175 95 85 175 95 85 175 95 85 175 95 85 175 95 85 150 70 60 150 70 60 150 70 60 150 70 60 150 70 60 150 70 60 150 70 60 150 70 60 175 95 85 175 95 85 175 95 85 175 95 85 175 95 85 175 95 85 175 95 85 175 95 85
150 70 60 150 70 60 150 70 60 150 70 60 150 70 60 150 70 60 150 70 60 150 70 60 175 95 85 175 95 85 175 95 85 175 95 85 175 95 85 175 95 85 175 95 85 175 95 85 150 70 60 150 70 60 150 70 60 150 70 60 150 70 60 150 70 60 150 70 60 150 70 60 175 95 85 175 95 85 175 95 85 175 95 85 175 95 85 175 95 85 175 95 85 175 95 85 150 70 60 150 70 60 150 70 60 150 70 60 150 70 60 150 70 60 150 70 60 150 70 60 175 95 85 175 95 85 175 95 85 175 95 85 175 95 85 175 95 85 175 95 85 175 95 85 175 95 85 175 95 85 175 95 85 175 95 85 175 95 85 175 95 85 175 95 85 175 95 85 150 70 60 150 70 60 150 70 60 150 70 60 150 70 60 150 70 60 150 70 60 150 70 60 175 95 85 175 95 85 175 95 85 175 95 85 175 95 85 175 95 85 175 95 85 175 95 85 150 70 60 150 70 60 150 70 60 150 70 60 150 70 60 150 70 60 150 70 60 150 70 60 175 95 85 175 95 85 175 95 85 175 95 85 175 95 85 175 95 85 175 95 85 175 95 85 150 70 60 150 70 60 150 70 60 150 70 60 150 70 60 150 70 60 150 70 60 150 70 60 150 70 60 150 70 60 150 70 60 150 70 60 150 70 60 150 70 60 150 70 60 150 70 60 175 95 85 175 95 85 175 95 85 175 95 85 175 95 85 175 95 85 175 95 85 175 95 85 150 70 60 150 70 60 150 70 60 150 70 60 150 70 60 150 70 60 150 70 60 150 70 60 175 95 85 175 95 85 175 95 85 175 95 85 175 95 85 175 95 85 175 95 85 175 95 85 150 70 60 150 70 60 150 70 60 150 70 60 150 70 60 150 70 60 150 70 60 150 70 60 175 95 85 175 95 85 175 95 85 175 95 85 175 95 85 175 95 85 175 95 85 175 95 85 175 95 85 175 95 85 175 95 85 175 95 85 175 95 85 175 95 85 175 95 85 175 95 85 150 70 60 150 70 60 150 70 60 150 70 60 150 70 60 150 70 60 150 70 60 150 70 60 175 95 85 175 95 85 175 95 85 175 95 85 175 95 85 175 95 85 175 95 85 175 95 85 150 70 60 150 70 60 150 70 60 150 70 60 150 70 60 150 70 60 150 70 60 150 70 60 175 95 85 175 95 85 175 95 85 175 95 85 175 95 85 175 95 85 175 95 85 175 95 85 150 70 60 150 70 60 150 70 60 150 70 60 150 70 60 150 70 60 150 70 60 150 70 60 150 70 60 150 70 60 150 70 60 150 70 60 150 70 60 150 70 60 150 70 60 150 70 60 175 95 85 175 95 85 175 95 85 175 95 85 175 95 85 175 95 85 175 95 85 175 95 85 150 70 60 150 70 60 150 70 60 150 70 60 150 70 60 150 70 60 150 70 60 150 70 60 175 95 85 175 95 85 175 95 85 175 95 85 175 95 85 175 95 85 175 95 85 175 95 85 150 70 60 150 70 60 150 70 60 150 70 60 150 70 60 150 70 60 150 70 60 150 70 60 175 95 85 175 95 85 175 95 85 175 95 85 175 95 85 175 95 85 175 95 85 175 95 85
175 95 85 175 95 85 175 95 85 175 95 85 175 95 85 175 95 85 175 95 85 175 95 85 150 70 60 150 70 60 150 70 60 150 70 60 150 70 60 150 70 60 150 70 60 150 70 60 175 95 85 175 95 85 175 95 85 175 95 85 175 95 85 175 95 85 175 95 85 175 95 85 150 70 60 150 70 60 150 70 60 150 70 60 150 70 60 150 70 60 150 70 60 150 70 60 175 95 85 175 95 85 175 95 85 175 95 85 175 95 85 175 95 85 175 95 85 175 95 85 150 70 60 150 70 60 150 70 60 150 70 60 150 70 60 150 70 60 150 70 60 150 70 60 150 70 60 150 70 60 150 70 60 150 70 60 150 70 60 150 70 60 150 70 60 150 70 60 175 95 85 175 95 85 175 95 85 175 95 85 175 95 85 175 95 85 175 95 85 175 95 85 150 70 60 150 70 60 150 70 60 150 70 60 150 70 60 150 70 60 150 70 60 150 70 60 175 95 85 175 95 85 175 95 85 175 95 85 175 95 85 175 95 85 175 95 85 175 95 85 150 70 60 150 70 60 150 70 60 150 70 60 150 70 60 150 70 60 150 70 60 150 70 60 175 95 85 175 95 85 175 95 85 175 95 85 175 95 85 175 95 85 175 95 85 175 95 85 175 95 85 175 95 85 175 95 85 175 95 85 175 95 85 175 95 85 175 95 85 175 95 85 150 70 60 150 70 60 150 70 60 150 70 60 150 70 60 150 70 60 150 70 60 150 70 60 175 95 85 175 95 85 175 95 85 175 95 85 175 95 85 175 95 85 175 95 85 175 95 85 150 70 60 150 70 60 150 70 60 150 70 60 150 70 60 150 70 60 150 70 60 150 70 60 175 95 85 175 95 85 175 95 85 175 95 85 175 95 85 175 95 85 175 95 85 175 95 85 150 70 60 150 70 60 150 70 60 150 70 60 150 70 60 150 70 60 150 70 60 150 70 60 150 70 60 150 70 60 150 70 60 150 70 60 150 70 60 150 70 60 150 70 60 150 70 60 175 95 85 175 95 85 175 95 85 175 95 85 175 95 85 175 95 85 175 95 85 175 95 85 150 70 60 150 70 60 150 70 60 150 70 60 150 70 60 150 70 60 150 70 60 150 70 60 175 95 85 175 95 85 175 95 85 175 95 85 175 95 85 175 95 85 175 95 85 175 95 85 150 70 60 150 70 60 150 70 60 150 70 60 150 70 60 150 70 60 150 70 60 150 70 60 175 95 85 175 95 85 175 95 85 175 95 85 175 95 85 175 95 85 175 95 85 175 95 85 175 95 85 175 95 85 175 95 85 175 95 85 175 95 85 175 95 85 175 95 85 175 95 85 150 70 60 150 70 60 150 70 60 150 70 60 150 70 60 150 70 60 150 70 60 150 70 60 175 95 85 175 95 85 175 95 85 175 95 85 175 95 85 175 95 85 175 95 85 175 95 85 150 70 60 150 70 60 150 70 60 150 70 60 150 70 60 150 70 60 150 70 60 150 70 60 175 95 85 175 95 85 175 95 85 175 95 85 175 95 85 175 95 85 175 95 85 175 95 85 150 70 60 150 70 60 150 70 60 150 70 60 150 70 60 150 70 60 150 70 60 150 70 60
175 95 85 175 95 85 175 95 85 175 95 85 175 95 85 175 95 85 175 95 85 175 95 85 150 70 60 150 70 60 150 70 60 150 70 60 150 70 60 150 70 60 150 70 60 150 70 60 175 95 85 175 95 85 175 95 85 175 95 85 175 95 85 175 95 85 175 95 85 175 95 85 150 70 60 150 70 60 150 70 60 150 70 60 150 70 60 150 70 60 150 70 60 150 70 60 175 95 85 175 95 85 175 95 85 175 95 85 175 95 85 175 95 85 175 95 85 175 95 85 150 70 60 150 70 60 150 70 60 150 70 60 150 70 60 150 70 60 150 70 60 150 70 60 150 70 60 150 70 60 150 70 60 150 70 60 150 70 60 150 70 60 150 70 60 150 70 60 175 95 85 175 95 85 175 95 85 175 95 85 175 95 85 175 95 85 175 95 85 175 95 85 150 70 60 150 70 60 150 70 60 150 70 60 150 70 60 150 70 60 150 70 60 150 70 60 175 95 85 175 95 85 175 95 85 175 95 85 175 95 85 175 95 85 175 95 85 175 95 85 150 70 60 150 70 60 150 70 60 150 70 60 150 70 60 150 70 60 150 70 60 150 70 60 175 95 85 175 95 85 175 95 85 175 95 85 175 95 85 175 95 85 175 95 85 175 95 85 175 95 85 175 95 85 175 95 85 175 95 85 175 95 85 175 95 85 175 95 85 175 95 85 150 70 60 150 70 60 150 70 60 150 70 60 150 70 60 150 70 60 150 70 60 150 70 60 175 95 85 175 95 85 175 95 85 175 95 85 175 95 85 175 95 85 175 95 85 175 95 85 150 70 60 150 70 60 150 70 60 150 70 60 150 70 60 150 70 60 150 70 60 150 70 60 175 95 85 175 95 85 175 95 85 175 95 85 175 95 85 175 95 85 175 95 85 175 95 85 150 70 60 150 70 60 150 70 60 150 70 60 150 70 60 150 70 60 150 70 60 150 70 60 150 70 60 150 70 60 150 70 60 150 70 60 150 70 60 150 70 60 150 70 60 150 70 60 175 95 85 175 95 85 175 95 85 175 95 85 175 95 85 175 95 85 175 95 85 175 95 85 150 70 60 150 70 60 150 70 60 150 70 60 150 70 60 150 70 60 150 70 60 150 70 60 175 95 85 175 95 85 175 95 85 175 95 85 175 95 85 175 95 85 175 95 85 175 95 85 150 70 60 150 70 60 150 70 60 150 70 60 150 70 60 150 70 60 150 70 60 150 70 60 175 95 85 175 95 85 175 95 85 175 95 85 175 95 85 175 95 85 175 95 85 175 95 85 175 95 85 175 95 85 175 95 85 175 95 85 175 95 85 175 95 85 175 95 85 175 95 85 150 70 60 150 70 60 150 70 60 150 70 60 150 70 60 150 70 60 150 70 60 150 70 60 175 95 85 175 95 85 175 95 85 175 95 85 175 95 85 175 95 85 175 95 85 175 95 85 150 70 60 150 70 60 150 70 60 150 70 60 150 70 60 150 70 60 150 70 60 150 70 60 175 95 85 175 95 85 175 95 85 175 95 85 175 95 85 175 95 85 175 95 85 175 95 85 150 70 60 150 70 60 150 70 60 150 70 60 150 70 60 150 70 60 150 70 60 150 70 60
175 95 85 175 95 85 175 95 85 175 95 85 175 95 85 175 95 85 175 95 85 175 95 85 150 70 60 150 70 60 150 70 60 150 70 60 150 70 60 150 70 60 150 70 60 150 70 60 175 95 85 175 95 85 175 95 85 175 95 85 175 95 85 175 95 85 175 95 85 175 95 85 150 70 60 150 70 60 150 70 60 150 70 60 150 70 60 150 70 60 150 70 60 150 70 60 175 95 85 175 95 85 175 95 85 175 95 85 175 95 85 175 95 85 175 95 85 175 95 85 150 70 60 150 70 60 150 70 60 150 70 60 150 70 60 150 70 60 150 70 60 150 70 60 150 70 60 150 70 60 150 70 60 150 70 60 150 70 60 150 70 60 150 70 60 150 70 60 175 95 85 175 95 85 175 95 85 175 95 85 175 95 85 175 95 85 175 95 85 175 95 85 150 70 60 150 70 60 150 70 60 150 70 60 150 70 60 150 70 60 150 70 60 150 70 60 175 95 85 175 95 85 175 95 85 175 95 85 175 95 85 175 95 85 175 95 85 175 95 85 150 70 60 150 70 60 150 70 60 150 70 60 150 70 60 150 70 60 150 70 60 150 70 60 175 95 85 175 95 85 175 95 85 175 95 85 175 95 85 175 95 85 175 95 85 175 95 85 175 95 85 175 95 85 175 95 85 175 95 85 175 95 85 175 95 85 175 95 85 175 95 85 150 70 60 150 70 60 150 70 60 150 70 60 150 70 60 150 70 60 150 70 60 150 70 60 175 95 85 175 95 85 175 95 85 175 95 85 175 95 85 175 95 85 175 95 85 175 95 85 150 70 60 150 70 60 150 70 60 150 70 60 150 70 60 150 70 60 150 70 60 150 70 60 175 95 85 175 95 85 175 95 85 175 95 85 175 95 85 175 95 85 175 95 85 175 95 85 150 70 60 150 70 60 150 70 60 150 70 60 150 70 60 150 70 60 150 70 60 150 70 60 150 70 60 150 70 60 150 70 60 150 70 60 150 70 60 150 70 60 150 70 60 150 70 60 175 95 85 175 95 85 175 95 85 175 95 85 175 95 85 175 95 85 175 95 85 175 95 85 150 70 60 150 70 60 150 70 60 150 70 60 150 70 60 150 70 60 150 70 60 150 70 60 175 95 85 175 95 85 175 95 85 175 95 85 175 95 85 175 95 85 175 95 85 175 95 85 150 70 60 150 70 60 150 70 60 150 70 60 150 70 60 150 70 60 150 70 60 150 70 60 175 95 85 175 95 85 175 95 85 175 95 85 175 95 85 175 95 85 175 95 85 175 95 85 175 95 85 175 95 85 175 95 85 175 95 85 175 95 85 175 95 85 175 95 85 175 95 85 150 70 60 150 70 60 150 70 60 150 70 60 150 70 60 150 70 60 150 70 60 150 70 60 175 95 85 175 95 85 175 95 85 175 95 85 175 95 85 175 95 85 175 95 85 175 95 85 150 70 60 150 70 60 150 70 60 150 70 60 150 70 60 150 70 60 150 70 60 150 70 60 175 95 85 175 95 85 175 95 85 175 95 85 175 95 85 175 95 85 175 95 85 175 95 85 150 70 60 150 70 60 150 70 60 150 70 60 150 70 60 150 70 60 150 70 60 150 70 60
175 95 85 175 95 85 175 95 85 175 95 85 175 95 85 175 95 85 175 95 85 175 95 85 150 70 60 150 70 60 150 70 60 150 70 60 150 70 60 150 70 60 150 70 60 150 70 60 175 95 85 175 95 85 175 95 85 175 95 85 175 95 85 175 95 85 175 95 85 175 95 85 150 70 60 150 70 60 150 70 60 150 70 60 150 70 60 150 70 60 150 70 60 150 70 60 175 95 85 175 95 85 175 95 85 175 95 85 175 95 85 175 95 85 175 95 85 175 95 85 150 70 60 150 70 60 150 70 60 150 70 60 150 70 60 150 70 60 150 70 60 150 70 60 150 70 60 150 70 60 150 70 60 150 70 60 150 70 60 150 70 60 150 70 60 150 70 60 175 95 85 175 95 85 175 95 85 175 95 85 175 95 85 175 95 85 175 95 85 175 95 85 150 70 60 150 70 60 150 70 60 150 70 60 150 70 60 150 70 60 150 70 60 150 70 60 175 95 85 175 95 85 175 95 85 175 95 85 175 95 85 175 95 85 175 95 85 175 95 85 150 70 60 150 70 60 150 70 60 150 70 60 150 70 60 150 70 60 150 70 60 150 70 60 175 95 85 175 95 85 175 95 85 175 95 85 175 95 85 175 95 85 175 95 85 175 95 85 175 95 85 175 95 85 175 95 85 175 95 85 175 95 85 175 95 85 175 95 85 175 95 85 150 70 60 150 70 60 150 70 60 150 70 60 150 70 60 150 70 60 150 70 60 150 70 60 175 95 85 175 95 85 175 95 85 175 95 85 175 95 85 175 95 85 175 95 85 175 95 85 150 70 60 150 70 60 150 70 60 150 70 60 150 70 60 150 70 60 150 70 60 150 70 60 175 95 85 175 95 85 175 95 85 175 95 85 175 95 85 175 95 85 175 95 85 175 95 85 150 70 60 150 70 60 150 70 60 150 70 60 150 70 60 150 70 60 150 70 60 150 70 60 150 70 60 150 70 60 150 70 60 150 70 60 150 70 60 150 70 60 150 70 60 150 70 60 175 95 85 175 95 85 175 95 85 175 95 85 175 95 85 175 95 85 175 95 85 175 95 85 150 70 60 150 70 60 150 70 60 150 70 60 150 70 60 150 70 60 150 70 60 150 70 60 175 95 85 175 95 85 175 95 85 175 95 85 175 95 85 175 95 85 175 95 85 175 95 85 150 70 60 150 70 60 150 70 60 150 70 60 150 70 60 150 70 60 150 70 60 150 70 60 175 95 85 175 95 85 175 95 85 175 95 85 175 95 85 175 95 85 175 95 85 175 95 85 175 95 85 175 95 85 175 95 85 175 95 85 175 95 85 175 95 85 175 95 85 175 95 85 150 70 60 150 70 60 150 70 60 150 70 60 150 70 60 150 70 60 150 70 60 150 70 60 175 95 85 175 95 85 175 95 85 175 95 85 175 95 85 175 95 85 175 95 85 175 95 85 150 70 60 150 70 60 150 70 60 150 70 60 150 70 60 150 70 60 150 70 60 150 70 60 175 95 85 175 95 85 175 95 85 175 95 85 175 95 85 175 95 85 175 95 85 175 95 85 150 70 60 150 70 60 150 70 60 150 70 60 150 70 60 150 70 60 150 70 60 150 70 60
175 95 85 175 95 85 175 95 85 175 95 85 175 95 85 175 95 85 175 95 85 175 95 85 150 70 60 150 70 60 150 70 60 150 70 60 150 70 60 150 70 60 150 70 60 150 70 60 175 95 85 175 95 85 175 95 85 175 95 85 175 95 85 175 95 85 175 95 85 175 95 85 150 70 60 150 70 60 150 70 60 150 70 60 150 70 60 150 70 60 150 70 60 150 70 60 175 95 85 175 95 85 175 95 85 175 95 85 175 95 85 175 95 85 175 95 85 175 95 85 150 70 60 150 70 60 150 70 60 150 70 60 150 70 60 150 70 60 150 70 60 150 70 60 150 70 60 150 70 60 150 70 60 150 70 60 150 70 60 150 70 60 150 70 60 150 70 60 175 95 85 175 95 85 175 95 85 175 95 85 175 95 85 175 95 85 175 95 85 175 95 85 150 70 60 150 70 60 150 70 60 150 70 60 150 70 60 150 70 60 150 70 60 150 70 60 175 95 85 175 95 85 175 95 85 175 95 85 175 95 85 175 95 85 175 95 85 175 95 85 150 70 60 150 70 60 150 70 60 150 70 60 150 70 60 150 70 60 150 70 60 150 70 60 175 95 85 175 95 85 175 95 85 175 95 85 175 95 85 175 95 85 175 95 85 175 95 85 175 95 85 175 95 85 175 95 85 175 95 85 175 95 85 175 95 85 175 95 85 175 95 85 150 70 60 150 70 60 150 70 60 150 70 60 150 70 60 150 70 60 150 70 60 150 70 60 175 95 85 175 95 85 175 95 85 175 95 85 175 95 85 175 95 85 175 95 85 175 95 85 150 70 60 150 70 60 150 70 60 150 70 60 150 70 60 150 70 60 150 70 60 150 70 60 175 95 85 175 95 85 175 95 85 175 95 85 175 95 85 175 95 85 175 95 85 175 95 85 150 70 60 150 70 60 150 70 60 150 70 60 150 70 60 150 70 60 150 70 60 150 70 60 150 70 60 150 70 60 150 70 60 150 70 60 150 70 60 150 70 60 150 70 60 150 70 60 175 95 85 175 95 85 175 95 85 175 95 85 175 95 85 175 95 85 175 95 85 175 95 85 150 70 60 150 70 60 150 70 60 150 70 60 150 70 60 150 70 60 150 70 60 150 70 60 175 95 85 175 95 85 175 95 85 175 95 85 175 95 85 175 95 85 175 95 85 175 95 85 150 70 60 150 70 60 150 70 60 150 70 60 150 70 60 150 70 60 150 70 60 150 70 60 175 95 85 175 95 85 175 95 85 175 95 85 175 95 85 175 95 85 175 95 85 175 95 85 175 95 85 175 95 85 175 95 85 175 95 85 175 95 85 175 95 85 175 95 85 175 95 85 150 70 60 150 70 60 150 70 60 150 70 60 150 70 60 150 70 60 150 70 60 150 70 60 175 95 85 175 95 85 175 95 85 175 95 85 175 95 85 175 95 85 175 95 85 175 95 85 150 70 60 150 70 60 150 70 60 150 70 60 150 70 60 150 70 60 150 70 60 150 70 60 175 95 85 175 95 85 175 95 85 175 95 85 175 95 85 175 95 85 175 95 85 175 95 85 150 70 60 150 70 60 150 70 60 150 70 60 150 70 60 150 70 60 150 70 60 150 70 60
175 95 85 175 95 85 175 95 85 175 95 85 175 95 85 175 95 85 175 95 85 175 95 85 150 70 60 150 70 60 150 70 60 150 70 60 150 70 60 150 70 60 150 70 60 150 70 60 175 95 85 175 95 85 175 95 85 175 95 85 175 95 85 175 95 85 175 95 85 175 95 85 150 70 60 150 70 60 150 70 60 150 70 60 150 70 60 150 70 60 150 70 60 150 70 60 175 95 85 175 95 85 175 95 85 175 95 85 175 95 85 175 95 85 175 95 85 175 95 85 150 70 60 150 70 60 150 70 60 150 70 60 150 70 60 150 70 60 150 70 60 150 70 60 150 70 60 150 70 60 150 70 60 150 70 60 150 70 60 150 70 60 150 70 60 150 70 60 175 95 85 175 95 85 175 95 85 175 95 85 175 95 85 175 95 85 175 95 85 175 95 85 150 70 60 150 70 60 150 70 60 150 70 60 150 70 60 150 70 60 150 70 60 150 70 60 175 95 85 175 95 85 175 95 85 175 95 85 175 95 85 175 95 85 175 95 85 175 95 85 150 70 60 150 70 60 150 70 60 150 70 60 150 70 60 150 70 60 150 70 60 150 70 60 175 95 85 175 95 85 175 95 85 175 95 85 175 95 85 175 95 85 175 95 85 175 95 85 175 95 85 175 95 85 175 95 85 175 95 85 175 95 85 175 95 85 175 95 85 175 95 85 150 70 60 150 70 60 150 70 60 150 70 60 150 70 60 150 70 60 150 70 60 150 70 60 175 95 85 175 95 85 175 95 85 175 95 85 175 95 85 175 95 85 175 95 85 175 95 85 150 70 60 150 70 60 150 70 60 150 70 60 150 70 60 150 70 60 150 70 60 150 70 60 175 95 85 175 95 85 175 95 85 175 95 85 175 95 85 175 95 85 175 95 85 175 95 85 150 70 60 150 70 60 150 70 60 150 70 60 150 70 60 150 70 60 150 70 60 150 70 60 150 70 60 150 70 60 150 70 60 150 70 60 150 70 60 150 70 60 150 70 60 150 70 60 175 95 85 175 95 85 175 95 85 175 95 85 175 95 85 175 95 85 175 95 85 175 95 85 150 70 60 150 70 60 150 70 60 150 70 60 150 70 60 150 70 60 150 70 60 150 70 60 175 95 85 175 95 85 175 95 85 175 95 85 175 95 85 175 95 85 175 95 85 175 95 85 150 70 60 150 70 60 150 70 60 150 70 60 150 70 60 150 70 60 150 70 60 150 70 60 175 95 85 175 95 85 175 95 85 175 95 85 175 95 85 175 95 85 175 95 85 175 95 85 175 95 85 175 95 85 175 95 85 175 95 85 175 95 85 175 95 85 175 95 85 175 95 85 150 70 60 150 70 60 150 70 60 150 70 60 150 70 60 150 70 60 150 70 60 150 70 60 175 95 85 175 95 85 175 95 85 175 95 85 175 95 85 175 95 85 175 95 85 175 95 85 150 70 60 150 70 60 150 70 60 150 70 60 150 70 60 150 70 60 150 70 60 150 70 60 175 95 85 175 95 85 175 95 85 175 95 85 175 95 85 175 95 85 175 95 85 175 95 85 150 70 60 150 70 60 150 70 60 150 70 60 150 70 60 150 70 60 150 70 60 150 70 60
175 95 85 175 95 85 175 95 85 175 95 85 175 95 85 175 95 85 175 95 85 175 95 85 150 70 60 150 70 60 150 70 60 150 70 60 150 70 60 150 70 60 150 70 60 150 70 60 175 95 85 175 95 85 175 95 85 175 95 85 175 95 85 175 95 85 175 95 85 175 95 85 150 70 60 150 70 60 150 70 60 150 70 60 150 70 60 150 70 60 150 70 60 150 70 60 175 95 85 175 95 85 175 95 85 175 95 85 175 95 85 175 95 85 175 95 85 175 95 85 150 70 60 150 70 60 150 70 60 150 70 60 150 70 60 150 70 60 150 70 60 150 70 60 150 70 60 150 70 60 150 70 60 150 70 60 150 70 60 150 70 60 150 70 60 150 70 60 175 95 85 175 95 85 175 95 85 175 95 85 175 95 85 175 95 85 175 95 85 175 95 85 150 70 60 150 70 60 150 70 60 150 70 60 150 70 60 150 70 60 150 70 60 150 70 60 175 95 85 175 95 85 175 95 85 175 95 85 175 95 85 175 95 85 175 95 85 175 95 85 150 70 60 150 70 60 150 70 60 150 70 60 150 70 60 150 70 60 150 70 60 150 70 60 175 95 85 175 95 85 175 95 85 175 95 85 175 95 85 175 95 85 175 95 85 175 95 85 175 95 85 175 95 85 175 95 85 175 95 85 175 95 85 175 95 85 175 95 85 175 95 85 150 70 60 150 70 60 150 70 60 150 70 60 150 70 60 150 70 60 150 70 60 150 70 60 175 95 85 175 95 85 175 95 85 175 95 85 175 95 85 175 95 85 175 95 85 175 95 85 150 70 60 150 70 60 150 70 60 150 70 60 150 70 60 150 70 60 150 70 60 150 70 60 175 95 85 175 95 85 175 95 85 175 95 85 175 95 85 175 95 85 175 95 85 175 95 85 150 70 60 150 70 60 150 70 60 150 70 60 150 70 60 150 70 60 150 70 60 150 70 60 150 70 60 150 70 60 150 70 60 150 70 60 150 70 60 150 70 60 150 70 60 150 70 60 175 95 85 175 95 85 175 95 85 175 95 85 175 95 85 175 95 85 175 95 85 175 95 85 150 70 60 150 70 60 150 70 60 150 70 60 150 70 60 150 70 60 150 70 60 150 70 60 175 95 85 175 95 85 175 95 85 175 95 85 175 95 85 175 95 85 175 95 85 175 95 85 150 70 60 150 70 60 150 70 60 150 70 60 150 70 60 150 70 60 150 70 60 150 70 60 175 95 85 175 95 85 175 95 85 175 95 85 175 95 85 175 95 85 175 95 85 175 95 85 175 95 85 175 95 85 175 95 85 175 95 85 175 95 85 175 95 85 175 95 85 175 95 85 150 70 60 150 70 60 150 70 60 150 70 60 150 70 60 150 70 60 150 70 60 150 70 60 175 95 85 175 95 85 175 95 85 175 95 85 175 95 85 175 95 85 175 95 85 175 95 85 150 70 60 150 70 60 150 70 60 150 70 60 150 70 60 150 70 60 150 70 60 150 70 60 175 95 85 175 95 85 175 95 85 175 95 85 175 95 85 175 95 85 175 95 85 175 95 85 150 70 60 150 70 60 150 70 60 150 70 60 150 70 60 150 70 60 150 70 60 150 70 60
175 95 85 175 95 85 175 95 85 175 95 85 175 95 85 175 95 85 175 95 85 175 95 85 150 70 60 150 70 60 150 70 60 150 70 60 150 70 60 150 70 60 150 70 60 150 70 60 175 95 85 175 95 85 175 95 85 175 95 85 175 95 85 175 95 85 175 95 85 175 95 85 150 70 60 150 70 60 150 70 60 150 70 60 150 70 60 150 70 60 150 70 60 150 70 60 175 95 85 175 95 85 175 95 85 175 95 85 175 95 85 175 95 85 175 95 85 175 95 85 150 70 60 150 70 60 150 70 60 150 70 60 150 70 60 150 70 60 150 70 60 150 70 60 150 70 60 150 70 60 150 70 60 150 70 60 150 70 60 150 70 60 150 70 60 150 70 60 175 95 85 175 95 85 175 95 85 175 95 85 175 95 85 175 95 85 175 95 85 175 95 85 150 70 60 150 70 60 150 70 60 150 70 60 150 70 60 150 70 60 150 70 60 150 70 60 175 95 85 175 95 85 175 95 85 175 95 85 175 95 85 175 95 85 175 95 85 175 95 85 150 70 60 150 70 60 150 70 60 150 70 60 150 70 60 150 70 60 150 70 60 150 70 60 175 95 85 175 95 85 175 95 85 175 95 85 175 95 85 175 95 85 175 95 85 175 95 85 175 95 85 175 95 85 175 95 85 175 95 85 175 95 85 175 95 85 175 95 85 175 95 85 150 70 60 150 70 60 150 70 60 150 70 60 150 70 60 150 70 60 150 70 60 150 70 60 175 95 85 175 95 85 175 95 85 175 95 85 175 95 85 175 95 85 175 95 85 175 95 85 150 70 60 150 70 60 150 70 60 150 70 60 150 70 60 150 70 60 150 70 60 150 70 60 175 95 85 175 95 85 175 95 85 175 95 85 175 95 85 175 95 85 175 95 85 175 95 85 150 70 60 150 70 60 150 70 60 150 70 60 150 70 60 150 70 60 150 70 60 150 70 60 150 70 60 150 70 60 150 70 60 150 70 60 150 70 60 150 70 60 150 70 60 150 70 60 175 95 85 175 95 85 175 95 85 175 95 85 175 95 85 175 95 85 175 95 85 175 95 85 150 70 60 150 70 60 150 70 60 150 70 60 150 70 60 150 70 60 150 70 60 150 70 60 175 95 85 175 95 85 175 95 85 175 95 85 175 95 85 175 95 85 175 95 85 175 95 85 150 70 60 150 70 60 150 70 60 150 70 60 150 70 60 150 70 60 150 70 60 150 70 60 175 95 85 175 95 85 175 95 85 175 95 85 175 95 85 175 95 85 175 95 85 175 95 85 175 95 85 175 95 85 175 95 85 175 95 85 175 95 85 175 95 85 175 95 85 175 95 85 150 70 60 150 70 60 150 70 60 150 70 60 150 70 60 150 70 60 150 70 60 150 70 60 175 95 85 175 95 85 175 95 85 175 95 85 175 95 85 175 95 85 175 95 85 175 95 85 150 70 60 150 70 60 150 70 60 150 70 60 150 70 60 150 70 60 150 70 60 150 70 60 175 95 85 175 95 85 175 95 85 175 95 85 175 95 85 175 95 85 175 95 85 175 95 85 150 70 60 150 70 60 150 70 60 150 70 60 150 70 60 150 70 60 150 70 60 150 70 60
150 70 60 150 70 60 150 70 60 150 70 60 150 70 60 150 70 60 150 70 60 150 70 60 175 95 85 175 95 85 175 95 85 175 95 85 175 95 85 175 95 85 175 95 85 175 95 85 150 70 60 150 70 60 150 70 60 150 70 60 150 70 60 150 70 60 150 70 60 150 70 60 175 95 85 175 95 85 175 95 85 175 95 85 175 95 85 175 95 85 175 95 85 175 95 85 150 70 60 150 70 60 150 70 60 150 70 60 150 70 60 150 70 60 150 70 60 150 70 60 175 95 85 175 95 85 175 95 85 175 95 85 175 95 85 175 95 85 175 95 85 175 95 85 175 95 85 175 95 85 175 95 85 175 95 85 175 95 85 175 95 85 175 95 85 175 95 85 150 70 60 150 70 60 150 70 60 150 70 60 150 70 60 150 70 60 150 70 60 150 70 60 175 95 85 175 95 85 175 95 85 175 95 85 175 95 85 175 95 85 175 95 85 175 95 85 150 70 60 150 70 60 150 70 60 150 70 60 150 70 60 150 70 60 150 70 60 150 70 60 175 95 85 175 95 85 175 95 85 175 95 85 175 95 85 175 95 85 175 95 85 175 95 85 150 70 60 150 70 60 150 70 60 150 70 60 150 70 60 150 70 60 150 70 60 150 70 60 150 70 60 150 70 60 150 70 60 150 70 60 150 70 60 150 70 60 150 70 60 150 70 60 175 95 85 175 95 85 175 95 85 175 95 85 175 95 85 175 95 85 175 95 85 175 95 85 150 70 60 150 70 60 150 70 60 150 70 60 150 70 60 150 70 60 150 70 60 150 70 60 175 95 85 175 95 85 175 95 85 175 95 85 175 95 85 175 95 85 175 95 85 175 95 85 150 70 60 150 70 60 150 70 60 150 70 60 150 70 60 150 70 60 150 70 60 150 70 60 175 95 85 175 95 85 175 95 85 175 95 85 175 95 85 175 95 85 175 95 85 175 95 85 175 95 85 175 95 85 175 95 85 175 95 85 175 95 85 175 95 85 175 95 85 175 95 85 150 70 60 150 70 60 150 70 60 150 70 60 150 70 60 150 70 60 150 70 60 150 70 60 175 95 85 175 95 85 175 95 85 175 95 85 175 95 85 175 95 85 175 95 85 175 95 85 150 70 60 150 70 60 150 70 60 150 70 60 150 70 60 150 70 60 150 70 60 150 70 60 175 95 85 175 95 85 175 95 85 175 95 85 175 95 85 175 95 85 175 95 85 175 95 85 150 70 60 150 70 60 150 70 60 150 70 60 150 70 60 150 70 60 150 70 60 150 70 60 150 70 60 150 70 60 150 70 60 150 70 60 150 70 60 150 70 60 150 70 60 150 70 60 175 95 85 175 95 85 175 95 85 175 95 85 175 95 85 175 95 85 175 95 85 175 95 85 150 70 60 150 70 60 150 70 60 150 70 60 150 70 60 150 70 60 150 70 60 150 70 60 175 95 85 175 95 85 175 95 85 175 95 85 175 95 85 175 95 85 175 95 85 175 95 85 150 70 60 150 70 60 150 70 60 150 70 60 150 70 60 150 70 60 150 70 60 150 70 60 175 95 85 175 95 85 175 95 85 175 95 85 175 95 85 175 95 85 175 95 85 175 95 85
150 70 60 150 70 60 150 70 60 150 70 60 150 70 60 150 70 60 150 70 60 150 70 60 175 95 85 175 95 85 175 95 85 175 95 85 175 95 85 175 95 85 175 95 85 175 95 85 150 70 60 150 70 60 150 70 60 150 70 60 150 70 60 150 70 60 150 70 60 150 70 60 175 95 85 175 95 85 175 95 85 175 95 85 175 95 85 175 95 85 175 95 85 175 95 85 150 70 60 150 70 60 150 70 60 150 70 60 150 70 60 150 70 60 150 70 60 150 70 60 175 95 85 175 95 85 175 95 85 175 95 85 175 95 85 175 95 85 175 95 85 175 95 85 175 95 85 175 95 85 175 95 85 175 95 85 175 95 85 175 95 85 175 95 85 175 95 85 150 70 60 150 70 60 150 70 60 150 70 60 150 70 60 150 70 60 150 70 60 150 70 60 175 95 85 175 95 85 175 95 85 175 95 85 175 95 85 175 95 85 175 95 85 175 95 85 150 70 60 150 70 60 150 70 60 150 70 60 150 70 60 150 70 60 150 70 60 150 70 60 175 95 85 175 95 85 175 95 85 175 95 85 175 95 85 175 95 85 175 95 85 175 95 85 150 70 60 150 70 60 150 70 60 150 70 60 150 70 60 150 70 60 150 70 60 150 70 60 150 70 60 150 70 60 150 70 60 150 70 60 150 70 60 150 70 60 150 70 60 150 70 60 175 95 85 175 95 85 175 95 85 175 95 85 175 95 85 175 95 85 175 95 85 175 95 85 150 70 60 150 70 60 150 70 60 150 70 60 150 70 60 150 70 60 150 70 60 150 70 60 175 95 85 175 95 85 175 95 85 175 95 85 175 95 85 175 95 85 175 95 85 175 95 85 150 70 60 150 70 60 150 70 60 150 70 60 150 70 60 150 70 60 150 70 60 150 70 60 175 95 85 175 95 85 175 95 85 175 95 85 175 95 85 175 95 85 175 95 85 175 95 85 175 95 85 175 95 85 175 95 85 175 95 85 175 95 85 175 95 85 175 95 85 175 95 85 150 70 60 150 70 60 150 70 60 150 70 60 150 70 60 150 70 60 150 70 60 150 70 60 175 95 85 175 95 85 175 95 85 175 95 85 175 95 85 175 95 85 175 95 85 175 95 85 150 70 60 150 70 60 150 70 60 150 70 60 150 70 60 150 70 60 150 70 60 150 70 60 175 95 85 175 95 85 175 95 85 175 95 85 175 95 85 175 95 85 175 95 85 175 95 85 150 70 60 150 70 60 150 70 60 150 70 60 150 70 60 150 70 60 150 70 60 150 70 60 150 70 60 150 70 60 150 70 60 150 70 60 150 70 60 150 70 60 150 70 60 150 70 60 175 95 85 175 95 85 175 95 85 175 95 85 175 95 85 175 95 85 175 95 85 175 95 85 150 70 60 150 70 60 150 70 60 150 70 60 150 70 60 150 70 60 150 70 60 150 70 60 175 95 85 175 95 85 175 95 85 175 95 85 175 95 85 175 95 85 175 95 85 175 95 85 150 70 60 150 70 60 150 70 60 150 70 60 150 70 60 150 70 60 150 70 60 150 70 60 175 95 85 175 95 85 175 95 85 175 95 85 175 95 85 175 95 85 175 95 85 175 95 85
150 70 60 150 70 60 150 70 60 150 70 60 150 70 60 150 70 60 150 70 60 150 70 60 175 95 85 175 95 85 175 95 85 175 95 85 175 95 85 175 95 85 175 95 85 175 95 85 150 70 60 150 70 60 150 70 60 150 70 60 150 70 60 150 70 60 150 70 60 150 70 60 175 95 85 175 95 85 175 95 85 175 95 85 175 95 85 175 95 85 175 95 85 175 95 85 150 70 60 150 70 60 150 70 60 150 70 60 150 70 60 150 70 60 150 70 60 150 70 60 175 95 85 175 95 85 175 95 85 175 95 85 175 95 85 175 95 85 175 95 85 175 95 85 175 95 85 175 95 85 175 95 85 175 95 85 175 95 85 175 95 85 175 95 85 175 95 85 150 70 60 150 70 60 150 70 60 150 70 60 150 70 60 150 70 60 150 70 60 150 70 60 175 95 85 175 95 85 175 95 85 175 95 85 175 95 85 175 95 85 175 95 85 175 95 85 150 70 60 150 70 60 150 70 60 150 70 60 150 70 60 150 70 60 150 70 60 150 70 60 175 95 85 175 95 85 175 95 85 175 95 85 175 95 85 175 95 85 175 95 85 175 95 85 150 70 60 150 70 60 150 70 60 150 70 60 150 70 60 150 70 60 150 70 60 150 70 60 150 70 60 150 70 60 150 70 60 150 70 60 150 70 60 150 70 60 150 70 60 150 70 60 175 95 85 175 95 85 175 95 85 175 95 85 175 95 85 175 95 85 175 95 85 175 95 85 150 70 60 150 70 60 150 70 60 150 70 60 150 70 60 150 70 60 150 70 60 150 70 60 175 95 85 175 95 85 175 95 85 175 95 85 175 95 85 175 95 85 175 95 85 175 95 85 150 70 60 150 70 60 150 70 60 150 70 60 150 70 60 150 70 60 150 70 60 150 70 60 175 95 85 175 95 85 175 95 85 175 95 85 175 95 85 175 95 85 175 95 85 175 95 85 175 95 85 175 95 85 175 95 85 175 95 85 175 95 85 175 95 85 175 95 85 175 95 85 150 70 60 150 70 60 150 70 60 150 70 60 150 70 60 150 70 60 150 70 60 150 70 60 175 95 85 175 95 85 175 95 85 175 95 85 175 95 85 175 95 85 175 95 85 175 95 85 150 70 60 150 70 60 150 70 60 150 70 60 150 70 60 150 70 60 150 70 60 150 70 60 175 95 85 175 95 85 175 95 85 175 95 85 175 95 85 175 95 85 175 95 85 175 95 85 150 70 60 150 70 60 150 70 60 150 70 60 150 70 60 150 70 60 150 70 60 150 70 60 150 70 60 150 70 60 150 70 60 150 70 60 150 70 60 150 70 60 150 70 60 150 70 60 175 95 85 175 95 85 175 95 85 175 95 85 175 95 85 175 95 85 175 95 85 175 95 85 150 70 60 150 70 60 150 70 60 150 70 60 150 70 60 150 70 60 150 70 60 150 70 60 175 95 85 175 95 85 175 95 85 175 95 85 175 95 85 175 95 85 175 95 85 175 95 85 150 70 60 150 70 60 150 70 60 150 70 60 150 70 60 150 70 60 150 70 60 150 70 60 175 95 85 175 95 85 175 95 85 175 95 85 175 95 85 175 95 85 175 95 85 175 95 85
150 70 60 150 70 60 150 70 60 150 70 60 150 70 60 150 70 60 150 70 60 150 70 60 175 95 85 175 95 85 175 95 85 175 95 85 175 95 85 175 95 85 175 95 85 175 95 85 150 70 60 150 70 60 150 70 60 150 70 60 150 70 60 150 70 60 150 70 60 150 70 60 175 95 85 175 95 85 175 95 85 175 95 85 175 95 85 175 95 85 175 95 85 175 95 85 150 70 60 150 70 60 150 70 60 150 70 60 150 70 60 150 70 60 150 70 60 150 70 60 175 95 85 175 95 85 175 95 85 175 95 85 175 95 85 175 95 85 175 95 85 175 95 85 175 95 85 175 95 85 175 95 85 175 95 85 175 95 85 175 95 85 175 95 85 175 95 85 150 70 60 150 70 60 150 70 60 150 70 60 150 70 60 150 70 60 150 70 60 150 70 60 175 95 85 175 95 85 175 95 85 175 95 85 175 95 85 175 95 85 175 95 85 175 95 85 150 70 60 150 70 60 150 70 60 150 70 60 150 70 60 150 70 60 150 70 60 150 70 60 175 95 85 175 95 85 175 95 85 175 95 85 175 95 85 175 95 85 175 95 85 175 95 85 150 70 60 150 70 60 150 70 60 150 70 60 150 70 60 150 70 60 150 70 60 150 70 60 150 70 60 150 70 60 150 70 60 150 70 60 150 70 60 150 70 60 150 70 60 150 70 60 175 95 85 175 95 85 175 95 85 175 95 85 175 95 85 175 95 85 175 95 85 175 95 85 150 70 60 150 70 60 150 70 60 150 70 60 150 70 60 150 70 60 150 70 60 150 70 60 175 95 85 175 95 85 175 95 85 175 95 85 175 95 85 175 95 85 175 95 85 175 95 85 150 70 60 150 70 60 150 70 60 150 70 60 150 70 60 150 70 60 150 70 60 150 70 60 175 95 85 175 95 85 175 95 85 175 95 85 175 95 85 175 95 85 175 95 85 175 95 85 175 95 85 175 95 85 175 95 85 175 95 85 175 95 85 175 95 85 175 95 85 175 95 85 150 70 60 150 70 60 150 70 60 150 70 60 150 70 60 150 70 60 150 70 60 150 70 60 175 95 85 175 95 85 175 95 85 175 95 85 175 95 85 175 95 85 175 95 85 175 95 85 150 70 60 150 70 60 150 70 60 150 70 60 150 70 60 150 70 60 150 70 60 150 70 60 175 95 85 175 95 85 175 95 85 175 95 85 175 95 85 175 95 85 175 95 85 175 95 85 150 70 60 150 70 60 150 70 60 150 70 60 150 70 60 150 70 60 150 70 60 150 70 60 150 70 60 150 70 60 150 70 60 150 70 60 150 70 60 150 70 60 150 70 60 150 70 60 175 95 85 175 95 85 175 95 85 175 95 85 175 95 85 175 95 85 175 95 85 175 95 85 150 70 60 150 70 60 150 70 60 150 70 60 150 70 60 150 70 60 150 70 60 150 70 60 175 95 85 175 95 85 175 95 85 175 95 85 175 95 85 175 95 85 175 95 85 175 95 85 150 70 60 150 70 60 150 70 60 150 70 60 150 70 60 150 70 60 150 70 60 150 70 60 175 95 85 175 95 85 175 95 85 175 95 85 175 95 85 175 95 85 175 95 85 175 95 85
150 70 60 150 70 60 150 70 60 150 70 60 150 70 60 150 70 60 150 70 60 150 70 60 175 95 85 175 95 85 175 95 85 175 95 85 175 95 85 175 95 85 175 95 85 175 95 85 150 70 60 150 70 60 150 70 60 150 70 60 150 70 60 150 70 60 150 70 60 150 70 60 175 95 85 175 95 85 175 95 85 175 95 85 175 95 85 175 95 85 175 95 85 175 95 85 150 70 60 150 70 60 150 70 60 150 70 60 150 70 60 150 70 60 150 70 60 150 70 60 175 95 85 175 95 85 175 95 85 175 95 85 175 95 85 175 95 85 175 95 85 175 95 85 175 95 85 175 95 85 175 95 85 175 95 85 175 95 85 175 95 85 175 95 85 175 95 85 150 70 60 150 70 60 150 70 60 150 70 60 150 70 60 150 70 60 150 70 60 150 70 60 175 95 85 175 95 85 175 95 85 175 95 85 175 95 85 175 95 85 175 95 85 175 95 85 150 70 60 150 70 60 150 70 60 150 70 60 150 70 60 150 70 60 150 70 60 150 70 60 175 95 85 175 95 85 175 95 85 175 95 85 175 95 85 175 95 85 175 95 85 175 95 85 150 70 60 150 70 60 150 70 60 150 70 60 150 70 60 150 70 60 150 70 60 150 70 60 150 70 60 150 70 60 150 70 60 150 70 60 150 70 60 150 70 60 150 70 60 150 70 60 175 95 85 175 95 85 175 95 85 175 95 85 175 95 85 175 95 85 175 95 85 175 95 85 150 70 60 150 70 60 150 70 60 150 70 60 150 70 60 150 70 60 150 70 60 150 70 60 175 95 85 175 95 85 175 95 85 175 95 85 175 95 85 175 95 85 175 95 85 175 95 85 150 70 60 150 70 60 150 70 60 150 70 60 150 70 60 150 70 60 150 70 60 150 70 60 175 95 85 175 95 85 175 95 85 175 95 85 175 95 85 175 95 85 175 95 85 175 95 85 175 95 85 175 95 85 175 95 85 175 95 85 175 95 85 175 95 85 175 95 85 175 95 85 150 70 60 150 70 60 150 70 60 150 70 60 150 70 60 150 70 60 150 70 60 150 70 60 175 95 85 175 95 85 175 95 85 175 95 85 175 95 85 175 95 85 175 95 85 175 95 85 150 70 60 150 70 60 150 70 60 150 70 60 150 70 60 150 70 60 150 70 60 150 70 60 175 95 85 175 95 85 175 95 85 175 95 85 175 95 85 175 95 85 175 95 85 175 95 85 150 70 60 150 70 60 150 70 60 150 70 60 150 70 60 150 70 60 150 70 60 150 70 60 150 70 60 150 70 60 150 70 60 150 70 60 150 70 60 150 70 60 150 70 60 150 70 60 175 95 85 175 95 85 175 95 85 175 95 85 175 95 85 175 95 85 175 95 85 175 95 85 150 70 60 150 70 60 150 70 60 150 70 60 150 70 60 150 70 60 150 70 60 150 70 60 175 95 85 175 95 85 175 95 85 175 95 85 175 95 85 175 95 85 175 95 85 175 95 85 150 70 60 150 70 60 150 70 60 150 70 60 150 70 60 150 70 60 150 70 60 150 70 60 175 95 85 175 95 85 175 95 85 175 95 85 175 95 85 175 95 85 175 95 85 175 95 85
150 70 60 150 70 60 150 70 60 150 70 60 150 70 60 150 70 60 150 70 60 150 70 60 175 95 85 175 95 85 175 95 85 175 95 85 175 95 85 175 95 85 175 95 85 175 95 85 150 70 60 150 70 60 150 70 60 150 70 60 150 70 60 150 70 60 150 70 60 150 70 60 175 95 85 175 95 85 175 95 85 175 95 85 175 95 85 175 95 85 175 95 85 175 95 85 150 70 60 150 70 60 150 70 60 150 70 60 150 70 60 150 70 60 150 70 60 150 70 60 175 95 85 175 95 85 175 95 85 175 95 85 175 95 85 175 95 85 175 95 85 175 95 85 175 95 85 175 95 85 175 95 85 175 95 85 175 95 85 175 95 85 175 95 85 175 95 85 150 70 60 150 70 60 150 70 60 150 70 60 150 70 60 150 70 60 150 70 60 150 70 60 175 95 85 175 95 85 175 95 85 175 95 85 175 95 85 175 95 85 175 95 85 175 95 85 150 70 60 150 70 60 150 70 60 150 70 60 150 70 60 150 70 60 150 70 60 150 70 60 175 95 85 175 95 85 175 95 85 175 95 85 175 95 85 175 95 85 175 95 85 175 95 85 150 70 60 150 70 60 150 70 60 150 70 60 150 70 60 150 70 60 150 70 60 150 70 60 150 70 60 150 70 60 150 70 60 150 70 60 150 70 60 150 70 60 150 70 60 150 70 60 175 95 85 175 95 85 175 95 85 175 95 85 175 95 85 175 95 85 175 95 85 175 95 85 150 70 60 150 70 60 150 70 60 150 70 60 150 70 60 150 70 60 150 70 60 150 70 60 175 95 85 175 95 85 175 95 85 175 95 85 175 95 85 175 95 85 175 95 85 175 95 85 150 70 60 150 70 60 150 70 60 150 70 60 150 70 60 150 70 60 150 70 60 150 70 60 175 95 85 175 95 85 175 95 85 175 95 85 175 95 85 175 95 85 175 95 85 175 95 85 175 95 85 175 95 85 175 95 85 175 95 85 175 95 85 175 95 85 175 95 85 175 95 85 150 70 60 150 70 60 150 70 60 150 70 60 150 70 60 150 70 60 150 70 60 150 70 60 175 95 85 175 95 85 175 95 85 175 95 85 175 95 85 175 95 85 175 95 85 175 95 85 150 70 60 150 70 60 150 70 60 150 70 60 150 70 60 150 70 60 150 70 60 150 70 60 175 95 85 175 95 85 175 95 85 175 95 85 175 95 85 175 95 85 175 95 85 175 95 85 150 70 60 150 70 60 150 70 60 150 70 60 150 70 60 150 70 60 150 70 60 150 70 60 150 70 60 150 70 60 150 70 60 150 70 60 150 70 60 150 70 60 150 70 60 150 70 60 175 95 85 175 95 85 175 95 85 175 95 85 175 95 85 175 95 85 175 95 85 175 95 85 150 70 60 150 70 60 150 70 60 150 70 60 150 70 60 150 70 60 150 70 60 150 70 60 175 95 85 175 95 85 175 95 85 175 95 85 175 95 85 175 95 85 175 95 85 175 95 85 150 70 60 150 70 60 150 70 60 150 70 60 150 70 60 150 70 60 150 70 60 150 70 60 175 95 85 175 95 85 175 95 85 175 95 85 175 95 85 175 95 85 175 95 85 175 95 85
150 70 60 150 70 60 150 70 60 150 70 60 150 70 60 150 70 60 150 70 60 150 70 60 175 95 85 175 95 85 175 95 85 175 95 85 175 95 85 175 95 85 175 95 85 175 95 85 150 70 60 150 70 60 150 70 60 150 70 60 150 70 60 150 70 60 150 70 60 150 70 60 175 95 85 175 95 85 175 95 85 175 95 85 175 95 85 175 95 85 175 95 85 175 95 85 150 70 60 150 70 60 150 70 60 150 70 60 150 70 60 150 70 60 150 70 60 150 70 60 175 95 85 175 95 85 175 95 85 175 95 85 175 95 85 175 95 85 175 95 85 175 95 85 175 95 85 175 95 85 175 95 85 175 95 85 175 95 85 175 95 85 175 95 85 175 95 85 150 70 60 150 70 60 150 70 60 150 70 60 150 70 60 150 70 60 150 70 60 150 70 60 175 95 85 175 95 85 175 95 85 175 95 85 175 95 85 175 95 85 175 95 85 175 95 85 150 70 60 150 70 60 150 70 60 150 70 60 150 70 60 150 70 60 150 70 60 150 70 60 175 95 85 175 95 85 175 95 85 175 95 85 175 95 85 175 95 85 175 95 85 175 95 85 150 70 60 150 70 60 150 70 60 150 70 60 150 70 60 150 70 60 150 70 60 150 70 60 150 70 60 150 70 60 150 70 60 150 70 60 150 70 60 150 70 60 150 70 60 150 70 60 175 95 85 175 95 85 175 95 85 175 95 85 175 95 85 175 95 85 175 95 85 175 95 85 150 70 60 150 70 60 150 70 60 150 70 60 150 70 60 150 70 60 150 70 60 150 70 60 175 95 85 175 95 85 175 95 85 175 95 85 175 95 85 175 95 85 175 95 85 175 95 85 150 70 60 150 70 60 150 70 60 150 70 60 150 70 60 150 70 60 150 70 60 150 70 60 175 95 85 175 95 85 175 95 85 175 95 85 175 95 85 175 95 85 175 95 85 175 95 85 175 95 85 175 95 85 175 95 85 175 95 85 175 95 85 175 95 85 175 95 85 175 95 85 150 70 60 150 70 60 150 70 60 150 70 60 150 70 60 150 70 60 150 70 60 150 70 60 175 95 85 175 95 85 175 95 85 175 95 85 175 95 85 175 95 85 175 95 85 175 95 85 150 70 60 150 70 60 150 70 60 150 70 60 150 70 60 150 70 60 150 70 60 150 70 60 175 95 85 175 95 85 175 95 85 175 95 85 175 95 85 175 95 85 175 95 85 175 95 85 150 70 60 150 70 60 150 70 60 150 70 60 150 70 60 150 70 60 150 70 60 150 70 60 150 70 60 150 70 60 150 70 60 150 70 60 150 70 60 150 70 60 150 70 60 150 70 60 175 95 85 175 95 85 175 95 85 175 95 85 175 95 85 175 95 85 175 95 85 175 95 85 150 70 60 150 70 60 150 70 60 150 70 60 150 70 60 150 70 60 150 70 60 150 70 60 175 95 85 175 95 85 175 95 85 175 95 85 175 95 85 175 95 85 175 95 85 175 95 85 150 70 60 150 70 60 150 70 60 150 70 60 150 70 60 150 70 60 150 70 60 150 70 60 175 95 85 175 95 85 175 95 85 175 95 85 175 95 85 175 95 85 175 95 85 175 95 85
150 70 60 150 70 60 150 70 60 150 70 60 150 70 60 150 70 60 150 70 60 150 70 60 175 95 85 175 95 85 175 95 85 175 95 85 175 95 85 175 95 85 175 95 85 175 95 85 150 70 60 150 70 60 150 70 60 150 70 60 150 70 60 150 70 60 150 70 60 150 70 60 175 95 85 175 95 85 175 95 85 175 95 85 175 95 85 175 95 85 175 95 85 175 95 85 150 70 60 150 70 60 150 70 60 150 70 60 150 70 60 150 70 60 150 70 60 150 70 60 175 95 85 175 95 85 175 95 85 175 95 85 175 95 85 175 95 85 175 95 85 175 95 85 175 95 85 175 95 85 175 95 85 175 95 85 175 95 85 175 95 85 175 95 85 175 95 85 150 70 60 150 70 60 150 70 60 150 70 60 150 70 60 150 70 60 150 70 60 150 70 60 175 95 85 175 95 85 175 95 85 175 95 85 175 95 85 175 95 85 175 95 85 175 95 85 150 70 60 150 70 60 150 70 60 150 70 60 150 70 60 150 70 60 150 70 60 150 70 60 175 95 85 175 95 85 175 95 85 175 95 85 175 95 85 175 95 85 175 95 85 175 95 85 150 70 60 150 70 60 150 70 60 150 70 60 150 70 60 150 70 60 150 70 60 150 70 60 150 70 60 150 70 60 150 70 60 150 70 60 150 70 60 150 70 60 150 70 60 150 70 60 175 95 85 175 95 85 175 95 85 175 95 85 175 95 85 175 95 85 175 95 85 175 95 85 150 70 60 150 70 60 150 70 60 150 70 60 150 70 60 150 70 60 150 70 60 150 70 60 175 95 85 175 95 85 175 95 85 175 95 85 175 95 85 175 95 85 175 95 85 175 95 85 150 70 60 150 70 60 150 70 60 150 70 60 150 70 60 150 70 60 150 70 60 150 70 60 175 95 85 175 95 85 175 95 85 175 95 85 175 95 85 175 95 85 175 95 85 175 95 85 175 95 85 175 95 85 175 95 85 175 95 85 175 95 85 175 95 85 175 95 85 175 95 85 150 70 60 150 70 60 150 70 60 150 70 60 150 70 60 150 70 60 150 70 60 150 70 60 175 95 85 175 95 85 175 95 85 175 95 85 175 95 85 175 95 85 175 95 85 175 95 85 150 70 60 150 70 60 150 70 60 150 70 60 150 70 60 150 70 60 150 70 60 150 70 60 175 95 85 175 95 85 175 95 85 175 95 85 175 95 85 175 95 85 175 95 85 175 95 85 150 70 60 150 70 60 150 70 60 150 70 60 150 70 60 150 70 60 150 70 60 150 70 60 150 70 60 150 70 60 150 70 60 150 70 60 150 70 60 150 70 60 150 70 60 150 70 60 175 95 85 175 95 85 175 95 85 175 95 85 175 95 85 175 95 85 175 95 85 175 95 85 150 70 60 150 70 60 150 70 60 150 70 60 150 70 60 150 70 60 150 70 60 150 70 60 175 95 85 175 95 85 175 95 85 175 95 85 175 95 85 175 95 85 175 95 85 175 95 85 150 70 60 150 70 60 150 70 60 150 70 60 150 70 60 150 70 60 150 70 60 150 70 60 175 95 85 175 95 85 175 95 85 175 95 85 175 95 85 175 95 85 175 95 85 175 95 85
175 95 85 175 95 85 175 95 85 175 95 85 175 95 85 175 95 85 175 95 85 175 95 85 150 70 60 150 70 60 150 70 60 150 70 60 150 70 60 150 70 60 150 70 60 150 70 60 175 95 85 175 95 85 175 95 85 175 95 85 175 95 85 175 95 85 175 95 85 175 95 85 150 70 60 150 70 60 150 70 60 150 70 60 150 70 60 150 70 60 150 70 60 150 70 60 175 95 85 175 95 85 175 95 85 175 95 85 175 95 85 175 95 85 175 95 85 175 95 85 150 70 60 150 70 60 150 70 60 150 70 60 150 70 60 150 70 60 150 70 60 150 70 60 150 70 60 150 70 60 150 70 60 150 70 60 150 70 60 150 70 60 150 70 60 150 70 60 175 95 85 175 95 85 175 95 85 175 95 85 175 95 85 175 95 85 175 95 85 175 95 85 150 70 60 150 70 60 150 70 60 150 70 60 150 70 60 150 70 60 150 70 60 150 70 60 175 95 85 175 95 85 175 95 85 175 95 85 175 95 85 175 95 85 175 95 85 175 95 85 150 70 60 150 70 60 150 70 60 150 70 60 150 70 60 150 70 60 150 70 60 150 70 60 175 95 85 175 95 85 175 95 85 175 95 85 175 95 85 175 95 85 175 95 85 175 95 85 175 95 85 175 95 85 175 95 85 175 95 85 175 95 85 175 95 85 175 95 85 175 95 85 150 70 60 150 70 60 150 70 60 150 70 60 150 70 60 150 70 60 150 70 60 150 70 60 175 95 85 175 95 85 175 95 85 175 95 85 175 95 85 175 95 85 175 95 85 175 95 85 150 70 60 150 70 60 150 70 60 150 70 60 150 70 60 150 70 60 150 70 60 150 70 60 175 95 85 175 95 85 175 95 85 175 95 85 175 95 85 175 95 85 175 95 85 175 95 85 150 70 60 150 70 60 150 70 60 150 70 60 150 70 60 150 70 60 150 70 60 150 70 60 150 70 60 150 70 60 150 70 60 150 70 60 150 70 60 150 70 60 150 70 60 150 70 60 175 95 85 175 95 85 175 95 85 175 95 85 175 95 85 175 95 85 175 95 85 175 95 85 150 70 60 150 70 60 150 70 60 150 70 60 150 70 60 150 70 60 150 70 60 150 70 60 175 95 85 175 95 85 175 95 85 175 95 85 175 95 85 175 95 85 175 95 85 175 95 85 150 70 60 150 70 60 150 70 60 150 70 60 150 70 60 150 70 60 150 70 60 150 70 60 175 95 85 175 95 85 175 95 85 175 95 85 175 95 85 175 95 85 175 95 85 175 95 85 175 95 85 175 95 85 175 95 85 175 95 85 175 95 85 175 95 85 175 95 85 175 95 85 150 70 60 150 70 60 150 70 60 150 70 60 150 70 60 150 70 60 150 70 60 150 70 60 175 95 85 175 95 85 175 95 85 175 95 85 175 95 85 175 95 85 175 95 85 175 95 85 150 70 60 150 70 60 150 70 60 150 70 60 150 70 60 150 70 60 150 70 60 150 70 60 175 95 85 175 95 85 175 95 85 175 95 85 175 95 85 175 95 85 175 95 85 175 95 85 150 70 60 150 70 60 150 70 60 150 70 60 150 70 60 150 70 60 150 70 60 150 70 60
175 95 85 175 95 85 175 95 85 175 95 85 175 95 85 175 95 85 175 95 85 175 95 85 150 70 60 150 70 60 150 70 60 150 70 60 150 70 60 150 70 60 150 70 60 150 70 60 175 95 85 175 95 85 175 95 85 175 95 85 175 95 85 175 95 85 175 95 85 175 95 85 150 70 60 150 70 60 150 70 60 150 70 60 150 70 60 150 70 60 150 70 60 150 70 60 175 95 85 175 95 85 175 95 85 175 95 85 175 95 85 175 95 85 175 95 85 175 95 85 150 70 60 150 70 60 150 70 60 150 70 60 150 70 60 150 70 60 150 70 60 150 70 60 150 70 60 150 70 60 150 70 60 150 70 60 150 70 60 150 70 60 150 70 60 150 70 60 175 95 85 175 95 85 175 95 85 175 95 85 175 95 85 175 95 85 175 95 85 175 95 85 150 70 60 150 70 60 150 70 60 150 70 60 150 70 60 150 70 60 150 70 60 150 70 60 175 95 85 175 95 85 175 95 85 175 95 85 175 95 85 175 95 85 175 95 85 175 95 85 150 70 60 150 70 60 150 70 60 150 70 60 150 70 60 150 70 60 150 70 60 150 70 60 175 95 85 175 95 85 175 95 85 175 95 85 175 95 85 175 95 85 175 95 85 175 95 85 175 95 85 175 95 85 175 95 85 175 95 85 175 95 85 175 95 85 175 95 85 175 95 85 150 70 60 150 70 60 150 70 60 150 70 60 150 70 60 150 70 60 150 70 60 150 70 60 175 95 85 175 95 85 175 95 85 175 95 85 175 95 85 175 95 85 175 95 85 175 95 85 150 70 60 150 70 60 150 70 60 150 70 60 150 70 60 150 70 60 150 70 60 150 70 60 175 95 85 175 95 85 175 95 85 175 95 85 175 95 85 175 95 85 175 95 85 175 95 85 150 70 60 150 70 60 150 70 60 150 70 60 150 70 60 150 70 60 150 70 60 150 70 60 150 70 60 150 70 60 150 70 60 150 70 60 150 70 60 150 70 60 150 70 60 150 70 60 175 95 85 175 95 85 175 95 85 175 95 85 175 95 85 175 95 85 175 95 85 175 95 85 150 70 60 150 70 60 150 70 60 150 70 60 150 70 60 150 70 60 150 70 60 150 70 60 175 95 85 175 95 85 175 95 85 175 95 85 175 95 85 175 95 85 175 95 85 175 95 85 150 70 60 150 70 60 150 70 60 150 70 60 150 70 60 150 70 60 150 70 60 150 70 60 175 95 85 175 95 85 175 95 85 175 95 85 175 95 85 175 95 85 175 95 85 175 95 85 175 95 85 175 95 85 175 95 85 175 95 85 175 95 85 175 95 85 175 95 85 175 95 85 150 70 60 150 70 60 150 70 60 150 70 60 150 70 60 150 70 60 150 70 60 150 70 60 175 95 85 175 95 85 175 95 85 175 95 85 175 95 85 175 95 85 175 95 85 175 95 85 150 70 60 150 70 60 150 70 60 150 70 60 150 70 60 150 70 60 150 70 60 150 70 60 175 95 85 175 95 85 175 95 85 175 95 85 175 95 85 175 95 85 175 95 85 175 95 85 150 70 60 150 70 60 150 70 60 150 70 60 150 70 60 150 70 60 150 70 60 150 70 60
175 95 85 175 95 85 175 95 85 175 95 85 175 95 85 175 95 85 175 95 85 175 95 85 150 70 60 150 70 60 150 70 60 150 70 60 150 70 60 150 70 60 150 70 60 150 70 60 175 95 85 175 95 85 175 95 85 175 95 85 175 95 85 175 95 85 175 95 85 175 95 85 150 70 60 150 70 60 150 70 60 150 70 60 150 70 60 150 70 60 150 70 60 150 70 60 175 95 85 175 95 85 175 95 85 175 95 85 175 95 85 175 95 85 175 95 85 175 95 85 150 70 60 150 70 60 150 70 60 150 70 60 150 70 60 150 70 60 150 70 60 150 70 60 150 70 60 150 70 60 150 70 60 150 70 60 150 70 60 150 70 60 150 70 60 150 70 60 175 95 85 175 95 85 175 95 85 175 95 85 175 95 85 175 95 85 175 95 85 175 95 85 150 70 60 150 70 60 150 70 60 150 70 60 150 70 60 150 70 60 150 70 60 150 70 60 175 95 85 175 95 85 175 95 85 175 95 85 175 95 85 175 95 85 175 95 85 175 95 85 150 70 60 150 70 60 150 70 60 150 70 60 150 70 60 150 70 60 150 70 60 150 70 60 175 95 85 175 95 85 175 95 85 175 95 85 175 95 85 175 95 85 175 95 85 175 95 85 175 95 85 175 95 85 175 95 85 175 95 85 175 95 85 175 95 85 175 95 85 175 95 85 150 70 60 150 70 60 150 70 60 150 70 60 150 70 60 150 70 60 150 70 60 150 70 60 175 95 85 175 95 85 175 95 85 175 95 85 175 95 85 175 95 85 175 95 85 175 95 85 150 70 60 150 70 60 150 70 60 150 70 60 150 70 60 150 70 60 150 70 60 150 70 60 175 95 85 175 95 85 175 95 85 175 95 85 175 95 85 175 95 85 175 95 85 175 95 85 150 70 60 150 70 60 150 70 60 150 70 60 150 70 60 150 70 60 150 70 60 150 70 60 150 70 60 150 70 60 150 70 60 150 70 60 150 70 60 150 70 60 150 70 60 150 70 60 175 95 85 175 95 85 175 95 85 175 95 85 175 95 85 175 95 85 175 95 85 175 95 85 150 70 60 150 70 60 150 70 60 150 70 60 150 70 60 150 70 60 150 70 60 150 70 60 175 95 85 175 95 85 175 95 85 175 95 85 175 95 85 175 95 85 175 95 85 175 95 85 150 70 60 150 70 60 150 70 60 150 70 60 150 70 60 150 70 60 150 70 60 150 70 60 175 95 85 175 95 85 175 95 85 175 95 85 175 95 85 175 95 85 175 95 85 175 95 85 175 95 85 175 95 85 175 95 85 175 95 85 175 95 85 175 95 85 175 95 85 175 95 85 150 70 60 150 70 60 150 70 60 150 70 60 150 70 60 150 70 60 150 70 60 150 70 60 175 95 85 175 95 85 175 95 85 175 95 85 175 95 85 175 95 85 175 95 85 175 95 85 150 70 60 150 70 60 150 70 60 150 70 60 150 70 60 150 70 60 150 70 60 150 70 60 175 95 85 175 95 85 175 95 85 175 95 85 175 95 85 175 95 85 175 95 85 175 95 85 150 70 60 150 70 60 150 70 60 150 70 60 150 70 60 150 70 60 150 70 60 150 70 60
175 95 85 175 95 85 175 95 85 175 95 85 175 95 85 175 95 85 175 95 85 175 95 85 150 70 60 150 70 60 150 70 60 150 70 60 150 70 60 150 70 60 150 70 60 150 70 60 175 95 85 175 95 85 175 95 85 175 95 85 175 95 85 175 95 85 175 95 85 175 95 85 150 70 60 150 70 60 150 70 60 150 70 60 150 70 60 150 70 60 150 70 60 150 70 60 175 95 85 175 95 85 175 95 85 175 95 85 175 95 85 175 95 85 175 95 85 175 95 85 150 70 60 150 70 60 150 70 60 150 70 60 150 70 60 150 70 60 150 70 60 150 70 60 150 70 60 150 70 60 150 70 60 150 70 60 150 70 60 150 70 60 150 70 60 150 70 60 175 95 85 175 95 85 175 95 85 175 95 85 175 95 85 175 95 85 175 95 85 175 95 85 150 70 60 150 70 60 150 70 60 150 70 60 150 70 60 150 70 60 150 70 60 150 70 60 175 95 85 175 95 85 175 95 85 175 95 85 175 95 85 175 95 85 175 95 85 175 95 85 150 70 60 150 70 60 150 70 60 150 70 60 150 70 60 150 70 60 150 70 60 150 70 60 175 95 85 175 95 85 175 95 85 175 95 85 175 95 85 175 95 85 175 95 85 175 95 85 175 95 85 175 95 85 175 95 85 175 95 85 175 95 85 175 95 85 175 95 85 175 95 85 150 70 60 150 70 60 150 70 60 150 70 60 150 70 60 150 70 60 150 70 60 150 70 60 175 95 85 175 95 85 175 95 85 175 95 85 175 95 85 175 95 85 175 95 85 175 95 85 150 70 60 150 70 60 150 70 60 150 70 60 150 70 60 150 70 60 150 70 60 150 70 60 175 95 85 175 95 85 175 95 85 175 95 85 175 95 85 175 95 85 175 95 85 175 95 85 150 70 60 150 70 60 150 70 60 150 70 60 150 70 60 150 70 60 150 70 60 150 70 60 150 70 60 150 70 60 150 70 60 150 70 60 150 70 60 150 70 60 150 70 60 150 70 60 175 95 85 175 95 85 175 95 85 175 95 85 175 95 85 175 95 85 175 95 85 175 95 85 150 70 60 150 70 60 150 70 60 150 70 60 150 70 60 150 70 60 150 70 60 150 70 60 175 95 85 175 95 85 175 95 85 175 95 85 175 95 85 175 95 85 175 95 85 175 95 85 150 70 60 150 70 60 150 70 60 150 70 60 150 70 60 150 70 60 150 70 60 150 70 60 175 95 85 175 95 85 175 95 85 175 95 85 175 95 85 175 95 85 175 95 85 175 95 85 175 95 85 175 95 85 175 95 85 175 95 85 175 95 85 175 95 85 175 95 85 175 95 85 150 70 60 150 70 60 150 70 60 150 70 60 150 70 60 150 70 60 150 70 60 150 70 60 175 95 85 175 95 85 175 95 85 175 95 85 175 95 85 175 95 85 175 95 85 175 95 85 150 70 60 150 70 60 150 70 60 150 70 60 150 70 60 150 70 60 150 70 60 150 70 60 175 95 85 175 95 85 175 95 85 175 95 85 175 95 85 175 95 85 175 95 85 175 95 85 150 70 60 150 70 60 150 70 60 150 70 60 150 70 60 150 70 60 150 70 60 150 70 60
175 95 85 175 95 85 175 95 85 175 95 85 175 95 85 175 95 85 175 95 85 175 95 85 150 70 60 150 70 60 150 70 60 150 70 60 150 70 60 150 70 60 150 70 60 150 70 60 175 95 85 175 95 85 175 95 85 175 95 85 175 95 85 175 95 85 175 95 85 175 95 85 150 70 60 150 70 60 150 70 60 150 70 60 150 70 60 150 70 60 150 70 60 150 70 60 175 95 85 175 95 85 175 95 85 175 95 85 175 95 85 175 95 85 175 95 85 175 95 85 150 70 60 150 70 60 150 70 60 150 70 60 150 70 60 150 70 60 150 70 60 150 70 60 150 70 60 150 70 60 150 70 60 150 70 60 150 70 60 150 70 60 150 70 60 150 70 60 175 95 85 175 95 85 175 95 85 175 95 85 175 95 85 175 95 85 175 95 85 175 95 85 150 70 60 150 70 60 150 70 60 150 70 60 150 70 60 150 70 60 150 70 60 150 70 60 175 95 85 175 95 85 175 95 85 175 95 85 175 95 85 175 95 85 175 95 85 175 95 85 150 70 60 150 70 60 150 70 60 150 70 60 150 70 60 150 70 60 150 70 60 150 70 60 175 95 85 175 95 85 175 95 85 175 95 85 175 95 85 175 95 85 175 95 85 175 95 85 175 95 85 175 95 85 175 95 85 175 95 85 175 95 85 175 95 85 175 95 85 175 95 85 150 70 60 150 70 60 150 70 60 150 70 60 150 70 60 150 70 60 150 70 60 150 70 60 175 95 85 175 95 85 175 95 85 175 95 85 175 95 85 175 95 85 175 95 85 175 95 85 150 70 60 150 70 60 150 70 60 150 70 60 150 70 60 150 70 60 150 70 60 150 70 60 175 95 85 175 95 85 175 95 85 175 95 85 175 95 85 175 95 85 175 95 85 175 95 85 150 70 60 150 70 60 150 70 60 150 70 60 150 70 60 150 70 60 150 70 60 150 70 60 150 70 60 150 70 60 150 70 60 150 70 60 150 70 60 150 70 60 150 70 60 150 70 60 175 95 85 175 95 85 175 95 85 175 95 85 175 95 85 175 95 85 175 95 85 175 95 85 150 70 60 150 70 60 150 70 60 150 70 60 150 70 60 150 70 60 150 70 60 150 70 60 175 95 85 175 95 85 175 95 85 175 95 85 175 95 85 175 95 85 175 95 85 175 95 85 150 70 60 150 70 60 150 70 60 150 70 60 150 70 60 150 70 60 150 70 60 150 70 60 175 95 85 175 95 85 175 95 85 175 95 85 175 95 85 175 95 85 175 95 85 175 95 85 175 95 85 175 95 85 175 95 85 175 95 85 175 95 85 175 95 85 175 95 85 175 95 85 150 70 60 150 70 60 150 70 60 150 70 60 150 70 60 150 70 60 150 70 60 150 70 60 175 95 85 175 95 85 175 95 85 175 95 85 175 95 85 175 95 85 175 95 85 175 95 85 150 70 60 150 70 60 150 70 60 150 70 60 150 70 60 150 70 60 150 70 60 150 70 60 175 95 85 175 95 85 175 95 85 175 95 85 175 95 85 175 95 85 175 95 85 175 95 85 150 70 60 150 70 60 150 70 60 150 70 60 150 70 60 150 70 60 150 70 60 150 70 60
175 95 85 175 95 85 175 95 85 175 95 85 175 95 85 175 95 85 175 95 85 175 95 85 150 70 60 150 70 60 150 70 60 150 70 60 150 70 60 150 70 60 150 70 60 150 70 60 175 95 85 175 95 85 175 95 85 175 95 85 175 95 85 175 95 85 175 95 85 175 95 85 150 70 60 150 70 60 150 70 60 150 70 60 150 70 60 150 70 60 150 70 60 150 70 60 175 95 85 175 95 85 175 95 85 175 95 85 175 95 85 175 95 85 175 95 85 175 95 85 150 70 60 150 70 60 150 70 60 150 70 60 150 70 60 150 70 60 150 70 60 150 70 60 150 70 60 150 70 60 150 70 60 150 70 60 150 70 60 150 70 60 150 70 60 150 70 60 175 95 85 175 95 85 175 95 85 175 95 85 175 95 85 175 95 85 175 95 85 175 95 85 150 70 60 150 70 60 150 70 60 150 70 60 150 70 60 150 70 60 150 70 60 150 70 60 175 95 85 175 95 85 175 95 85 175 95 85 175 95 85 175 95 85 175 95 85 175 95 85 150 70 60 150 70 60 150 70 60 150 70 60 150 70 60 150 70 60 150 70 60 150 70 60 175 95 85 175 95 85 175 95 85 175 95 85 175 95 85 175 95 85 175 95 85 175 95 85 175 95 85 175 95 85 175 95 85 175 95 85 175 95 85 175 95 85 175 95 85 175 95 85 150 70 60 150 70 60 150 70 60 150 70 60 150 70 60 150 70 60 150 70 60 150 70 60 175 95 85 175 95 85 175 95 85 175 95 85 175 95 85 175 95 85 175 95 85 175 95 85 150 70 60 150 70 60 150 70 60 150 70 60 150 70 60 150 70 60 150 70 60 150 70 60 175 95 85 175 95 85 175 95 85 175 95 85 175 95 85 175 95 85 175 95 85 175 95 85 150 70 60 150 70 60 150 70 60 150 70 60 150 70 60 150 70 60 150 70 60 150 70 60 150 70 60 150 70 60 150 70 60 150 70 60 150 70 60 150 70 60 150 70 60 150 70 60 175 95 85 175 95 85 175 95 85 175 95 85 175 95 85 175 95 85 175 95 85 175 95 85 150 70 60 150 70 60 150 70 60 150 70 60 150 70 60 150 70 60 150 70 60 150 70 60 175 95 85 175 95 85 175 95 85 175 95 85 175 95 85 175 95 85 175 95 85 175 95 85 150 70 60 150 70 60 150 70 60 150 70 60 150 70 60 150 70 60 150 70 60 150 70 60 175 95 85 175 95 85 175 95 85 175 95 85 175 95 85 175 95 85 175 95 85 175 95 85 175 95 85 175 95 85 175 95 85 175 95 85 175 95 85 175 95 85 175 95 85 175 95 85 150 70 60 150 70 60 150 70 60 150 70 60 150 70 60 150 70 60 150 70 60 150 70 60 175 95 85 175 95 85 175 95 85 175 95 85 175 95 85 175 95 85 175 95 85 175 95 85 150 70 60 150 70 60 150 70 60 150 70 60 150 70 60 150 70 60 150 70 60 150 70 60 175 95 85 175 95 85 175 95 85 175 95 85 175 95 85 175 95 85 175 95 85 175 95 85 150 70 60 150 70 60 150 70 60 150 70 60 150 70 60 150 70 60 150 70 60 150 70 60
175 95 85 175 95 85 175 95 85 175 95 85 175 95 85 175 95 85 175 95 85 175 95 85 150 70 60 150 70 60 150 70 60 150 70 60 150 70 60 150 70 60 150 70 60 150 70 60 175 95 85 175 95 85 175 95 85 175 95 85 175 95 85 175 95 85 175 95 85 175 95 85 150 70 60 150 70 60 150 70 60 150 70 60 150 70 60 150 70 60 150 70 60 150 70 60 175 95 85 175 95 85 175 95 85 175 95 85 175 95 85 175 95 85 175 95 85 175 95 85 150 70 60 150 70 60 150 70 60 150 70 60 150 70 60 150 70 60 150 70 60 150 70 60 150 70 60 150 70 60 150 70 60 150 70 60 150 70 60 150 70 60 150 70 60 150 70 60 175 95 85 175 95 85 175 95 85 175 95 85 175 95 85 175 95 85 175 95 85 175 95 85 150 70 60 150 70 60 150 70 60 150 70 60 150 70 60 150 70 60 150 70 60 150 70 60 175 95 85 175 95 85 175 95 85 175 95 85 175 95 85 175 95 85 175 95 85 175 95 85 150 70 60 150 70 60 150 70 60 150 70 60 150 70 60 150 70 60 150 70 60 150 70 60 175 95 85 175 95 85 175 95 85 175 95 85 175 95 85 175 95 85 175 95 85 175 95 85 175 95 85 175 95 85 175 95 85 175 95 85 175 95 85 175 95 85 175 95 85 175 95 85 150 70 60 150 70 60 150 70 60 150 70 60 150 70 60 150 70 60 150 70 60 150 70 60 175 95 85 175 95 85 175 95 85 175 95 85 175 95 85 175 95 85 175 95 85 175 95 85 150 70 60 150 70 60 150 70 60 150 70 60 150 70 60 150 70 60 150 70 60 150 70 60 175 95 85 175 95 85 175 95 85 175 95 85 175 95 85 175 95 85 175 95 85 175 95 85 150 70 60 150 70 60 150 70 60 150 70 60 150 70 60 150 70 60 150 70 60 150 70 60 150 70 60 150 70 60 150 70 60 150 70 60 150 70 60 150 70 60 150 70 60 150 70 60 175 95 85 175 95 85 175 95 85 175 95 85 175 95 85 175 95 85 175 95 85 175 95 85 150 70 60 150 70 60 150 70 60 150 70 60 150 70 60 150 70 60 150 70 60 150 70 60 175 95 85 175 95 85 175 95 85 175 95 85 175 95 85 175 95 85 175 95 85 175 95 85 150 70 60 150 70 60 150 70 60 150 70 60 150 70 60 150 70 60 150 70 60 150 70 60 175 95 85 175 95 85 175 95 85 175 95 85 175 95 85 175 95 85 175 95 85 175 95 85 175 95 85 175 95 85 175 95 85 175 95 85 175 95 85 175 95 85 175 95 85 175 95 85 150 70 60 150 70 60 150 70 60 150 70 60 150 70 60 150 70 60 150 70 60 150 70 60 175 95 85 175 95 85 175 95 85 175 95 85 175 95 85 175 95 85 175 95 85 175 95 85 150 70 60 150 70 60 150 70 60 150 70 60 150 70 60 150 70 60 150 70 60 150 70 60 175 95 85 175 95 85 175 95 85 175 95 85 175 95 85 175 95 85 175 95 85 175 95 85 150 70 60 150 70 60 150 70 60 150 70 60 150 70 60 150 70 60 150 70 60 150 70 60
175 95 85 175 95 85 175 95 85 175 95 85 175 95 85 175 95 85 175 95 85 175 95 85 150 70 60 150 70 60 150 70 60 150 70 60 150 70 60 150 70 60 150 70 60 150 70 60 175 95 85 175 95 85 175 95 85 175 95 85 175 95 85 175 95 85 175 95 85 175 95 85 150 70 60 150 70 60 150 70 60 150 70 60 150 70 60 150 70 60 150 70 60 150 70 60 175 95 85 175 95 85 175 95 85 175 95 85 175 95 85 175 95 85 175 95 85 175 95 85 150 70 60 150 70 60 150 70 60 150 70 60 150 70 60 150 70 60 150 70 60 150 70 60 150 70 60 150 70 60 150 70 60 150 70 60 150 70 60 150 70 60 150 70 60 150 70 60 175 95 85 175 95 85 175 95 85 175 95 85 175 95 85 175 95 85 175 95 85 175 95 85 150 70 60 150 70 60 150 70 60 150 70 60 150 70 60 150 70 60 150 70 60 150 70 60 175 95 85 175 95 85 175 95 85 175 95 85 175 95 85 175 95 85 175 95 85 175 95 85 150 70 60 150 70 60 150 70 60 150 70 60 150 70 60 150 70 60 150 70 60 150 70 60 175 95 85 175 95 85 175 95 85 175 95 85 175 95 85 175 95 85 175 95 85 175 95 85 175 95 85 175 95 85 175 95 85 175 95 85 175 95 85 175 95 85 175 95 85 175 95 85 150 70 60 150 70 60 150 70 60 150 70 60 150 70 60 150 70 60 150 70 60 150 70 60 175 95 85 175 95 85 175 95 85 175 95 85 175 95 85 175 95 85 175 95 85 175 95 85 150 70 60 150 70 60 150 70 60 150 70 60 150 70 60 150 70 60 150 70 60 150 70 60 175 95 85 175 95 85 175 95 85 175 95 85 175 95 85 175 95 85 175 95 85 175 95 85 150 70 60 150 70 60 150 70 60 150 70 60 150 70 60 150 70 60 150 70 60 150 70 60 150 70 60 150 70 60 150 70 60 150 70 60 150 70 60 150 70 60 150 70 60 150 70 60 175 95 85 175 95 85 175 95 85 175 95 85 175 95 85 175 95 85 175 95 85 175 95 85 150 70 60 150 70 60 150 70 60 150 70 60 150 70 60 150 70 60 150 70 60 150 70 60 175 95 85 175 95 85 175 95 85 175 95 85 175 95 85 175 95 85 175 95 85 175 95 85 150 70 60 150 70 60 150 70 60 150 70 60 150 70 60 150 70 60 150 70 60 150 70 60 175 95 85 175 95 85 175 95 85 175 95 85 175 95 85 175 95 85 175 95 85 175 95 85 175 95 85 175 95 85 175 95 85 175 95 85 175 95 85 175 95 85 175 95 85 175 95 85 150 70 60 150 70 60 150 70 60 150 70 60 150 70 60 150 70 60 150 70 60 150 70 60 175 95 85 175 95 85 175 95 85 175 95 85 175 95 85 175 95 85 175 95 85 175 95 85 150 70 60 150 70 60 150 70 60 150 70 60 150 70 60 150 70 60 150 70 60 150 70 60 175 95 85 175 95 85 175 95 85 175 95 85 175 95 85 175 95 85 175 95 85 175 95 85 150 70 60 150 70 60 150 70 60 150 70 60 150 70 60 150 70 60 150 70 60 150 70 60
85 170 100 85 170 100 85 170 100 85 170 100 85 170 100 85 170 100 85 170 100 85 170 100 60 145 75 60 145 75 60 145 75 60 145 75 60 145 75 60 145 75 60 145 75 60 145 75 85 170 100 85 170 100 85 170 100 85 170 100 85 170 100 85 170 100 85 170 100 85 170 100 60 145 75 60 145 75 60 145 75 60 145 75 60 145 75 60 145 75 60 145 75 60 145 75 85 170 100 85 170 100 85 170 100 85 170 100 85 170 100 85 170 100 85 170 100 85 170 100 60 145 75 60 145 75 60 145 75 60 145 75 60 145 75 60 145 75 60 145 75 60 145 75 60 145 75 60 145 75 60 145 75 60 145 75 60 145 75 60 145 75 60 145 75 60 145 75 85 170 100 85 170 100 85 170 100 85 170 100 85 170 100 85 170 100 85 170 100 85 170 100 60 145 75 60 145 75 60 145 75 60 145 75 60 145 75 60 145 75 60 145 75 60 145 75 85 170 100 85 170 100 85 170 100 85 170 100 85 170 100 85 170 100 85 170 100 85 170 100 60 145 75 60 145 75 60 145 75 60 145 75 60 145 75 60 145 75 60 145 75 60 145 75 85 170 100 85 170 100 85 170 100 85 170 100 85 170 100 85 170 100 85 170 100 85 170 100 85 170 100 85 170 100 85 170 100 85 170 100 85 170 100 85 170 100 85 170 100 85 170 100 60 145 75 60 145 75 60 145 75 60 145 75 60 145 75 60 145 75 60 145 75 60 145 75 85 170 100 85 170 100 85 170 100 85 170 100 85 170 100 85 170 100 85 170 100 85 170 100 60 145 75 60 145 75 60 145 75 60 145 75 60 145 75 60 145 75 60 145 75 60 145 75 85 170 100 85 170 100 85 170 100 85 170 100 85 170 100 85 170 100 85 170 100 85 170 100 60 145 75 60 145 75 60 145 75 60 145 75 60 145 75 60 145 75 60 145 75 60 145 75 60 85 165 60 85 165 60 85 165 60 85 165 60 85 165 60 85 165 60 85 165 60 85 165 85 110 190 85 110 190 85 110 190 85 110 190 85 110 190 85 110 190 85 110 190 85 110 190 60 85 165 60 85 165 60 85 165 60 85 165 60 85 165 60 85 165 60 85 165 60 85 165 85 110 190 85 110 190 85 110 190 85 110 190 85 110 190 85 110 190 85 110 190 85 110 190 60 85 165 60 85 165 60 85 165 60 85 165 60 85 165 60 85 165 60 85 165 60 85 165 85 110 190 85 110 190 85 110 190 85 110 190 85 110 190 85 110 190 85 110 190 85 110 190 85 110 190 85 110 190 85 110 190 85 110 190 85 110 190 85 110 190 85 110 190 85 110 190 60 85 165 60 85 165 60 85 165 60 85 165 60 85 165 60 85 165 60 85 165 60 85 165 85 110 190 85 110 190 85 110 190 85 110 190 85 110 190 85 110 190 85 110 190 85 110 190 60 85 165 60 85 165 60 85 165 60 85 165 60 85 165 60 85 165 60 85 165 60 85 165 85 110 190 85 110 190 85 110 190 85 110 190 85 110 190 85 110 190 85 110 190 85 110 190 60 85 165 60 85 165 60 85 165 60 85 165 60 85 165 60 85 165 60 85 165 60 85 165
85 170 100 85 170 100 85 170 100 85 170 100 85 170 100 85 170 100 85 170 100 85 170 100 60 145 75 60 145 75 60 145 75 60 145 75 60 145 75 60 145 75 60 145 75 60 145 75 85 170 100 85 170 100 85 170 100 85 170 100 85 170 100 85 170 100 85 170 100 85 170 100 60 145 75 60 145 75 60 145 75 60 145 75 60 145 75 60 145 75 60 145 75 60 145 75 85 170 100 85 170 100 85 170 100 85 170 100 85 170 100 85 170 100 85 170 100 85 170 100 60 145 75 60 145 75 60 145 75 60 145 75 60 145 75 60 145 75 60 145 75 60 145 75 60 145 75 60 145 75 60 145 75 60 145 75 60 145 75 60 145 75 60 145 75 60 145 75 85 170 100 85 170 100 85 170 100 85 170 100 85 170 100 85 170 100 85 170 100 85 170 100 60 145 75 60 145 75 60 145 75 60 145 75 60 145 75 60 145 75 60 145 75 60 145 75 85 170 100 85 170 100 85 170 100 85 170 100 85 170 100 85 170 100 85 170 100 85 170 100 60 145 75 60 145 75 60 145 75 60 145 75 60 145 75 60 145 75 60 145 75 60 145 75 85 170 100 85 170 100 85 170 100 85 170 100 85 170 100 85 170 100 85 170 100 85 170 100 85 170 100 85 170 100 85 170 100 85 170 100 85 170 100 85 170 100 85 170 100 85 170 100 60 145 75 60 145 75 60 145 75 60 145 75 60 145 75 60 145 75 60 145 75 60 145 75 85 170 100 85 170 100 85 170 100 85 170 100 85 170 100 85 170 100 85 170 100 85 170 100 60 145 75 60 145 75 60 145 75 60 145 75 60 145 75 60 145 75 60 145 75 60 145 75 85 170 100 85 170 100 85 170 100 85 170 100 85 170 100 85 170 100 85 170 100 85 170 100 60 145 75 60 145 75 60 145 75 60 145 75 60 145 75 60 145 75 60 145 75 60 145 75 60 85 165 60 85 165 60 85 165 60 85 165 60 85 165 60 85 165 60 85 165 60 85 165 85 110 190 85 110 190 85 110 190 85 110 190 85 110 190 85 110 190 85 110 190 85 110 190 60 85 165 60 85 165 60 85 165 60 85 165 60 85 165 60 85 165 60 85 165 60 85 165 85 110 190 85 110 190 85 110 190 85 110 190 85 110 190 85 110 190 85 110 190 85 110 190 60 85 165 60 85 165 60 85 165 60 85 165 60 85 165 60 85 165 60 85 165 60 85 165 85 110 190 85 110 190 85 110 190 85 110 190 85 110 190 85 110 190 85 110 190 85 110 190 85 110 190 85 110 190 85 110 190 85 110 190 85 110 190 85 110 190 85 110 190 85 110 190 60 85 165 60 85 165 60 85 165 60 85 165 60 85 165 60 85 165 60 85 165 60 85 165 85 110 190 85 110 190 85 110 190 85 110 190 85 110 190 85 110 190 85 110 190 85 110 190 60 85 165 60 85 165 60 85 165 60 85 165 60 85 165 60 85 165 60 85 165 60 85 165 85 110 190 85 110 190 85 110 190 85 110 190 85 110 190 85 110 190 85 110 190 85 110 190 60 85 165 60 85 165 60 85 165 60 85 165 60 85 165 60 85 165 60 85 165 60 85 165
85 170 100 85 170 100 85 170 100 85 170 100 85 170 100 85 170 100 85 170 100 85 170 100 60 145 75 60 145 75 60 145 75 60 145 75 60 145 75 60 145 75 60 145 75 60 145 75 85 170 100 85 170 100 85 170 100 85 170 100 85 170 100 85 170 100 85 170 100 85 170 100 60 145 75 60 145 75 60 145 75 60 145 75 60 145 75 60 145 75 60 145 75 60 145 75 85 170 100 85 170 100 85 170 100 85 170 100 85 170 100 85 170 100 85 170 100 85 170 100 60 145 75 60 145 75 60 145 75 60 145 75 60 145 75 60 145 75 60 145 75 60 145 75 60 145 75 60 145 75 60 145 75 60 145 75 60 145 75 60 145 75 60 145 75 60 145 75 85 170 100 85 170 100 85 170 100 85 170 100 85 170 100 85 170 100 85 170 100 85 170 100 60 145 75 60 145 75 60 145 75 60 145 75 60 145 75 60 145 75 60 145 75 60 145 75 85 170 100 85 170 100 85 170 100 85 170 100 85 170 100 85 170 100 85 170 100 85 170 100 60 145 75 60 145 75 60 145 75 60 145 75 60 145 75 60 145 75 60 145 75 60 145 75 85 170 100 85 170 100 85 170 100 85 170 100 85 170 100 85 170 100 85 170 100 85 170 100 85 170 100 85 170 100 85 170 100 85 170 100 85 170 100 85 170 100 85 170 100 85 170 100 60 145 75 60 145 75 60 145 75 60 145 75 60 145 75 60 145 75 60 145 75 60 145 75 85 170 100 85 170 100 85 170 100 85 170 100 85 170 100 85 170 100 85 170 100 85 170 100 60 145 75 60 145 75 60 145 75 60 145 75 60 145 75 60 145 75 60 145 75 60 145 75 85 170 100 85 170 100 85 170 100 85 170 100 85 170 100 85 170 100 85 170 100 85 170 100 60 145 75 60 145 75 60 145 75 60 145 75 60 145 75 60 145 75 60 145 75 60 145 75 60 85 165 60 85 165 60 85 165 60 85 165 60 85 165 60 85 165 60 85 165 60 85 165 85 110 190 85 110 190 85 110 190 85 110 190 85 110 190 85 110 190 85 110 190 85 110 190 60 85 165 60 85 165 60 85 165 60 85 165 60 85 165 60 85 165 60 85 165 60 85 165 85 110 190 85 110 190 85 110 190 85 110 190 85 110 190 85 110 190 85 110 190 85 110 190 60 85 165 60 85 165 60 85 165 60 85 165 60 85 165 60 85 165 60 85 165 60 85 165 85 110 190 85 110 190 85 110 190 85 110 190 85 110 190 85 110 190 85 110 190 85 110 190 85 110 190 85 110 190 85 110 190 85 110 190 85 110 190 85 110 190 85 110 190 85 110 190 60 85 165 60 85 165 60 85 165 60 85 165 60 85 165 60 85 165 60 85 165 60 85 165 85 110 190 85 110 190 85 110 190 85 110 190 85 110 190 85 110 190 85 110 190 85 110 190 60 85 165 60 85 165 60 85 165 60 85 165 60 85 165 60 85 165 60 85 165 60 85 165 85 110 190 85 110 190 85 110 190 85 110 190 85 110 190 85 110 190 85 110 190 85 110 190 60 85 165 60 85 165 60 85 165 60 85 165 60 85 165 60 85 165 60 85 165 60 85 165
85 170 100 85 170 100 85 170 100 85 170 100 85 170 100 85 170 100 85 170 100 85 170 100 60 145 75 60 145 75 60 145 75 60 145 75 60 145 75 60 145 75 60 145 75 60 145 75 85 170 100 85 170 100 85 170 100 85 170 100 85 170 100 85 170 100 85 170 100 85 170 100 60 145 75 60 145 75 60 145 75 60 145 75 60 145 75 60 145 75 60 145 75 60 145 75 85 170 100 85 170 100 85 170 100 85 170 100 85 170 100 85 170 100 85 170 100 85 170 100 60 145 75 60 145 75 60 145 75 60 145 75 60 145 75 60 145 75 60 145 75 60 145 75 60 145 75 60 145 75 60 145 75 60 145 75 60 145 75 60 145 75 60 145 75 60 145 75 85 170 100 85 170 100 85 170 100 85 170 100 85 170 100 85 170 100 85 170 100 85 170 100 60 145 75 60 145 75 60 145 75 60 145 75 60 145 75 60 145 75 60 145 75 60 145 75 85 170 100 85 170 100 85 170 100 85 170 100 85 170 100 85 170 100 85 170 100 85 170 100 60 145 75 60 145 75 60 145 75 60 145 75 60 145 75 60 145 75 60 145 75 60 145 75 85 170 100 85 170 100 85 170 100 85 170 100 85 170 100 85 170 100 85 170 100 85 170 100 85 170 100 85 170 100 85 170 100 85 170 100 85 170 100 85 170 100 85 170 100 85 170 100 60 145 75 60 145 75 60 145 75 60 145 75 60 145 75 60 145 75 60 145 75 60 145 75 85 170 100 85 170 100 85 170 100 85 170 100 85 170 100 85 170 100 85 170 100 85 170 100 60 145 75 60 145 75 60 145 75 60 145 75 60 145 75 60 145 75 60 145 75 60 145 75 85 170 100 85 170 100 85 170 100 85 170 100 85 170 100 85 170 100 85 170 100 85 170 100 60 145 75 60 145 75 60 145 75 60 145 75 60 145 75 60 145 75 60 145 75 60 145 75 60 85 165 60 85 165 60 85 165 60 85 165 60 85 165 60 85 165 60 85 165 60 85 165 85 110 190 85 110 190 85 110 190 85 110 190 85 110 190 85 110 190 85 110 190 85 110 190 60 85 165 60 85 165 60 85 165 60 85 165 60 85 165 60 85 165 60 85 165 60 85 165 85 110 190 85 110 190 85 110 190 85 110 190 85 110 190 85 110 190 85 110 190 85 110 190 60 85 165 60 85 165 60 85 165 60 85 165 60 85 165 60 85 165 60 85 165 60 85 165 85 110 190 85 110 190 85 110 190 85 110 190 85 110 190 85 110 190 85 110 190 85 110 190 85 110 190 85 110 190 85 110 190 85 110 190 85 110 190 85 110 190 85 110 190 85 110 190 60 85 165 60 85 165 60 85 165 60 85 165 60 85 165 60 85 165 60 85 165 60 85 165 85 110 190 85 110 190 85 110 190 85 110 190 85 110 190 85 110 190 85 110 190 85 110 190 60 85 165 60 85 165 60 85 165 60 85 165 60 85 165 60 85 165 60 85 165 60 85 165 85 110 190 85 110 190 85 110 190 85 110 190 85 110 190 85 110 190 85 110 190 85 110 190 60 85 165 60 85 165 60 85 165 60 85 165 60 85 165 60 85 165 60 85 165 60 85 165
85 170 100 85 170 100 85 170 100 85 170 100 85 170 100 85 170 100 85 170 100 85 170 100 60 145 75 60 145 75 60 145 75 60 145 75 60 145 75 60 145 75 60 145 75 60 145 75 85 170 100 85 170 100 85 170 100 85 170 100 85 170 100 85 170 100 85 170 100 85 170 100 60 145 75 60 145 75 60 145 75 60 145 75 60 145 75 60 145 75 60 145 75 60 145 75 85 170 100 85 170 100 85 170 100 85 170 100 85 170 100 85 170 100 85 170 100 85 170 100 60 145 75 60 145 75 60 145 75 60 145 75 60 145 75 60 145 75 60 145 75 60 145 75 60 145 75 60 145 75 60 145 75 60 145 75 60 145 75 60 145 75 60 145 75 60 145 75 85 170 100 85 170 100 85 170 100 85 170 100 85 170 100 85 170 100 85 170 100 85 170 100 60 145 75 60 145 75 60 145 75 60 145 75 60 145 75 60 145 75 60 145 75 60 145 75 85 170 100 85 170 100 85 170 100 85 170 100 85 170 100 85 170 100 85 170 100 85 170 100 60 145 75 60 145 75 60 145 75 60 145 75 60 145 75 60 145 75 60 145 75 60 145 75 85 170 100 85 170 100 85 170 100 85 170 100 85 170 100 85 170 100 85 170 100 85 170 100 85 170 100 85 170 100 85 170 100 85 170 100 85 170 100 85 170 100 85 170 100 85 170 100 60 145 75 60 145 75 60 145 75 60 145 75 60 145 75 60 145 75 60 145 75 60 145 75 85 170 100 85 170 100 85 170 100 85 170 100 85 170 100 85 170 100 85 170 100 85 170 100 60 145 75 60 145 75 60 145 75 60 145 75 60 145 75 60 145 75 60 145 75 60 145 75 85 170 100 85 170 100 85 170 100 85 170 100 85 170 100 85 170 100 85 170 100 85 170 100 60 145 75 60 145 75 60 145 75 60 145 75 60 145 75 60 145 75 60 145 75 60 145 75 60 85 165 60 85 165 60 85 165 60 85 165 60 85 165 60 85 165 60 85 165 60 85 165 85 110 190 85 110 190 85 110 190 85 110 190 85 110 190 85 110 190 85 110 190 85 110 190 60 85 165 60 85 165 60 85 165 60 85 165 60 85 165 60 85 165 60 85 165 60 85 165 85 110 190 85 110 190 85 110 190 85 110 190 85 110 190 85 110 190 85 110 190 85 110 190 60 85 165 60 85 165 60 85 165 60 85 165 60 85 165 60 85 165 60 85 165 60 85 165 85 110 190 85 110 190 85 110 190 85 110 190 85 110 190 85 110 190 85 110 190 85 110 190 85 110 190 85 110 190 85 110 190 85 110 190 85 110 190 85 110 190 85 110 190 85 110 190 60 85 165 60 85 165 60 85 165 60 85 165 60 85 165 60 85 165 60 85 165 60 85 165 85 110 190 85 110 190 85 110 190 85 110 190 85 110 190 85 110 190 85 110 190 85 110 190 60 85 165 60 85 165 60 85 165 60 85 165 60 85 165 60 85 165 60 85 165 60 85 165 85 110 190 85 110 190 85 110 190 85 110 190 85 110 190 85 110 190 85 110 190 85 110 190 60 85 165 60 85 165 60 85 165 60 85 165 60 85 165 60 85 165 60 85 165 60 85 165
85 170 100 85 170 100 85 170 100 85 170 100 85 170 100 85 170 100 85 170 100 85 170 100 60 145 75 60 145 75 60 145 75 60 145 75 60 145 75 60 145 75 60 145 75 60 145 75 85 170 100 85 170 100 85 170 100 85 170 100 85 170 100 85 170 100 85 170 100 85 170 100 60 145 75 60 145 75 60 145 75 60 145 75 60 145 75 60 145 75 60 145 75 60 145 75 85 170 100 85 170 100 85 170 100 85 170 100 85 170 100 85 170 100 85 170 100 85 170 100 60 145 75 60 145 75 60 145 75 60 145 75 60 145 75 60 145 75 60 145 75 60 145 75 60 145 75 60 145 75 60 145 75 60 145 75 60 145 75 60 145 75 60 145 75 60 145 75 85 170 100 85 170 100 85 170 100 85 170 100 85 170 100 85 170 100 85 170 100 85 170 100 60 145 75 60 145 75 60 145 75 60 145 75 60 145 75 60 145 75 60 145 75 60 145 75 85 170 100 85 170 100 85 170 100 85 170 100 85 170 100 85 170 100 85 170 100 85 170 100 60 145 75 60 145 75 60 145 75 60 145 75 60 145 75 60 145 75 60 145 75 60 145 75 85 170 100 85 170 100 85 170 100 85 170 100 85 170 100 85 170 100 85 170 100 85 170 100 85 170 100 85 170 100 85 170 100 85 170 100 85 170 100 85 170 100 85 170 100 85 170 100 60 145 75 60 145 75 60 145 75 60 145 75 60 145 75 60 145 75 60 145 75 60 145 75 85 170 100 85 170 100 85 170 100 85 170 100 85 170 100 85 170 100 85 170 100 85 170 100 60 145 75 60 145 75 60 145 75 60 145 75 60 145 75 60 145 75 60 145 75 60 145 75 85 170 100 85 170 100 85 170 100 85 170 100 85 170 100 85 170 100 85 170 100 85 170 100 60 145 75 60 145 75 60 145 75 60 145 75 60 145 75 60 145 75 60 145 75 60 145 75 60 85 165 60 85 165 60 85 165 60 85 165 60 85 165 60 85 165 60 85 165 60 85 165 85 110 190 85 110 190 85 110 190 85 110 190 85 110 190 85 110 190 85 110 190 85 110 190 60 85 165 60 85 165 60 85 165 60 85 165 60 85 165 60 85 165 60 85 165 60 85 165 85 110 190 85 110 190 85 110 190 85 110 190 85 110 190 85 110 190 85 110 190 85 110 190 60 85 165 60 85 165 60 85 165 60 85 165 60 85 165 60 85 165 60 85 165 60 85 165 85 110 190 85 110 190 85 110 190 85 110 190 85 110 190 85 110 190 85 110 190 85 110 190 85 110 190 85 110 190 85 110 190 85 110 190 85 110 190 85 110 190 85 110 190 85 110 190 60 85 165 60 85 165 60 85 165 60 85 165 60 85 165 60 85 165 60 85 165 60 85 165 85 110 190 85 110 190 85 110 190 85 110 190 85 110 190 85 110 190 85 110 190 85 110 190 60 85 165 60 85 165 60 85 165 60 85 165 60 85 165 60 85 165 60 85 165 60 85 165 85 110 190 85 110 190 85 110 190 85 110 190 85 110 190 85 110 190 85 110 190 85 110 190 60 85 165 60 85 165 60 85 165 60 85 165 60 85 165 60 85 165 60 85 165 60 85 165
85 170 100 85 170 100 85 170 100 85 170 100 85 170 100 85 170 100 85 170 100 85 170 100 60 145 75 60 145 75 60 145 75 60 145 75 60 145 75 60 145 75 60 145 75 60 145 75 85 170 100 85 170 100 85 170 100 85 170 100 85 170 100 85 170 100 85 170 100 85 170 100 60 145 75 60 145 75 60 145 75 60 145 75 60 145 75 60 145 75 60 145 75 60 145 75 85 170 100 85 170 100 85 170 100 85 170 100 85 170 100 85 170 100 85 170 100 85 170 100 60 145 75 60 145 75 60 145 75 60 145 75 60 145 75 60 145 75 60 145 75 60 145 75 60 145 75 60 145 75 60 145 75 60 145 75 60 145 75 60 145 75 60 145 75 60 145 75 85 170 100 85 170 100 85 170 100 85 170 100 85 170 100 85 170 100 85 170 100 85 170 100 60 145 75 60 145 75 60 145 75 60 145 75 60 145 75 60 145 75 60 145 75 60 145 75 85 170 100 85 170 100 85 170 100 85 170 100 85 170 100 85 170 100 85 170 100 85 170 100 60 145 75 60 145 75 60 145 75 60 145 75 60 145 75 60 145 75 60 145 75 60 145 75 85 170 100 85 170 100 85 170 100 85 170 100 85 170 100 85 170 100 85 170 100 85 170 100 85 170 100 85 170 100 85 170 100 85 170 100 85 170 100 85 170 100 85 170 100 85 170 100 60 145 75 60 145 75 60 145 75 60 145 75 60 145 75 60 145 75 60 145 75 60 145 75 85 170 100 85 170 100 85 170 100 85 170 100 85 170 100 85 170 100 85 170 100 85 170 100 60 145 75 60 145 75 60 145 75 60 145 75 60 145 75 60 145 75 60 145 75 60 145 75 85 170 100 85 170 100 85 170 100 85 170 100 85 170 100 85 170 100 85 170 100 85 170 100 60 145 75 60 145 75 60 145 75 60 145 75 60 145 75 60 145 75 60 145 75 60 145 75 60 85 165 60 85 165 60 85 165 60 85 165 60 85 165 60 85 165 60 85 165 60 85 165 85 110 190 85 110 190 85 110 190 85 110 190 85 110 190 85 110 190 85 110 190 85 110 190 60 85 165 60 85 165 60 85 165 60 85 165 60 85 165 60 85 165 60 85 165 60 85 165 85 110 190 85 110 190 85 110 190 85 110 190 85 110 190 85 110 190 85 110 190 85 110 190 60 85 165 60 85 165 60 85 165 60 85 165 60 85 165 60 85 165 60 85 165 60 85 165 85 110 190 85 110 190 85 110 190 85 110 190 85 110 190 85 110 190 85 110 190 85 110 190 85 110 190 85 110 190 85 110 190 85 110 190 85 110 190 85 110 190 85 110 190 85 110 190 60 85 165 60 85 165 60 85 165 60 85 165 60 85 165 60 85 165 60 85 165 60 85 165 85 110 190 85 110 190 85 110 190 85 110 190 85 110 190 85 110 190 85 110 190 85 110 190 60 85 165 60 85 165 60 85 165 60 85 165 60 85 165 60 85 165 60 85 165 60 85 165 85 110 190 85 110 190 85 110 190 85 110 190 85 110 190 85 110 190 85 110 190 85 110 190 60 85 165 60 85 165 60 85 165 60 85 165 60 85 165 60 85 165 60 85 165 60 85 165
85 170 100 85 170 100 85 170 100 85 170 100 85 170 100 85 170 100 85 170 100 85 170 100 60 145 75 60 145 75 60 145 75 60 145 75 60 145 75 60 145 75 60 145 75 60 145 75 85 170 100 85 170 100 85 170 100 85 170 100 85 170 100 85 170 100 85 170 100 85 170 100 60 145 75 60 145 75 60 145 75 60 145 75 60 145 75 60 145 75 60 145 75 60 145 75 85 170 100 85 170 100 85 170 100 85 170 100 85 170 100 85 170 100 85 170 100 85 170 100 60 145 75 60 145 75 60 145 75 60 145 75 60 145 75 60 145 75 60 145 75 60 145 75 60 145 75 60 145 75 60 145 75 60 145 75 60 145 75 60 145 75 60 145 75 60 145 75 85 170 100 85 170 100 85 170 100 85 170 100 85 170 100 85 170 100 85 170 100 85 170 100 60 145 75 60 145 75 60 145 75 60 145 75 60 145 75 60 145 75 60 145 75 60 145 75 85 170 100 85 170 100 85 170 100 85 170 100 85 170 100 85 170 100 85 170 100 85 170 100 60 145 75 60 145 75 60 145 75 60 145 75 60 145 75 60 145 75 60 145 75 60 145 75 85 170 100 85 170 100 85 170 100 85 170 100 85 170 100 85 170 100 85 170 100 85 170 100 85 170 100 85 170 100 85 170 100 85 170 100 85 170 100 85 170 100 85 170 100 85 170 100 60 145 75 60 145 75 60 145 75 60 145 75 60 145 75 60 145 75 60 145 75 60 145 75 85 170 100 85 170 100 85 170 100 85 170 100 85 170 100 85 170 100 85 170 100 85 170 100 60 145 75 60 145 75 60 145 75 60 145 75 60 145 75 60 145 75 60 145 75 60 145 75 85 170 100 85 170 100 85 170 100 85 170 100 85 170 100 85 170 100 85 170 100 85 170 100 60 145 75 60 145 75 60 145 75 60 145 75 60 145 75 60 145 75 60 145 75 60 145 75 60 85 165 60 85 165 60 85 165 60 85 165 60 85 165 60 85 165 60 85 165 60 85 165 85 110 190 85 110 190 85 110 190 85 110 190 85 110 190 85 110 190 85 110 190 85 110 190 60 85 165 60 85 165 60 85 165 60 85 165 60 85 165 60 85 165 60 85 165 60 85 165 85 110 190 85 110 190 85 110 190 85 110 190 85 110 190 85 110 190 85 110 190 85 110 190 60 85 165 60 85 165 60 85 165 60 85 165 60 85 165 60 85 165 60 85 165 60 85 165 85 110 190 85 110 190 85 110 190 85 110 190 85 110 190 85 110 190 85 110 190 85 110 190 85 110 190 85 110 190 85 110 190 85 110 190 85 110 190 85 110 190 85 110 190 85 110 190 60 85 165 60 85 165 60 85 165 60 85 165 60 85 165 60 85 165 60 85 165 60 85 165 85 110 190 85 110 190 85 110 190 85 110 190 85 110 190 85 110 190 85 110 190 85 110 190 60 85 165 60 85 165 60 85 165 60 85 165 60 85 165 60 85 165 60 85 165 60 85 165 85 110 190 85 110 190 85 110 190 85 110 190 85 110 190 85 110 190 85 110 190 85 110 190 60 85 165 60 85 165 60 85 165 60 85 165 60 85 165 60 85 165 60 85 165 60 85 165
60 145 75 60 145 75 60 145 75 60 145 75 60 145 75 60 145 75 60 145 75 60 145 75 85 170 100 85 170 100 85 170 100 85 170 100 85 170 100 85 170 100 85 170 100 85 170 100 60 145 75 60 145 75 60 145 75 60 145 75 60 145 75 60 145 75 60 145 75 60 145 75 85 170 100 85 170 100 85 170 100 85 170 100 85 170 100 85 170 100 85 170 100 85 170 100 60 145 75 60 145 75 60 145 75 60 145 75 60 145 75 60 145 75 60 145 75 60 145 75 85 170 100 85 170 100 85 170 100 85 170 100 85 170 100 85 170 100 85 170 100 85 170 100 85 170 100 85 170 100 85 170 100 85 170 100 85 170 100 85 170 100 85 170 100 85 170 100 60 145 75 60 145 75 60 145 75 60 145 75 60 145 75 60 145 75 60 145 75 60 145 75 85 170 100 85 170 100 85 170 100 85 170 100 85 170 100 85 170 100 85 170 100 85 170 100 60 145 75 60 145 75 60 145 75 60 145 75 60 145 75 60 145 75 60 145 75 60 145 75 85 170 100 85 170 100 85 170 100 85 170 100 85 170 100 85 170 100 85 170 100 85 170 100 60 145 75 60 145 75 60 145 75 60 145 75 60 145 75 60 145 75 60 145 75 60 145 75 60 145 75 60 145 75 60 145 75 60 145 75 60 145 75 60 145 75 60 145 75 60 145 75 85 170 100 85 170 100 85 170 100 85 170 100 85 170 100 85 170 100 85 170 100 85 170 100 60 145 75 60 145 75 60 145 75 60 145 75 60 145 75 60 145 75 60 145 75 60 145 75 85 170 100 85 170 100 85 170 100 85 170 100 85 170 100 85 170 100 85 170 100 85 170 100 60 145 75 60 145 75 60 145 75 60 145 75 60 145 75 60 145 75 60 145 75 60 145 75 85 170 100 85 170 100 85 170 100 85 170 100 85 170 100 85 170 100 85 170 100 85 170 100 85 110 190 85 110 190 85 110 190 85 110 190 85 110 190 85 110 190 85 110 190 85 110 190 60 85 165 60 85 165 60 85 165 60 85 165 60 85 165 60 85 165 60 85 165 60 85 165 85 110 190 85 110 190 85 110 190 85 110 190 85 110 190 85 110 190 85 110 190 85 110 190 60 85 165 60 85 165 60 85 165 60 85 165 60 85 165 60 85 165 60 85 165 60 85 165 85 110 190 85 110 190 85 110 190 85 110 190 85 110 190 85 110 190 85 110 190 85 110 190 60 85 165 60 85 165 60 85 165 60 85 165 60 85 165 60 85 165 60 85 165 60 85 165 60 85 165 60 85 165 60 85 165 60 85 165 60 85 165 60 85 165 60 85 165 60 85 165 85 110 190 85 110 190 85 110 190 85 110 190 85 110 190 85 110 190 85 110 190 85 110 190 60 85 165 60 85 165 60 85 165 60 85 165 60 85 165 60 85 165 60 85 165 60 85 165 85 110 190 85 110 190 85 110 190 85 110 190 85 110 190 85 110 190 85 110 190 85 110 190 60 85 165 60 85 165 60 85 165 60 85 165 60 85 165 60 85 165 60 85 165 60 85 165 85 110 190 85 110 190 85 110 190 85 110 190 85 110 190 85 110 190 85 110 190 85 110 190
60 145 75 60 145 75 60 145 75 60 145 75 60 145 75 60 145 75 60 145 75 60 145 75 85 170 100 85 170 100 85 170 100 85 170 100 85 170 100 85 170 100 85 170 100 85 170 100 60 145 75 60 145 75 60 145 75 60 145 75 60 145 75 60 145 75 60 145 75 60 145 75 85 170 100 85 170 100 85 170 100 85 170 100 85 170 100 85 170 100 85 170 100 85 170 100 60 145 75 60 145 75 60 145 75 60 145 75 60 145 75 60 145 75 60 145 75 60 145 75 85 170 100 85 170 100 85 170 100 85 170 100 85 170 100 85 170 100 85 170 100 85 170 100 85 170 100 85 170 100 85 170 100 85 170 100 85 170 100 85 170 100 85 170 100 85 170 100 60 145 75 60 145 75 60 145 75 60 145 75 60 145 75 60 145 75 60 145 75 60 145 75 85 170 100 85 170 100 85 170 100 85 170 100 85 170 100 85 170 100 85 170 100 85 170 100 60 145 75 60 145 75 60 145 75 60 145 75 60 145 75 60 145 75 60 145 75 60 145 75 85 170 100 85 170 100 85 170 100 85 170 100 85 170 100 85 170 100 85 170 100 85 170 100 60 145 75 60 145 75 60 145 75 60 145 75 60 145 75 60 145 75 60 145 75 60 145 75 60 145 75 60 145 75 60 145 75 60 145 75 60 145 75 60 145 75 60 145 75 60 145 75 85 170 100 85 170 100 85 170 100 85 170 100 85 170 100 85 170 100 85 170 100 85 170 100 60 145 75 60 145 75 60 145 75 60 145 75 60 145 75 60 145 75 60 145 75 60 145 75 85 170 100 85 170 100 85 170 100 85 170 100 85 170 100 85 170 100 85 170 100 85 170 100 60 145 75 60 145 75 60 145 75 60 145 75 60 145 75 60 145 75 60 145 75 60 145 75 85 170 100 85 170 100 85 170 100 85 170 100 85 170 100 85 170 100 85 170 100 85 170 100 85 110 190 85 110 190 85 110 190 85 110 190 85 110 190 85 110 190 85 110 190 85 110 190 60 85 165 60 85 165 60 85 165 60 85 165 60 85 165 60 85 165 60 85 165 60 85 165 85 110 190 85 110 190 85 110 190 85 110 190 85 110 190 85 110 190 85 110 190 85 110 190 60 85 165 60 85 165 60 85 165 60 85 165 60 85 165 60 85 165 60 85 165 60 85 165 85 110 190 85 110 190 85 110 190 85 110 190 85 110 190 85 110 190 85 110 190 85 110 190 60 85 165 60 85 165 60 85 165 60 85 165 60 85 165 60 85 165 60 85 165 60 85 165 60 85 165 60 85 165 60 85 165 60 85 165 60 85 165 60 85 165 60 85 165 60 85 165 85 110 190 85 110 190 85 110 190 85 110 190 85 110 190 85 110 190 85 110 190 85 110 190 60 85 165 60 85 165 60 85 165 60 85 165 60 85 165 60 85 165 60 85 165 60 85 165 85 110 190 85 110 190 85 110 190 85 110 190 85 110 190 85 110 190 85 110 190 85 110 190 60 85 165 60 85 165 60 85 165 60 85 165 60 85 165 60 85 165 60 85 165 60 85 165 85 110 190 85 110 190 85 110 190 85 110 190 85 110 190 85 110 190 85 110 190 85 110 190
60 145 75 60 145 75 60 145 75 60 145 75 60 145 75 60 145 75 60 145 75 60 145 75 85 170 100 85 170 100 85 170 100 85 170 100 85 170 100 85 170 100 85 170 100 85 170 100 60 145 75 60 145 75 60 145 75 60 145 75 60 145 75 60 145 75 60 145 75 60 145 75 85 170 100 85 170 100 85 170 100 85 170 100 85 170 100 85 170 100 85 170 100 85 170 100 60 145 75 60 145 75 60 145 75 60 145 75 60 145 75 60 145 75 60 145 75 60 145 75 85 170 100 85 170 100 85 170 100 85 170 100 85 170 100 85 170 100 85 170 100 85 170 100 85 170 100 85 170 100 85 170 100 85 170 100 85 170 100 85 170 100 85 170 100 85 170 100 60 145 75 60 145 75 60 145 75 60 145 75 60 145 75 60 145 75 60 145 75 60 145 75 85 170 100 85 170 100 85 170 100 85 170 100 85 170 100 85 170 100 85 170 100 85 170 100 60 145 75 60 145 75 60 145 75 60 145 75 60 145 75 60 145 75 60 145 75 60 145 75 85 170 100 85 170 100 85 170 100 85 170 100 85 170 100 85 170 100 85 170 100 85 170 100 60 145 75 60 145 75 60 145 75 60 145 75 60 145 75 60 145 75 60 145 75 60 145 75 60 145 75 60 145 75 60 145 75 60 145 75 60 145 75 60 145 75 60 145 75 60 145 75 85 170 100 85 170 100 85 170 100 85 170 100 85 170 100 85 170 100 85 170 100 85 170 100 60 145 75 60 145 75 60 145 75 60 145 75 60 145 75 60 145 75 60 145 75 60 145 75 85 170 100 85 170 100 85 170 100 85 170 100 85 170 100 85 170 100 85 170 100 85 170 100 60 145 75 60 145 75 60 145 75 60 145 75 60 145 75 60 145 75 60 145 75 60 145 75 85 170 100 85 170 100 85 170 100 85 170 100 85 170 100 85 170 100 85 170 100 85 170 100 85 110 190 85 110 190 85 110 190 85 110 190 85 110 190 85 110 190 85 110 190 85 110 190 60 85 165 60 85 165 60 85 165 60 85 165 60 85 165 60 85 165 60 85 165 60 85 165 85 110 190 85 110 190 85 110 190 85 110 190 85 110 190 85 110 190 85 110 190 85 110 190 60 85 165 60 85 165 60 85 165 60 85 165 60 85 165 60 85 165 60 85 165 60 85 165 85 110 190 85 110 190 85 110 190 85 110 190 85 110 190 85 110 190 85 110 190 85 110 190 60 85 165 60 85 165 60 85 165 60 85 165 60 85 165 60 85 165 60 85 165 60 85 165 60 85 165 60 85 165 60 85 165 60 85 165 60 85 165 60 85 165 60 85 165 60 85 165 85 110 190 85 110 190 85 110 190 85 110 190 85 110 190 85 110 190 85 110 190 85 110 190 60 85 165 60 85 165 60 85 165 60 85 165 60 85 165 60 85 165 60 85 165 60 85 165 85 110 190 85 110 190 85 110 190 85 110 190 85 110 190 85 110 190 85 110 190 85 110 190 60 85 165 60 85 165 60 85 165 60 85 165 60 85 165 60 85 165 60 85 165 60 85 165 85 110 190 85 110 190 85 110 190 85 110 190 85 110 190 85 110 190 85 110 190 85 110 190
60 145 75 60 145 75 60 145 75 60 145 75 60 145 75 60 145 75 60 145 75 60 145 75 85 170 100 85 170 100 85 170 100 85 170 100 85 170 100 85 170 100 85 170 100 85 170 100 60 145 75 60 145 75 60 145 75 60 145 75 60 145 75 60 145 75 60 145 75 60 145 75 85 170 100 85 170 100 85 170 100 85 170 100 85 170 100 85 170 100 85 170 100 85 170 100 60 145 75 60 145 75 60 145 75 60 145 75 60 145 75 60 145 75 60 145 75 60 145 75 85 170 100 85 170 100 85 170 100 85 170 100 85 170 100 85 170 100 85 170 100 85 170 100 85 170 100 85 170 100 85 170 100 85 170 100 85 170 100 85 170 100 85 170 100 85 170 100 60 145 75 60 145 75 60 145 75 60 145 75 60 145 75 60 145 75 60 145 75 60 145 75 85 170 100 85 170 100 85 170 100 85 170 100 85 170 100 85 170 100 85 170 100 85 170 100 60 145 75 60 145 75 60 145 75 60 145 75 60 145 75 60 145 75 60 145 75 60 145 75 85 170 100 85 170 100 85 170 100 85 170 100 85 170 100 85 170 100 85 170 100 85 170 100 60 145 75 60 145 75 60 145 75 60 145 75 60 145 75 60 145 75 60 145 75 60 145 75 60 145 75 60 145 75 60 145 75 60 145 75 60 145 75 60 145 75 60 145 75 60 145 75 85 170 100 85 170 100 85 170 100 85 170 100 85 170 100 85 170 100 85 170 100 85 170 100 60 145 75 60 145 75 60 145 75 60 145 75 60 145 75 60 145 75 60 145 75 60 145 75 85 170 100 85 170 100 85 170 100 85 170 100 85 170 100 85 170 100 85 170 100 85 170 100 60 145 75 60 145 75 60 145 75 60 145 75 60 145 75 60 145 75 60 145 75 60 145 75 85 170 100 85 170 100 85 170 100 85 170 100 85 170 100 85 170 100 85 170 100 85 170 100 85 110 190 85 110 190 85 110 190 85 110 190 85 110 190 85 110 190 85 110 190 85 110 190 60 85 165 60 85 165 60 85 165 60 85 165 60 85 165 60 85 165 60 85 165 60 85 165 85 110 190 85 110 190 85 110 190 85 110 190 85 110 190 85 110 190 85 110 190 85 110 190 60 85 165 60 85 165 60 85 165 60 85 165 60 85 165 60 85 165 60 85 165 60 85 165 85 110 190 85 110 190 85 110 190 85 110 190 85 110 190 85 110 190 85 110 190 85 110 190 60 85 165 60 85 165 60 85 165 60 85 165 60 85 165 60 85 165 60 85 165 60 85 165 60 85 165 60 85 165 60 85 165 60 85 165 60 85 165 60 85 165 60 85 165 60 85 165 85 110 190 85 110 190 85 110 190 85 110 190 85 110 190 85 110 190 85 110 190 85 110 190 60 85 165 60 85 165 60 85 165 60 85 165 60 85 165 60 85 165 60 85 165 60 85 165 85 110 190 85 110 190 85 110 190 85 110 190 85 110 190 85 110 190 85 110 190 85 110 190 60 85 165 60 85 165 60 85 165 60 85 165 60 85 165 60 85 165 60 85 165 60 85 165 85 110 190 85 110 190 85 110 190 85 110 190 85 110 190 85 110 190 85 110 190 85 110 190
60 145 75 60 145 75 60 145 75 60 145 75 60 145 75 60 145 75 60 145 75 60 145 75 85 170 100 85 170 100 85 170 100 85 170 100 85 170 100 85 170 100 85 170 100 85 170 100 60 145 75 60 145 75 60 145 75 60 145 75 60 145 75 60 145 75 60 145 75 60 145 75 85 170 100 85 170 100 85 170 100 85 170 100 85 170 100 85 170 100 85 170 100 85 170 100 60 145 75 60 145 75 60 145 75 60 145 75 60 145 75 60 145 75 60 145 75 60 145 75 85 170 100 85 170 100 85 170 100 85 170 100 85 170 100 85 170 100 85 170 100 85 170 100 85 170 100 85 170 100 85 170 100 85 170 100 85 170 100 85 170 100 85 170 100 85 170 100 60 145 75 60 145 75 60 145 75 60 145 75 60 145 75 60 145 75 60 145 75 60 145 75 85 170 100 85 170 100 85 170 100 85 170 100 85 170 100 85 170 100 85 170 100 85 170 100 60 145 75 60 145 75 60 145 75 60 145 75 60 145 75 60 145 75 60 145 75 60 145 75 85 170 100 85 170 100 85 170 100 85 170 100 85 170 100 85 170 100 85 170 100 85 170 100 60 145 75 60 145 75 60 145 75 60 145 75 60 145 75 60 145 75 60 145 75 60 145 75 60 145 75 60 145 75 60 145 75 60 145 75 60 145 75 60 145 75 60 145 75 60 145 75 85 170 100 85 170 100 85 170 100 85 170 100 85 170 100 85 170 100 85 170 100 85 170 100 60 145 75 60 145 75 60 145 75 60 145 75 60 145 75 60 145 75 60 145 75 60 145 75 85 170 100 85 170 100 85 170 100 85 170 100 85 170 100 85 170 100 85 170 100 85 170 100 60 145 75 60 145 75 60 145 75 60 145 75 60 145 75 60 145 75 60 145 75 60 145 75 85 170 100 85 170 100 85 170 100 85 170 100 85 170 100 85 170 100 85 170 100 85 170 100 85 110 190 85 110 190 85 110 190 85 110 190 85 110 190 85 110 190 85 110 190 85 110 190 60 85 165 60 85 165 60 85 165 60 85 165 60 85 165 60 85 165 60 85 165 60 85 165 85 110 190 85 110 190 85 110 190 85 110 190 85 110 190 85 110 190 85 110 190 85 110 190 60 85 165 60 85 165 60 85 165 60 85 165 60 85 165 60 85 165 60 85 165 60 85 165 85 110 190 85 110 190 85 110 190 85 110 190 85 110 190 85 110 190 85 110 190 85 110 190 60 85 165 60 85 165 60 85 165 60 85 165 60 85 165 60 85 165 60 85 165 60 85 165 60 85 165 60 85 165 60 85 165 60 85 165 60 85 165 60 85 165 60 85 165 60 85 165 85 110 190 85 110 190 85 110 190 85 110 190 85 110 190 85 110 190 85 110 190 85 110 190 60 85 165 60 85 165 60 85 165 60 85 165 60 85 165 60 85 165 60 85 165 60 85 165 85 110 190 85 110 190 85 110 190 85 110 190 85 110 190 85 110 190 85 110 190 85 110 190 60 85 165 60 85 165 60 85 165 60 85 165 60 85 165 60 85 165 60 85 165 60 85 165 85 110 190 85 110 190 85 110 190 85 110 190 85 110 190 85 110 190 85 110 190 85 110 190
60 145 75 60 145 75 60 145 75 60 145 75 60 145 75 60 145 75 60 145 75 60 145 75 85 170 100 85 170 100 85 170 100 85 170 100 85 170 100 85 170 100 85 170 100 85 170 100 60 145 75 60 145 75 60 145 75 60 145 75 60 145 75 60 145 75 60 145 75 60 145 75 85 170 100 85 170 100 85 170 100 85 170 100 85 170 100 85 170 100 85 170 100 85 170 100 60 145 75 60 145 75 60 145 75 60 145 75 60 145 75 60 145 75 60 145 75 60 145 75 85 170 100 85 170 100 85 170 100 85 170 100 85 170 100 85 170 100 85 170 100 85 170 100 85 170 100 85 170 100 85 170 100 85 170 100 85 170 100 85 170 100 85 170 100 85 170 100 60 145 75 60 145 75 60 145 75 60 145 75 60 145 75 60 145 75 60 145 75 60 145 75 85 170 100 85 170 100 85 170 100 85 170 100 85 170 100 85 170 100 85 170 100 85 170 100 60 145 75 60 145 75 60 145 75 60 145 75 60 145 75 60 145 75 60 145 75 60 145 75 85 170 100 85 170 100 85 170 100 85 170 100 85 170 100 85 170 100 85 170 100 85 170 100 60 145 75 60 145 75 60 145 75 60 145 75 60 145 75 60 145 75 60 145 75 60 145 75 60 145 75 60 145 75 60 145 75 60 145 75 60 145 75 60 145 75 60 145 75 60 145 75 85 170 100 85 170 100 85 170 100 85 170 100 85 170 100 85 170 100 85 170 100 85 170 100 60 145 75 60 145 75 60 145 75 60 145 75 60 145 75 60 145 75 60 145 75 60 145 75 85 170 100 85 170 100 85 170 100 85 170 100 85 170 100 85 170 100 85 170 100 85 170 100 60 145 75 60 145 75 60 145 75 60 145 75 60 145 75 60 145 75 60 145 75 60 145 75 85 170 100 85 170 100 85 170 100 85 170 100 85 170 100 85 170 100 85 170 100 85 170 100 85 110 190 85 110 190 85 110 190 85 110 190 85 110 190 85 110 190 85 110 190 85 110 190 60 85 165 60 85 165 60 85 165 60 85 165 60 85 165 60 85 165 60 85 165 60 85 165 85 110 190 85 110 190 85 110 190 85 110 190 85 110 190 85 110 190 85 110 190 85 110 190 60 85 165 60 85 165 60 85 165 60 85 165 60 85 165 60 85 165 60 85 165 60 85 165 85 110 190 85 110 190 85 110 190 85 110 190 85 110 190 85 110 190 85 110 190 85 110 190 60 85 165 60 85 165 60 85 165 60 85 165 60 85 165 60 85 165 60 85 165 60 85 165 60 85 165 60 85 165 60 85 165 60 85 165 60 85 165 60 85 165 60 85 165 60 85 165 85 110 190 85 110 190 85 110 190 85 110 190 85 110 190 85 110 190 85 110 190 85 110 190 60 85 165 60 85 165 60 85 165 60 85 165 60 85 165 60 85 165 60 85 165 60 85 165 85 110 190 85 110 190 85 110 190 85 110 190 85 110 190 85 110 190 85 110 190 85 110 190 60 85 165 60 85 165 60 85 165 60 85 165 60 85 165 60 85 165 60 85 165 60 85 165 85 110 190 85 110 190 85 110 190 85 110 190 85 110 190 85 110 190 85 110 190 85 110 190
60 145 75 60 145 75 60 145 75 60 145 75 60 145 75 60 145 75 60 145 75 60 145 75 85 170 100 85 170 100 85 170 100 85 170 100 85 170 100 85 170 100 85 170 100 85 170 100 60 145 75 60 145 75 60 145 75 60 145 75 60 145 75 60 145 75 60 145 75 60 145 75 85 170 100 85 170 100 85 170 100 85 170 100 85 170 100 85 170 100 85 170 100 85 170 100 60 145 75 60 145 75 60 145 75 60 145 75 60 145 75 60 145 75 60 145 75 60 145 75 85 170 100 85 170 100 85 170 100 85 170 100 85 170 100 85 170 100 85 170 100 85 170 100 85 170 100 85 170 100 85 170 100 85 170 100 85 170 100 85 170 100 85 170 100 85 170 100 60 145 75 60 145 75 60 145 75 60 145 75 60 145 75 60 145 75 60 145 75 60 145 75 85 170 100 85 170 100 85 170 100 85 170 100 85 170 100 85 170 100 85 170 100 85 170 100 60 145 75 60 145 75 60 145 75 60 145 75 60 145 75 60 145 75 60 145 75 60 145 75 85 170 100 85 170 100 85 170 100 85 170 100 85 170 100 85 170 100 85 170 100 85 170 100 60 145 75 60 145 75 60 145 75 60 145 75 60 145 75 60 145 75 60 145 75 60 145 75 60 145 75 60 145 75 60 145 75 60 145 75 60 145 75 60 145 75 60 145 75 60 145 75 85 170 100 85 170 100 85 170 100 85 170 100 85 170 100 85 170 100 85 170 100 85 170 100 60 145 75 60 145 75 60 145 75 60 145 75 60 145 75 60 145 75 60 145 75 60 145 75 85 170 100 85 170 100 85 170 100 85 170 100 85 170 100 85 170 100 85 170 100 85 170 100 60 145 75 60 145 75 60 145 75 60 145 75 60 145 75 60 145 75 60 145 75 60 145 75 85 170 100 85 170 100 85 170 100 85 170 100 85 170 100 85 170 100 85 170 100 85 170 100 85 110 190 85 110 190 85 110 190 85 110 190 85 110 190 85 110 190 85 110 190 85 110 190 60 85 165 60 85 165 60 85 165 60 85 165 60 85 165 60 85 165 60 85 165 60 85 165 85 110 190 85 110 190 85 110 190 85 110 190 85 110 190 85 110 190 85 110 190 85 110 190 60 85 165 60 85 165 60 85 165 60 85 165 60 85 165 60 85 165 60 85 165 60 85 165 85 110 190 85 110 190 85 110 190 85 110 190 85 110 190 85 110 190 85 110 190 85 110 190 60 85 165 60 85 165 60 85 165 60 85 165 60 85 165 60 85 165 60 85 165 60 85 165 60 85 165 60 85 165 60 85 165 60 85 165 60 85 165 60 85 165 60 85 165 60 85 165 85 110 190 85 110 190 85 110 190 85 110 190 85 110 190 85 110 190 85 110 190 85 110 190 60 85 165 60 85 165 60 85 165 60 85 165 60 85 165 60 85 165 60 85 165 60 85 165 85 110 190 85 110 190 85 110 190 85 110 190 85 110 190 85 110 190 85 110 190 85 110 190 60 85 165 60 85 165 60 85 165 60 85 165 60 85 165 60 85 165 60 85 165 60 85 165 85 110 190 85 110 190 85 110 190 85 110 190 85 110 190 85 110 190 85 110 190 85 110 190
60 145 75 60 145 75 60 145 75 60 145 75 60 145 75 60 145 75 60 145 75 60 145 75 85 170 100 85 170 100 85 170 100 85 170 100 85 170 100 85 170 100 85 170 100 85 170 100 60 145 75 60 145 75 60 145 75 60 145 75 60 145 75 60 145 75 60 145 75 60 145 75 85 170 100 85 170 100 85 170 100 85 170 100 85 170 100 85 170 100 85 170 100 85 170 100 60 145 75 60 145 75 60 145 75 60 145 75 60 145 75 60 145 75 60 145 75 60 145 75 85 170 100 85 170 100 85 170 100 85 170 100 85 170 100 85 170 100 85 170 100 85 170 100 85 170 100 85 170 100 85 170 100 85 170 100 85 170 100 85 170 100 85 170 100 85 170 100 60 145 75 60 145 75 60 145 75 60 145 75 60 145 75 60 145 75 60 145 75 60 145 75 85 170 100 85 170 100 85 170 100 85 170 100 85 170 100 85 170 100 85 170 100 85 170 100 60 145 75 60 145 75 60 145 75 60 145 75 60 145 75 60 145 75 60 145 75 60 145 75 85 170 100 85 170 100 85 170 100 85 170 100 85 170 100 85 170 100 85 170 100 85 170 100 60 145 75 60 145 75 60 145 75 60 145 75 60 145 75 60 145 75 60 145 75 60 145 75 60 145 75 60 145 75 60 145 75 60 145 75 60 145 75 60 145 75 60 145 75 60 145 75 85 170 100 85 170 100 85 170 100 85 170 100 85 170 100 85 170 100 85 170 100 85 170 100 60 145 75 60 145 75 60 145 75 60 145 75 60 145 75 60 145 75 60 145 75 60 145 75 85 170 100 85 170 100 85 170 100 85 170 100 85 170 100 85 170 100 85 170 100 85 170 100 60 145 75 60 145 75 60 145 75 60 145 75 60 145 75 60 145 75 60 145 75 60 145 75 85 170 100 85 170 100 85 170 100 85 170 100 85 170 100 85 170 100 85 170 100 85 170 100 85 110 190 85 110 190 85 110 190 85 110 190 85 110 190 85 110 190 85 110 190 85 110 190 60 85 165 60 85 165 60 85 165 60 85 165 60 85 165 60 85 165 60 85 165 60 85 165 85 110 190 85 110 190 85 110 190 85 110 190 85 110 190 85 110 190 85 110 190 85 110 190 60 85 165 60 85 165 60 85 165 60 85 165 60 85 165 60 85 165 60 85 165 60 85 165 85 110 190 85 110 190 85 110 190 85 110 190 85 110 190 85 110 190 85 110 190 85 110 190 60 85 165 60 85 165 60 85 165 60 85 165 60 85 165 60 85 165 60 85 165 60 85 165 60 85 165 60 85 165 60 85 165 60 85 165 60 85 165 60 85 165 60 85 165 60 85 165 85 110 190 85 110 190 85 110 190 85 110 190 85 110 190 85 110 190 85 110 190 85 110 190 60 85 165 60 85 165 60 85 165 60 85 165 60 85 165 60 85 165 60 85 165 60 85 165 85 110 190 85 110 190 85 110 190 85 110 190 85 110 190 85 110 190 85 110 190 85 110 190 60 85 165 60 85 165 60 85 165 60 85 165 60 85 165 60 85 165 60 85 165 60 85 165 85 110 190 85 110 190 85 110 190 85 110 190 85 110 190 85 110 190 85 110 190 85 110 190
85 170 100 85 170 100 85 170 100 85 170 100 85 170 100 85 170 100 85 170 100 85 170 100 60 145 75 60 145 75 60 145 75 60 145 75 60 145 75 60 145 75 60 145 75 60 145 75 85 170 100 85 170 100 85 170 100 85 170 100 85 170 100 85 170 100 85 170 100 85 170 100 60 145 75 60 145 75 60 145 75 60 145 75 60 145 75 60 145 75 60 145 75 60 145 75 85 170 100 85 170 100 85 170 100 85 170 100 85 170 100 85 170 100 85 170 100 85 170 100 60 145 75 60 145 75 60 145 75 60 145 75 60 145 75 60 145 75 60 145 75 60 145 75 60 145 75 60 145 75 60 145 75 60 145 75 60 145 75 60 145 75 60 145 75 60 145 75 85 170 100 85 170 100 85 170 100 85 170 100 85 170 100 85 170 100 85 170 100 85 170 100 60 145 75 60 145 75 60 145 75 60 145 75 60 145 75 60 145 75 60 145 75 60 145 75 85 170 100 85 170 100 85 170 100 85 170 100 85 170 100 85 170 100 85 170 100 85 170 100 60 145 75 60 145 75 60 145 75 60 145 75 60 145 75 60 145 75 60 145 75 60 145 75 85 170 100 85 170 100 85 170 100 85 170 100 85 170 100 85 170 100 85 170 100 85 170 100 85 170 100 85 170 100 85 170 100 85 170 100 85 170 100 85 170 100 85 170 100 85 170 100 60 145 75 60 145 75 60 145 75 60 145 75 60 145 75 60 145 75 60 145 75 60 145 75 85 170 100 85 170 100 85 170 100 85 170 100 85 170 100 85 170 100 85 170 100 85 170 100 60 145 75 60 145 75 60 145 75 60 145 75 60 145 75 60 145 75 60 145 75 60 145 75 85 170 100 85 170 100 85 170 100 85 170 100 85 170 100 85 170 100 85 170 100 85 170 100 60 145 75 60 145 75 60 145 75 60 145 75 60 145 75 60 145 75 60 145 75 60 145 75 60 85 165 60 85 165 60 85 165 60 85 165 60 85 165 60 85 165 60 85 165 60 85 165 85 110 190 85 110 190 85 110 190 85 110 190 85 110 190 85 110 190 85 110 190 85 110 190 60 85 165 60 85 165 60 85 165 60 85 165 60 85 165 60 85 165 60 85 165 60 85 165 85 110 190 85 110 190 85 110 190 85 110 190 85 110 190 85 110 190 85 110 190 85 110 190 60 85 165 60 85 165 60 85 165 60 85 165 60 85 165 60 85 165 60 85 165 60 85 165 85 110 190 85 110 190 85 110 190 85 110 190 85 110 190 85 110 190 85 110 190 85 110 190 85 110 190 85 110 190 85 110 190 85 110 190 85 110 190 85 110 190 85 110 190 85 110 190 60 85 165 60 85 165 60 85 165 60 85 165 60 85 165 60 85 165 60 85 165 60 85 165 85 110 190 85 110 190 85 110 190 85 110 190 85 110 190 85 110 190 85 110 190 85 110 190 60 85 165 60 85 165 60 85 165 60 85 165 60 85 165 60 85 165 60 85 165 60 85 165 85 110 190 85 110 190 85 110 190 85 110 190 85 110 190 85 110 190 85 110 190 85 110 190 60 85 165 60 85 165 60 85 165 60 85 165 60 85 165 60 85 165 60 85 165 60 85 165
85 170 100 85 170 100 85 170 100 85 170 100 85 170 100 85 170 100 85 170 100 85 170 100 60 145 75 60 145 75 60 145 75 60 145 75 60 145 75 60 145 75 60 145 75 60 145 75 85 170 100 85 170 100 85 170 100 85 170 100 85 170 100 85 170 100 85 170 100 85 170 100 60 145 75 60 145 75 60 145 75 60 145 75 60 145 75 60 145 75 60 145 75 60 145 75 85 170 100 85 170 100 85 170 100 85 170 100 85 170 100 85 170 100 85 170 100 85 170 100 60 145 75 60 145 75 60 145 75 60 145 75 60 145 75 60 145 75 60 145 75 60 145 75 60 145 75 60 145 75 60 145 75 60 145 75 60 145 75 60 145 75 60 145 75 60 145 75 85 170 100 85 170 100 85 170 100 85 170 100 85 170 100 85 170 100 85 170 100 85 170 100 60 145 75 60 145 75 60 145 75 60 145 75 60 145 75 60 145 75 60 145 75 60 145 75 85 170 100 85 170 100 85 170 100 85 170 100 85 170 100 85 170 100 85 170 100 85 170 100 60 145 75 60 145 75 60 145 75 60 145 75 60 145 75 60 145 75 60 145 75 60 145 75 85 170 100 85 170 100 85 170 100 85 170 100 85 170 100 85 170 100 85 170 100 85 170 100 85 170 100 85 170 100 85 170 100 85 170 100 85 170 100 85 170 100 85 170 100 85 170 100 60 145 75 60 145 75 60 145 75 60 145 75 60 145 75 60 145 75 60 145 75 60 145 75 85 170 100 85 170 100 85 170 100 85 170 100 85 170 100 85 170 100 85 170 100 85 170 100 60 145 75 60 145 75 60 145 75 60 145 75 60 145 75 60 145 75 60 145 75 60 145 75 85 170 100 85 170 100 85 170 100 85 170 100 85 170 100 85 170 100 85 170 100 85 170 100 60 145 75 60 145 75 60 145 75 60 145 75 60 145 75 60 145 75 60 145 75 60 145 75 60 85 165 60 85 165 60 85 165 60 85 165 60 85 165 60 85 165 60 85 165 60 85 165 85 110 190 85 110 190 85 110 190 85 110 190 85 110 190 85 110 190 85 110 190 85 110 190 60 85 165 60 85 165 60 85 165 60 85 165 60 85 165 60 85 165 60 85 165 60 85 165 85 110 190 85 110 190 85 110 190 85 110 190 85 110 190 85 110 190 85 110 190 85 110 190 60 85 165 60 85 165 60 85 165 60 85 165 60 85 165 60 85 165 60 85 165 60 85 165 85 110 190 85 110 190 85 110 190 85 110 190 85 110 190 85 110 190 85 110 190 85 110 190 85 110 190 85 110 190 85 110 190 85 110 190 85 110 190 85 110 190 85 110 190 85 110 190 60 85 165 60 85 165 60 85 165 60 85 165 60 85 165 60 85 165 60 85 165 60 85 165 85 110 190 85 110 190 85 110 190 85 110 190 85 110 190 85 110 190 85 110 190 85 110 190 60 85 165 60 85 165 60 85 165 60 85 165 60 85 165 60 85 165 60 85 165 60 85 165 85 110 190 85 110 190 85 110 190 85 110 190 85 110 190 85 110 190 85 110 190 85 110 190 60 85 165 60 85 165 60 85 165 60 85 165 60 85 165 60 85 165 60 85 165 60 85 165
85 170 100 85 170 100 85 170 100 85 170 100 85 170 100 85 170 100 85 170 100 85 170 100 60 145 75 60 145 75 60 145 75 60 145 75 60 145 75 60 145 75 60 145 75 60 145 75 85 170 100 85 170 100 85 170 100 85 170 100 85 170 100 85 170 100 85 170 100 85 170 100 60 145 75 60 145 75 60 145 75 60 145 75 60 145 75 60 145 75 60 145 75 60 145 75 85 170 100 85 170 100 85 170 100 85 170 100 85 170 100 85 170 100 85 170 100 85 170 100 60 145 75 60 145 75 60 145 75 60 145 75 60 145 75 60 145 75 60 145 75 60 145 75 60 145 75 60 145 75 60 145 75 60 145 75 60 145 75 60 145 75 60 145 75 60 145 75 85 170 100 85 170 100 85 170 100 85 170 100 85 170 100 85 170 100 85 170 100 85 170 100 60 145 75 60 145 75 60 145 75 60 145 75 60 145 75 60 145 75 60 145 75 60 145 75 85 170 100 85 170 100 85 170 100 85 170 100 85 170 100 85 170 100 85 170 100 85 170 100 60 145 75 60 145 75 60 145 75 60 145 75 60 145 75 60 145 75 60 145 75 60 145 75 85 170 100 85 170 100 85 170 100 85 170 100 85 170 100 85 170 100 85 170 100 85 170 100 85 170 100 85 170 100 85 170 100 85 170 100 85 170 100 85 170 100 85 170 100 85 170 100 60 145 75 60 145 75 60 145 75 60 145 75 60 145 75 60 145 75 60 145 75 60 145 75 85 170 100 85 170 100 85 170 100 85 170 100 85 170 100 85 170 100 85 170 100 85 170 100 60 145 75 60 145 75 60 145 75 60 145 75 60 145 75 60 145 75 60 145 75 60 145 75 85 170 100 85 170 100 85 170 100 85 170 100 85 170 100 85 170 100 85 170 100 85 170 100 60 145 75 60 145 75 60 145 75 60 145 75 60 145 75 60 145 75 60 145 75 60 145 75 60 85 165 60 85 165 60 85 165 60 85 165 60 85 165 60 85 165 60 85 165 60 85 165 85 110 190 85 110 190 85 110 190 85 110 190 85 110 190 85 110 190 85 110 190 85 110 190 60 85 165 60 85 165 60 85 165 60 85 165 60 85 165 60 85 165 60 85 165 60 85 165 85 110 190 85 110 190 85 110 190 85 110 190 85 110 190 85 110 190 85 110 190 85 110 190 60 85 165 60 85 165 60 85 165 60 85 165 60 85 165 60 85 165 60 85 165 60 85 165 85 110 190 85 110 190 85 110 190 85 110 190 85 110 190 85 110 190 85 110 190 85 110 190 85 110 190 85 110 190 85 110 190 85 110 190 85 110 190 85 110 190 85 110 190 85 110 190 60 85 165 60 85 165 60 85 165 60 85 165 60 85 165 60 85 165 60 85 165 60 85 165 85 110 190 85 110 190 85 110 190 85 110 190 85 110 190 85 110 190 85 110 190 85 110 190 60 85 165 60 85 165 60 85 165 60 85 165 60 85 165 60 85 165 60 85 165 60 85 165 85 110 190 85 110 190 85 110 190 85 110 190 85 110 190 85 110 190 85 110 190 85 110 190 60 85 165 60 85 165 60 85 165 60 85 165 60 85 165 60 85 165 60 85 165 60 85 165
85 170 100 85 170 100 85 170 100 85 170 100 85 170 100 85 170 100 85 170 100 85 170 100 60 145 75 60 145 75 60 145 75 60 145 75 60 145 75 60 145 75 60 145 75 60 145 75 85 170 100 85 170 100 85 170 100 85 170 100 85 170 100 85 170 100 85 170 100 85 170 100 60 145 75 60 145 75 60 145 75 60 145 75 60 145 75 60 145 75 60 145 75 60 145 75 85 170 100 85 170 100 85 170 100 85 170 100 85 170 100 85 170 100 85 170 100 85 170 100 60 145 75 60 145 75 60 145 75 60 145 75 60 145 75 60 145 75 60 145 75 60 145 75 60 145 75 60 145 75 60 145 75 60 145 75 60 145 75 60 145 75 60 145 75 60 145 75 85 170 100 85 170 100 85 170 100 85 170 100 85 170 100 85 170 100 85 170 100 85 170 100 60 145 75 60 145 75 60 145 75 60 145 75 60 145 75 60 145 75 60 145 75 60 145 75 85 170 100 85 170 100 85 170 100 85 170 100 85 170 100 85 170 100 85 170 100 85 170 100 60 145 75 60 145 75 60 145 75 60 145 75 60 145 75 60 145 75 60 145 75 60 145 75 85 170 100 85 170 100 85 170 100 85 170 100 85 170 100 85 170 100 85 170 100 85 170 100 85 170 100 85 170 100 85 170 100 85 170 100 85 170 100 85 170 100 85 170 100 85 170 100 60 145 75 60 145 75 60 145 75 60 145 75 60 145 75 60 145 75 60 145 75 60 145 75 85 170 100 85 170 100 85 170 100 85 170 100 85 170 100 85 170 100 85 170 100 85 170 100 60 145 75 60 145 75 60 145 75 60 145 75 60 145 75 60 145 75 60 145 75 60 145 75 85 170 100 85 170 100 85 170 100 85 170 100 85 170 100 85 170 100 85 170 100 85 170 100 60 145 75 60 145 75 60 145 75 60 145 75 60 145 75 60 145 75 60 145 75 60 145 75 60 85 165 60 85 165 60 85 165 60 85 165 60 85 165 60 85 165 60 85 165 60 85 165 85 110 190 85 110 190 85 110 190 85 110 190 85 110 190 85 110 190 85 110 190 85 110 190 60 85 165 60 85 165 60 85 165 60 85 165 60 85 165 60 85 165 60 85 165 60 85 165 85 110 190 85 110 190 85 110 190 85 110 190 85 110 190 85 110 190 85 110 190 85 110 190 60 85 165 60 85 165 60 85 165 60 85 165 60 85 165 60 85 165 60 85 165 60 85 165 85 110 190 85 110 190 85 110 190 85 110 190 85 110 190 85 110 190 85 110 190 85 110 190 85 110 190 85 110 190 85 110 190 85 110 190 85 110 190 85 110 190 85 110 190 85 110 190 60 85 165 60 85 165 60 85 165 60 85 165 60 85 165 60 85 165 60 85 165 60 85 165 85 110 190 85 110 190 85 110 190 85 110 190 85 110 190 85 110 190 85 110 190 85 110 190 60 85 165 60 85 165 60 85 165 60 85 165 60 85 165 60 85 165 60 85 165 60 85 165 85 110 190 85 110 190 85 110 190 85 110 190 85 110 190 85 110 190 85 110 190 85 110 190 60 85 165 60 85 165 60 85 165 60 85 165 60 85 165 60 85 165 60 85 165 60 85 165
85 170 100 85 170 100 85 170 100 85 170 100 85 170 100 85 170 100 85 170 100 85 170 100 60 145 75 60 145 75 60 145 75 60 145 75 60 145 75 60 145 75 60 145 75 60 145 75 85 170 100 85 170 100 85 170 100 85 170 100 85 170 100 85 170 100 85 170 100 85 170 100 60 145 75 60 145 75 60 145 75 60 145 75 60 145 75 60 145 75 60 145 75 60 145 75 85 170 100 85 170 100 85 170 100 85 170 100 85 170 100 85 170 100 85 170 100 85 170 100 60 145 75 60 145 75 60 145 75 60 145 75 60 145 75 60 145 75 60 145 75 60 145 75 60 145 75 60 145 75 60 145 75 60 145 75 60 145 75 60 145 75 60 145 75 60 145 75 85 170 100 85 170 100 85 170 100 85 170 100 85 170 100 85 170 100 85 170 100 85 170 100 60 145 75 60 145 75 60 145 75 60 145 75 60 145 75 60 145 75 60 145 75 60 145 75 85 170 100 85 170 100 85 170 100 85 170 100 85 170 100 85 170 100 85 170 100 85 170 100 60 145 75 60 145 75 60 145 75 60 145 75 60 145 75 60 145 75 60 145 75 60 145 75 85 170 100 85 170 100 85 170 100 85 170 100 85 170 100 85 170 100 85 170 100 85 170 100 85 170 100 85 170 100 85 170 100 85 170 100 85 170 100 85 170 100 85 170 100 85 170 100 60 145 75 60 145 75 60 145 75 60 145 75 60 145 75 60 145 75 60 145 75 60 145 75 85 170 100 85 170 100 85 170 100 85 170 100 85 170 100 85 170 100 85 170 100 85 170 100 60 145 75 60 145 75 60 145 75 60 145 75 60 145 75 60 145 75 60 145 75 60 145 75 85 170 100 85 170 100 85 170 100 85 170 100 85 170 100 85 170 100 85 170 100 85 170 100 60 145 75 60 145 75 60 145 75 60 145 75 60 145 75 60 145 75 60 145 75 60 145 75 60 85 165 60 85 165 60 85 165 60 85 165 60 85 165 60 85 165 60 85 165 60 85 165 85 110 190 85 110 190 85 110 190 85 110 190 85 110 190 85 110 190 85 110 190 85 110 190 60 85 165 60 85 165 60 85 165 60 85 165 60 85 165 60 85 165 60 85 165 60 85 165 85 110 190 85 110 190 85 110 190 85 110 190 85 110 190 85 110 190 85 110 190 85 110 190 60 85 165 60 85 165 60 85 165 60 85 165 60 85 165 60 85 165 60 85 165 60 85 165 85 110 190 85 110 190 85 110 190 85 110 190 85 110 190 85 110 190 85 110 190 85 110 190 85 110 190 85 110 190 85 110 190 85 110 190 85 110 190 85 110 190 85 110 190 85 110 190 60 85 165 60 85 165 60 85 165 60 85 165 60 85 165 60 85 165 60 85 165 60 85 165 85 110 190 85 110 190 85 110 190 85 110 190 85 110 190 85 110 190 85 110 190 85 110 190 60 85 165 60 85 165 60 85 165 60 85 165 60 85 165 60 85 165 60 85 165 60 85 165 85 110 190 85 110 190 85 110 190 85 110 190 85 110 190 85 110 190 85 110 190 85 110 190 60 85 165 60 85 165 60 85 165 60 85 165 60 85 165 60 85 165 60 85 165 60 85 165
85 170 100 85 170 100 85 170 100 85 170 100 85 170 100 85 170 100 85 170 100 85 170 100 60 145 75 60 145 75 60 145 75 60 145 75 60 145 75 60 145 75 60 145 75 60 145 75 85 170 100 85 170 100 85 170 100 85 170 100 85 170 100 85 170 100 85 170 100 85 170 100 60 145 75 60 145 75 60 145 75 60 145 75 60 145 75 60 145 75 60 145 75 60 145 75 85 170 100 85 170 100 85 170 100 85 170 100 85 170 100 85 170 100 85 170 100 85 170 100 60 145 75 60 145 75 60 145 75 60 145 75 60 145 75 60 145 75 60 145 75 60 145 75 60 145 75 60 145 75 60 145 75 60 145 75 60 145 75 60 145 75 60 145 75 60 145 75 85 170 100 85 170 100 85 170 100 85 170 100 85 170 100 85 170 100 85 170 100 85 170 100 60 145 75 60 145 75 60 145 75 60 145 75 60 145 75 60 145 75 60 145 75 60 145 75 85 170 100 85 170 100 85 170 100 85 170 100 85 170 100 85 170 100 85 170 100 85 170 100 60 145 75 60 145 75 60 145 75 60 145 75 60 145 75 60 145 75 60 145 75 60 145 75 85 170 100 85 170 100 85 170 100 85 170 100 85 170 100 85 170 100 85 170 100 85 170 100 85 170 100 85 170 100 85 170 100 85 170 100 85 170 100 85 170 100 85 170 100 85 170 100 60 145 75 60 145 75 60 145 75 60 145 75 60 145 75 60 145 75 60 145 75 60 145 75 85 170 100 85 170 100 85 170 100 85 170 100 85 170 100 85 170 100 85 170 100 85 170 100 60 145 75 60 145 75 60 145 75 60 145 75 60 145 75 60 145 75 60 145 75 60 145 75 85 170 100 85 170 100 85 170 100 85 170 100 85 170 100 85 170 100 85 170 100 85 170 100 60 145 75 60 145 75 60 145 75 60 145 75 60 145 75 60 145 75 60 145 75 60 145 75 60 85 165 60 85 165 60 85 165 60 85 165 60 85 165 60 85 165 60 85 165 60 85 165 85 110 190 85 110 190 85 110 190 85 110 190 85 110 190 85 110 190 85 110 190 85 110 190 60 85 165 60 85 165 60 85 165 60 85 165 60 85 165 60 85 165 60 85 165 60 85 165 85 110 190 85 110 190 85 110 190 85 110 190 85 110 190 85 110 190 85 110 190 85 110 190 60 85 165 60 85 165 60 85 165 60 85 165 60 85 165 60 85 165 60 85 165 60 85 165 85 110 190 85 110 190 85 110 190 85 110 190 85 110 190 85 110 190 85 110 190 85 110 190 85 110 190 85 110 190 85 110 190 85 110 190 85 110 190 85 110 190 85 110 190 85 110 190 60 85 165 60 85 165 60 85 165 60 85 165 60 85 165 60 85 165 60 85 165 60 85 165 85 110 190 85 110 190 85 110 190 85 110 190 85 110 190 85 110 190 85 110 190 85 110 190 60 85 165 60 85 165 60 85 165 60 85 165 60 85 165 60 85 165 60 85 165 60 85 165 85 110 190 85 110 190 85 110 190 85 110 190 85 110 190 85 110 190 85 110 190 85 110 190 60 85 165 60 85 165 60 85 165 60 85 165 60 85 165 60 85 165 60 85 165 60 85 165
85 170 100 85 170 100 85 170 100 85 170 100 85 170 100 85 170 100 85 170 100 85 170 100 60 145 75 60 145 75 60 145 75 60 145 75 60 145 75 60 145 75 60 145 75 60 145 75 85 170 100 85 170 100 85 170 100 85 170 100 85 170 100 85 170 100 85 170 100 85 170 100 60 145 75 60 145 75 60 145 75 60 145 75 60 145 75 60 145 75 60 145 75 60 145 75 85 170 100 85 170 100 85 170 100 85 170 100 85 170 100 85 170 100 85 170 100 85 170 100 60 145 75 60 145 75 60 145 75 60 145 75 60 145 75 60 145 75 60 145 75 60 145 75 60 145 75 60 145 75 60 145 75 60 145 75 60 145 75 60 145 75 60 145 75 60 145 75 85 170 100 85 170 100 85 170 100 85 170 100 85 170 100 85 170 100 85 170 100 85 170 100 60 145 75 60 145 75 60 145 75 60 145 75 60 145 75 60 145 75 60 145 75 60 145 75 85 170 100 85 170 100 85 170 100 85 170 100 85 170 100 85 170 100 85 170 100 85 170 100 60 145 75 60 145 75 60 145 75 60 145 75 60 145 75 60 145 75 60 145 75 60 145 75 85 170 100 85 170 100 85 170 100 85 170 100 85 170 100 85 170 100 85 170 100 85 170 100 85 170 100 85 170 100 85 170 100 85 170 100 85 170 100 85 170 100 85 170 100 85 170 100 60 145 75 60 145 75 60 145 75 60 145 75 60 145 75 60 145 75 60 145 75 60 145 75 85 170 100 85 170 100 85 170 100 85 170 100 85 170 100 85 170 100 85 170 100 85 170 100 60 145 75 60 145 75 60 145 75 60 145 75 60 145 75 60 145 75 60 145 75 60 145 75 85 170 100 85 170 100 85 170 100 85 170 100 85 170 100 85 170 100 85 170 100 85 170 100 60 145 75 60 145 75 60 145 75 60 145 75 60 145 75 60 145 75 60 145 75 60 145 75 60 85 165 60 85 165 60 85 165 60 85 165 60 85 165 60 85 165 60 85 165 60 85 165 85 110 190 85 110 190 85 110 190 85 110 190 85 110 190 85 110 190 85 110 190 85 110 190 60 85 165 60 85 165 60 85 165 60 85 165 60 85 165 60 85 165 60 85 165 60 85 165 85 110 190 85 110 190 85 110 190 85 110 190 85 110 190 85 110 190 85 110 190 85 110 190 60 85 165 60 85 165 60 85 165 60 85 165 60 85 165 60 85 165 60 85 165 60 85 165 85 110 190 85 110 190 85 110 190 85 110 190 85 110 190 85 110 190 85 110 190 85 110 190 85 110 190 85 110 190 85 110 190 85 110 190 85 110 190 85 110 190 85 110 190 85 110 190 60 85 165 60 85 165 60 85 165 60 85 165 60 85 165 60 85 165 60 85 165 60 85 165 85 110 190 85 110 190 85 110 190 85 110 190 85 110 190 85 110 190 85 110 190 85 110 190 60 85 165 60 85 165 60 85 165 60 85 165 60 85 165 60 85 165 60 85 165 60 85 165 85 110 190 85 110 190 85 110 190 85 110 190 85 110 190 85 110 190 85 110 190 85 110 190 60 85 165 60 85 165 60 85 165 60 85 165 60 85 165 60 85 165 60 85 165 60 85 165
85 170 100 85 170 100 85 170 100 85 170 100 85 170 100 85 170 100 85 170 100 85 170 100 60 145 75 60 145 75 60 145 75 60 145 75 60 145 75 60 145 75 60 145 75 60 145 75 85 170 100 85 170 100 85 170 100 85 170 100 85 170 100 85 170 100 85 170 100 85 170 100 60 145 75 60 145 75 60 145 75 60 145 75 60 145 75 60 145 75 60 145 75 60 145 75 85 170 100 85 170 100 85 170 100 85 170 100 85 170 100 85 170 100 85 170 100 85 170 100 60 145 75 60 145 75 60 145 75 60 145 75 60 145 75 60 145 75 60 145 75 60 145 75 60 145 75 60 145 75 60 145 75 60 145 75 60 145 75 60 145 75 60 145 75 60 145 75 85 170 100 85 170 100 85 170 100 85 170 100 85 170 100 85 170 100 85 170 100 85 170 100 60 145 75 60 145 75 60 145 75 60 145 75 60 145 75 60 145 75 60 145 75 60 145 75 85 170 100 85 170 100 85 170 100 85 170 100 85 170 100 85 170 100 85 170 100 85 170 100 60 145 75 60 145 75 60 145 75 60 145 75 60 145 75 60 145 75 60 145 75 60 145 75 85 170 100 85 170 100 85 170 100 85 170 100 85 170 100 85 170 100 85 170 100 85 170 100 85 170 100 85 170 100 85 170 100 85 170 100 85 170 100 85 170 100 85 170 100 85 170 100 60 145 75 60 145 75 60 145 75 60 145 75 60 145 75 60 145 75 60 145 75 60 145 75 85 170 100 85 170 100 85 170 100 85 170 100 85 170 100 85 170 100 85 170 100 85 170 100 60 145 75 60 145 75 60 145 75 60 145 75 60 145 75 60 145 75 60 145 75 60 145 75 85 170 100 85 170 100 85 170 100 85 170 100 85 170 100 85 170 100 85 170 100 85 170 100 60 145 75 60 145 75 60 145 75 60 145 75 60 145 75 60 145 75 60 145 75 60 145 75 60 85 165 60 85 165 60 85 165 60 85 165 60 85 165 60 85 165 60 85 165 60 85 165 85 110 190 85 110 190 85 110 190 85 110 190 85 110 190 85 110 190 85 110 190 85 110 190 60 85 165 60 85 165 60 85 165 60 85 165 60 85 165 60 85 165 60 85 165 60 85 165 85 110 190 85 110 190 85 110 190 85 110 190 85 110 190 85 110 190 85 110 190 85 110 190 60 85 165 60 85 165 60 85 165 60 85 165 60 85 165 60 85 165 60 85 165 60 85 165 85 110 190 85 110 190 85 110 190 85 110 190 85 110 190 85 110 190 85 110 190 85 110 190 85 110 190 85 110 190 85 110 190 85 110 190 85 110 190 85 110 190 85 110 190 85 110 190 60 85 165 60 85 165 60 85 165 60 85 165 60 85 165 60 85 165 60 85 165 60 85 165 85 110 190 85 110 190 85 110 190 85 110 190 85 110 190 85 110 190 85 110 190 85 110 190 60 85 165 60 85 165 60 85 165 60 85 165 60 85 165 60 85 165 60 85 165 60 85 165 85 110 190 85 110 190 85 110 190 85 110 190 85 110 190 85 110 190 85 110 190 85 110 190 60 85 165 60 85 165 60 85 165 60 85 165 60 85 165 60 85 165 60 85 165 60 85 165
60 145 75 60 145 75 60 145 75 60 145 75 60 145 75 60 145 75 60 145 75 60 145 75 85 170 100 85 170 100 85 170 100 85 170 100 85 170 100 85 170 100 85 170 100 85 170 100 60 145 75 60 145 75 60 145 75 60 145 75 60 145 75 60 145 75 60 145 75 60 145 75 85 170 100 85 170 100 85 170 100 85 170 100 85 170 100 85 170 100 85 170 100 85 170 100 60 145 75 60 145 75 60 145 75 60 145 75 60 145 75 60 145 75 60 145 75 60 145 75 85 170 100 85 170 100 85 170 100 85 170 100 85 170 100 85 170 100 85 170 100 85 170 100 85 170 100 85 170 100 85 170 100 85 170 100 85 170 100 85 170 100 85 170 100 85 170 100 60 145 75 60 145 75 60 145 75 60 145 75 60 145 75 60 145 75 60 145 75 60 145 75 85 170 100 85 170 100 85 170 100 85 170 100 85 170 100 85 170 100 85 170 100 85 170 100 60 145 75 60 145 75 60 145 75 60 145 75 60 145 75 60 145 75 60 145 75 60 145 75 85 170 100 85 170 100 85 170 100 85 170 100 85 170 100 85 170 100 85 170 100 85 170 100 60 145 75 60 145 75 60 145 75 60 145 75 60 145 75 60 145 75 60 145 75 60 145 75 60 145 75 60 145 75 60 145 75 60 145 75 60 145 75 60 145 75 60 145 75 60 145 75 85 170 100 85 170 100 85 170 100 85 170 100 85 170 100 85 170 100 85 170 100 85 170 100 60 145 75 60 145 75 60 145 75 60 145 75 60 145 75 60 145 75 60 145 75 60 145 75 85 170 100 85 170 100 85 170 100 85 170 100 85 170 100 85 170 100 85 170 100 85 170 100 60 145 75 60 145 75 60 145 75 60 145 75 60 145 75 60 145 75 60 145 75 60 145 75 85 170 100 85 170 100 85 170 100 85 170 100 85 170 100 85 170 100 85 170 100 85 170 100 85 110 190 85 110 190 85 110 190 85 110 190 85 110 190 85 110 190 85 110 190 85 110 190 60 85 165 60 85 165 60 85 165 60 85 165 60 85 165 60 85 165 60 85 165 60 85 165 85 110 190 85 110 190 85 110 190 85 110 190 85 110 190 85 110 190 85 110 190 85 110 190 60 85 165 60 85 165 60 85 165 60 85 165 60 85 165 60 85 165 60 85 165 60 85 165 85 110 190 85 110 190 85 110 190 85 110 190 85 110 190 85 110 190 85 110 190 85 110 190 60 85 165 60 85 165 60 85 165 60 85 165 60 85 165 60 85 165 60 85 165 60 85 165 60 85 165 60 85 165 60 85 165 60 85 165 60 85 165 60 85 165 60 85 165 60 85 165 85 110 190 85 110 190 85 110 190 85 110 190 85 110 190 85 110 190 85 110 190 85 110 190 60 85 165 60 85 165 60 85 165 60 85 165 60 85 165 60 85 165 60 85 165 60 85 165 85 110 190 85 110 190 85 110 190 85 110 190 85 110 190 85 110 190 85 110 190 85 110 190 60 85 165 60 85 165 60 85 165 60 85 165 60 85 165 60 85 165 60 85 165 60 85 165 85 110 190 85 110 190 85 110 190 85 110 190 85 110 190 85 110 190 85 110 190 85 110 190
60 145 75 60 145 75 60 145 75 60 145 75 60 145 75 60 145 75 60 145 75 60 145 75 85 170 100 85 170 100 85 170 100 85 170 100 85 170 100 85 170 100 85 170 100 85 170 100 60 145 75 60 145 75 60 145 75 60 145 75 60 145 75 60 145 75 60 145 75 60 145 75 85 170 100 85 170 100 85 170 100 85 170 100 85 170 100 85 170 100 85 170 100 85 170 100 60 145 75 60 145 75 60 145 75 60 145 75 60 145 75 60 145 75 60 145 75 60 145 75 85 170 100 85 170 100 85 170 100 85 170 100 85 170 100 85 170 100 85 170 100 85 170 100 85 170 100 85 170 100 85 170 100 85 170 100 85 170 100 85 170 100 85 170 100 85 170 100 60 145 75 60 145 75 60 145 75 60 145 75 60 145 75 60 145 75 60 145 75 60 145 75 85 170 100 85 170 100 85 170 100 85 170 100 85 170 100 85 170 100 85 170 100 85 170 100 60 145 75 60 145 75 60 145 75 60 145 75 60 145 75 60 145 75 60 145 75 60 145 75 85 170 100 85 170 100 85 170 100 85 170 100 85 170 100 85 170 100 85 170 100 85 170 100 60 145 75 60 145 75 60 145 75 60 145 75 60 145 75 60 145 75 60 145 75 60 145 75 60 145 75 60 145 75 60 145 75 60 145 75 60 145 75 60 145 75 60 145 75 60 145 75 85 170 100 85 170 100 85 170 100 85 170 100 85 170 100 85 170 100 85 170 100 85 170 100 60 145 75 60 145 75 60 145 75 60 145 75 60 145 75 60 145 75 60 145 75 60 145 75 85 170 100 85 170 100 85 170 100 85 170 100 85 170 100 85 170 100 85 170 100 85 170 100 60 145 75 60 145 75 60 145 75 60 145 75 60 145 75 60 145 75 60 145 75 60 145 75 85 170 100 85 170 100 85 170 100 85 170 100 85 170 100 85 170 100 85 170 100 85 170 100 85 110 190 85 110 190 85 110 190 85 110 190 85 110 190 85 110 190 85 110 190 85 110 190 60 85 165 60 85 165 60 85 165 60 85 165 60 85 165 60 85 165 60 85 165 60 85 165 85 110 190 85 110 190 85 110 190 85 110 190 85 110 190 85 110 190 85 110 190 85 110 190 60 85 165 60 85 165 60 85 165 60 85 165 60 85 165 60 85 165 60 85 165 60 85 165 85 110 190 85 110 190 85 110 190 85 110 190 85 110 190 85 110 190 85 110 190 85 110 190 60 85 165 60 85 165 60 85 165 60 85 165 60 85 165 60 85 165 60 85 165 60 85 165 60 85 165 60 85 165 60 85 165 60 85 165 60 85 165 60 85 165 60 85 165 60 85 165 85 110 190 85 110 190 85 110 190 85 110 190 85 110 190 85 110 190 85 110 190 85 110 190 60 85 165 60 85 165 60 85 165 60 85 165 60 85 165 60 85 165 60 85 165 60 85 165 85 110 190 85 110 190 85 110 190 85 110 190 85 110 190 85 110 190 85 110 190 85 110 190 60 85 165 60 85 165 60 85 165 60 85 165 60 85 165 60 85 165 60 85 165 60 85 165 85 110 190 85 110 190 85 110 190 85 110 190 85 110 190 85 110 190 85 110 190 85 110 190
60 145 75 60 145 75 60 145 75 60 145 75 60 145 75 60 145 75 60 145 75 60 145 75 85 170 100 85 170 100 85 170 100 85 170 100 85 170 100 85 170 100 85 170 100 85 170 100 60 145 75 60 145 75 60 145 75 60 145 75 60 145 75 60 145 75 60 145 75 60 145 75 85 170 100 85 170 100 85 170 100 85 170 100 85 170 100 85 170 100 85 170 100 85 170 100 60 145 75 60 145 75 60 145 75 60 145 75 60 145 75 60 145 75 60 145 75 60 145 75 85 170 100 85 170 100 85 170 100 85 170 100 85 170 100 85 170 100 85 170 100 85 170 100 85 170 100 85 170 100 85 170 100 85 170 100 85 170 100 85 170 100 85 170 100 85 170 100 60 145 75 60 145 75 60 145 75 60 145 75 60 145 75 60 145 75 60 145 75 60 145 75 85 170 100 85 170 100 85 170 100 85 170 100 85 170 100 85 170 100 85 170 100 85 170 100 60 145 75 60 145 75 60 145 75 60 145 75 60 145 75 60 145 75 60 145 75 60 145 75 85 170 100 85 170 100 85 170 100 85 170 100 85 170 100 85 170 100 85 170 100 85 170 100 60 145 75 60 145 75 60 145 75 60 145 75 60 145 75 60 145 75 60 145 75 60 145 75 60 145 75 60 145 75 60 145 75 60 145 75 60 145 75 60 145 75 60 145 75 60 145 75 85 170 100 85 170 100 85 170 100 85 170 100 85 170 100 85 170 100 85 170 100 85 170 100 60 145 75 60 145 75 60 145 75 60 145 75 60 145 75 60 145 75 60 145 75 60 145 75 85 170 100 85 170 100 85 170 100 85 170 100 85 170 100 85 170 100 85 170 100 85 170 100 60 145 75 60 145 75 60 145 75 60 145 75 60 145 75 60 145 75 60 145 75 60 145 75 85 170 100 85 170 100 85 170 100 85 170 100 85 170 100 85 170 100 85 170 100 85 170 100 85 110 190 85 110 190 85 110 190 85 110 190 85 110 190 85 110 190 85 110 190 85 110 190 60 85 165 60 85 165 60 85 165 60 85 165 60 85 165 60 85 165 60 85 165 60 85 165 85 110 190 85 110 190 85 110 190 85 110 190 85 110 190 85 110 190 85 110 190 85 110 190 60 85 165 60 85 165 60 85 165 60 85 165 60 85 165 60 85 165 60 85 165 60 85 165 85 110 190 85 110 190 85 110 190 85 110 190 85 110 190 85 110 190 85 110 190 85 110 190 60 85 165 60 85 165 60 85 165 60 85 165 60 85 165 60 85 165 60 85 165 60 85 165 60 85 165 60 85 165 60 85 165 60 85 165 60 85 165 60 85 165 60 85 165 60 85 165 85 110 190 85 110 190 85 110 190 85 110 190 85 110 190 85 110 190 85 110 190 85 110 190 60 85 165 60 85 165 60 85 165 60 85 165 60 85 165 60 85 165 60 85 165 60 85 165 85 110 190 85 110 190 85 110 190 85 110 190 85 110 190 85 110 190 85 110 190 85 110 190 60 85 165 60 85 165 60 85 165 60 85 165 60 85 165 60 85 165 60 85 165 60 85 165 85 110 190 85 110 190 85 110 190 85 110 190 85 110 190 85 110 190 85 110 190 85 110 190
60 145 75 60 145 75 60 145 75 60 145 75 60 145 75 60 145 75 60 145 75 60 145 75 85 170 100 85 170 100 85 170 100 85 170 100 85 170 100 85 170 100 85 170 100 85 170 100 60 145 75 60 145 75 60 145 75 60 145 75 60 145 75 60 145 75 60 145 75 60 145 75 85 170 100 85 170 100 85 170 100 85 170 100 85 170 100 85 170 100 85 170 100 85 170 100 60 145 75 60 145 75 60 145 75 60 145 75 60 145 75 60 145 75 60 145 75 60 145 75 85 170 100 85 170 100 85 170 100 85 170 100 85 170 100 85 170 100 85 170 100 85 170 100 85 170 100 85 170 100 85 170 100 85 170 100 85 170 100 85 170 100 85 170 100 85 170 100 60 145 75 60 145 75 60 145 75 60 145 75 60 145 75 60 145 75 60 145 75 60 145 75 85 170 100 85 170 100 85 170 100 85 170 100 85 170 100 85 170 100 85 170 100 85 170 100 60 145 75 60 145 75 60 145 75 60 145 75 60 145 75 60 145 75 60 145 75 60 145 75 85 170 100 85 170 100 85 170 100 85 170 100 85 170 100 85 170 100 85 170 100 85 170 100 60 145 75 60 145 75 60 145 75 60 145 75 60 145 75 60 145 75 60 145 75 60 145 75 60 145 75 60 145 75 60 145 75 60 145 75 60 145 75 60 145 75 60 145 75 60 145 75 85 170 100 85 170 100 85 170 100 85 170 100 85 170 100 85 170 100 85 170 100 85 170 100 60 145 75 60 145 75 60 145 75 60 145 75 60 145 75 60 145 75 60 145 75 60 145 75 85 170 100 85 170 100 85 170 100 85 170 100 85 170 100 85 170 100 85 170 100 85 170 100 60 145 75 60 145 75 60 145 75 60 145 75 60 145 75 60 145 75 60 145 75 60 145 75 85 170 100 85 170 100 85 170 100 85 170 100 85 170 100 85 170 100 85 170 100 85 170 100 85 110 190 85 110 190 85 110 190 85 110 190 85 110 190 85 110 190 85 110 190 85 110 190 60 85 165 60 85 165 60 85 165 60 85 165 60 85 165 60 85 165 60 85 165 60 85 165 85 110 190 85 110 190 85 110 190 85 110 190 85 110 190 85 110 190 85 110 190 85 110 190 60 85 165 60 85 165 60 85 165 60 85 165 60 85 165 60 85 165 60 85 165 60 85 165 85 110 190 85 110 190 85 110 190 85 110 190 85 110 190 85 110 190 85 110 190 85 110 190 60 85 165 60 85 165 60 85 165 60 85 165 60 85 165 60 85 165 60 85 165 60 85 165 60 85 165 60 85 165 60 85 165 60 85 165 60 85 165 60 85 165 60 85 165 60 85 165 85 110 190 85 110 190 85 110 190 85 110 190 85 110 190 85 110 190 85 110 190 85 110 190 60 85 165 60 85 165 60 85 165 60 85 165 60 85 165 60 85 165 60 85 165 60 85 165 85 110 190 85 110 190 85 110 190 85 110 190 85 110 190 85 110 190 85 110 190 85 110 190 60 85 165 60 85 165 60 85 165 60 85 165 60 85 165 60 85 165 60 85 165 60 85 165 85 110 190 85 110 190 85 110 190 85 110 190 85 110 190 85 110 190 85 110 190 85 110 190
60 145 75 60 145 75 60 145 75 60 145 75 60 145 75 60 145 75 60 145 75 60 145 75 85 170 100 85 170 100 85 170 100 85 170 100 85 170 100 85 170 100 85 170 100 85 170 100 60 145 75 60 145 75 60 145 75 60 145 75 60 145 75 60 145 75 60 145 75 60 145 75 85 170 100 85 170 100 85 170 100 85 170 100 85 170 100 85 170 100 85 170 100 85 170 100 60 145 75 60 145 75 60 145 75 60 145 75 60 145 75 60 145 75 60 145 75 60 145 75 85 170 100 85 170 100 85 170 100 85 170 100 85 170 100 85 170 100 85 170 100 85 170 100 85 170 100 85 170 100 85 170 100 85 170 100 85 170 100 85 170 100 85 170 100 85 170 100 60 145 75 60 145 75 60 145 75 60 145 75 60 145 75 60 145 75 60 145 75 60 145 75 85 170 100 85 170 100 85 170 100 85 170 100 85 170 100 85 170 100 85 170 100 85 170 100 60 145 75 60 145 75 60 145 75 60 145 75 60 145 75 60 145 75 60 145 75 60 145 75 85 170 100 85 170 100 85 170 100 85 170 100 85 170 100 85 170 100 85 170 100 85 170 100 60 145 75 60 145 75 60 145 75 60 145 75 60 145 75 60 145 75 60 145 75 60 145 75 60 145 75 60 145 75 60 145 75 60 145 75 60 145 75 60 145 75 60 145 75 60 145 75 85 170 100 85 170 100 85 170 100 85 170 100 85 170 100 85 170 100 85 170 100 85 170 100 60 145 75 60 145 75 60 145 75 60 145 75 60 145 75 60 145 75 60 145 75 60 145 75 85 170 100 85 170 100 85 170 100 85 170 100 85 170 100 85 170 100 85 170 100 85 170 100 60 145 75 60 145 75 60 145 75 60 145 75 60 145 75 60 145 75 60 145 75 60 145 75 85 170 100 85 170 100 85 170 100 85 170 100 85 170 100 85 170 100 85 170 100 85 170 100 85 110 190 85 110 190 85 110 190 85 110 190 85 110 190 85 110 190 85 110 190 85 110 190 60 85 165 60 85 165 60 85 165 60 85 165 60 85 165 60 85 165 60 85 165 60 85 165 85 110 190 85 110 190 85 110 190 85 110 190 85 110 190 85 110 190 85 110 190 85 110 190 60 85 165 60 85 165 60 85 165 60 85 165 60 85 165 60 85 165 60 85 165 60 85 165 85 110 190 85 110 190 85 110 190 85 110 190 85 110 190 85 110 190 85 110 190 85 110 190 60 85 165 60 85 165 60 85 165 60 85 165 60 85 165 60 85 165 60 85 165 60 85 165 60 85 165 60 85 165 60 85 165 60 85 165 60 85 165 60 85 165 60 85 165 60 85 165 85 110 190 85 110 190 85 110 190 85 110 190 85 110 190 85 110 190 85 110 190 85 110 190 60 85 165 60 85 165 60 85 165 60 85 165 60 85 165 60 85 165 60 85 165 60 85 165 85 110 190 85 110 190 85 110 190 85 110 190 85 110 190 85 110 190 85 110 190 85 110 190 60 85 165 60 85 165 60 85 165 60 85 165 60 85 165 60 85 165 60 85 165 60 85 165 85 110 190 85 110 190 85 110 190 85 110 190 85 110 190 85 110 190 85 110 190 85 110 190
60 145 75 60 145 75 60 145 75 60 145 75 60 145 75 60 145 75 60 145 75 60 145 75 85 170 100 85 170 100 85 170 100 85 170 100 85 170 100 85 170 100 85 170 100 85 170 100 60 145 75 60 145 75 60 145 75 60 145 75 60 145 75 60 145 75 60 145 75 60 145 75 85 170 100 85 170 100 85 170 100 85 170 100 85 170 100 85 170 100 85 170 100 85 170 100 60 145 75 60 145 75 60 145 75 60 145 75 60 145 75 60 145 75 60 145 75 60 145 75 85 170 100 85 170 100 85 170 100 85 170 100 85 170 100 85 170 100 85 170 100 85 170 100 85 170 100 85 170 100 85 170 100 85 170 100 85 170 100 85 170 100 85 170 100 85 170 100 60 145 75 60 145 75 60 145 75 60 145 75 60 145 75 60 145 75 60 145 75 60 145 75 85 170 100 85 170 100 85 170 100 85 170 100 85 170 100 85 170 100 85 170 100 85 170 100 60 145 75 60 145 75 60 145 75 60 145 75 60 145 75 60 145 75 60 145 75 60 145 75 85 170 100 85 170 100 85 170 100 85 170 100 85 170 100 85 170 100 85 170 100 85 170 100 60 145 75 60 145 75 60 145 75 60 145 75 60 145 75 60 145 75 60 145 75 60 145 75 60 145 75 60 145 75 60 145 75 60 145 75 60 145 75 60 145 75 60 145 75 60 145 75 85 170 100 85 170 100 85 170 100 85 170 100 85 170 100 85 170 100 85 170 100 85 170 100 60 145 75 60 145 75 60 145 75 60 145 75 60 145 75 60 145 75 60 145 75 60 145 75 85 170 100 85 170 100 85 170 100 85 170 100 85 170 100 85 170 100 85 170 100 85 170 100 60 145 75 60 145 75 60 145 75 60 145 75 60 145 75 60 145 75 60 145 75 60 145 75 85 170 100 85 170 100 85 170 100 85 170 100 85 170 100 85 170 100 85 170 100 85 170 100 85 110 190 85 110 190 85 110 190 85 110 190 85 110 190 85 110 190 85 110 190 85 110 190 60 85 165 60 85 165 60 85 165 60 85 165 60 85 165 60 85 165 60 85 165 60 85 165 85 110 190 85 110 190 85 110 190 85 110 190 85 110 190 85 110 190 85 110 190 85 110 190 60 85 165 60 85 165 60 85 165 60 85 165 60 85 165 60 85 165 60 85 165 60 85 165 85 110 190 85 110 190 85 110 190 85 110 190 85 110 190 85 110 190 85 110 190 85 110 190 60 85 165 60 85 165 60 85 165 60 85 165 60 85 165 60 85 165 60 85 165 60 85 165 60 85 165 60 85 165 60 85 165 60 85 165 60 85 165 60 85 165 60 85 165 60 85 165 85 110 190 85 110 190 85 110 190 85 110 190 85 110 190 85 110 190 85 110 190 85 110 190 60 85 165 60 85 165 60 85 165 60 85 165 60 85 165 60 85 165 60 85 165 60 85 165 85 110 190 85 110 190 85 110 190 85 110 190 85 110 190 85 110 190 85 110 190 85 110 190 60 85 165 60 85 165 60 85 165 60 85 165 60 85 165 60 85 165 60 85 165 60 85 165 85 110 190 85 110 190 85 110 190 85 110 190 85 110 190 85 110 190 85 110 190 85 110 190
60 145 75 60 145 75 60 145 75 60 145 75 60 145 75 60 145 75 60 145 75 60 145 75 85 170 100 85 170 100 85 170 100 85 170 100 85 170 100 85 170 100 85 170 100 85 170 100 60 145 75 60 145 75 60 145 75 60 145 75 60 145 75 60 145 75 60 145 75 60 145 75 85 170 100 85 170 100 85 170 100 85 170 100 85 170 100 85 170 100 85 170 100 85 170 100 60 145 75 60 145 75 60 145 75 60 145 75 60 145 75 60 145 75 60 145 75 60 145 75 85 170 100 85 170 100 85 170 100 85 170 100 85 170 100 85 170 100 85 170 100 85 170 100 85 170 100 85 170 100 85 170 100 85 170 100 85 170 100 85 170 100 85 170 100 85 170 100 60 145 75 60 145 75 60 145 75 60 145 75 60 145 75 60 145 75 60 145 75 60 145 75 85 170 100 85 170 100 85 170 100 85 170 100 85 170 100 85 170 100 85 170 100 85 170 100 60 145 75 60 145 75 60 145 75 60 145 75 60 145 75 60 145 75 60 145 75 60 145 75 85 170 100 85 170 100 85 170 100 85 170 100 85 170 100 85 170 100 85 170 100 85 170 100 60 145 75 60 145 75 60 145 75 60 145 75 60 145 75 60 145 75 60 145 75 60 145 75 60 145 75 60 145 75 60 145 75 60 145 75 60 145 75 60 145 75 60 145 75 60 145 75 85 170 100 85 170 100 85 170 100 85 170 100 85 170 100 85 170 100 85 170 100 85 170 100 60 145 75 60 145 75 60 145 75 60 145 75 60 145 75 60 145 75 60 145 75 60 145 75 85 170 100 85 170 100 85 170 100 85 170 100 85 170 100 85 170 100 85 170 100 85 170 100 60 145 75 60 145 75 60 145 75 60 145 75 60 145 75 60 145 75 60 145 75 60 145 75 85 170 100 85 170 100 85 170 100 85 170 100 85 170 100 85 170 100 85 170 100 85 170 100 85 110 190 85 110 190 85 110 190 85 110 190 85 110 190 85 110 190 85 110 190 85 110 190 60 85 165 60 85 165 60 85 165 60 85 165 60 85 165 60 85 165 60 85 165 60 85 165 85 110 190 85 110 190 85 110 190 85 110 190 85 110 190 85 110 190 85 110 190 85 110 190 60 85 165 60 85 165 60 85 165 60 85 165 60 85 165 60 85 165 60 85 165 60 85 165 85 110 190 85 110 190 85 110 190 85 110 190 85 110 190 85 110 190 85 110 190 85 110 190 60 85 165 60 85 165 60 85 165 60 85 165 60 85 165 60 85 165 60 85 165 60 85 165 60 85 165 60 85 165 60 85 165 60 85 165 60 85 165 60 85 165 60 85 165 60 85 165 85 110 190 85 110 190 85 110 190 85 110 190 85 110 190 85 110 190 85 110 190 85 110 190 60 85 165 60 85 165 60 85 165 60 85 165 60 85 165 60 85 165 60 85 165 60 85 165 85 110 190 85 110 190 85 110 190 85 110 190 85 110 190 85 110 190 85 110 190 85 110 190 60 85 165 60 85 165 60 85 165 60 85 165 60 85 165 60 85 165 60 85 165 60 85 165 85 110 190 85 110 190 85 110 190 85 110 190 85 110 190 85 110 190 85 110 190 85 110 190
60 145 75 60 145 75 60 145 75 60 145 75 60 145 75 60 145 75 60 145 75 60 145 75 85 170 100 85 170 100 85 170 100 85 170 100 85 170 100 85 170 100 85 170 100 85 170 100 60 145 75 60 145 75 60 145 75 60 145 75 60 145 75 60 145 75 60 145 75 60 145 75 85 170 100 85 170 100 85 170 100 85 170 100 85 170 100 85 170 100 85 170 100 85 170 100 60 145 75 60 145 75 60 145 75 60 145 75 60 145 75 60 145 75 60 145 75 60 145 75 85 170 100 85 170 100 85 170 100 85 170 100 85 170 100 85 170 100 85 170 100 85 170 100 85 170 100 85 170 100 85 170 100 85 170 100 85 170 100 85 170 100 85 170 100 85 170 100 60 145 75 60 145 75 60 145 75 60 145 75 60 145 75 60 145 75 60 145 75 60 145 75 85 170 100 85 170 100 85 170 100 85 170 100 85 170 100 85 170 100 85 170 100 85 170 100 60 145 75 60 145 75 60 145 75 60 145 75 60 145 75 60 145 75 60 145 75 60 145 75 85 170 100 85 170 100 85 170 100 85 170 100 85 170 100 85 170 100 85 170 100 85 170 100 60 145 75 60 145 75 60 145 75 60 145 75 60 145 75 60 145 75 60 145 75 60 145 75 60 145 75 60 145 75 60 145 75 60 145 75 60 145 75 60 145 75 60 145 75 60 145 75 85 170 100 85 170 100 85 170 100 85 170 100 85 170 100 85 170 100 85 170 100 85 170 100 60 145 75 60 145 75 60 145 75 60 145 75 60 145 75 60 145 75 60 145 75 60 145 75 85 170 100 85 170 100 85 170 100 85 170 100 85 170 100 85 170 100 85 170 100 85 170 100 60 145 75 60 145 75 60 145 75 60 145 75 60 145 75 60 145 75 60 145 75 60 145 75 85 170 100 85 170 100 85 170 100 85 170 100 85 170 100 85 170 100 85 170 100 85 170 100 85 110 190 85 110 190 85 110 190 85 110 190 85 110 190 85 110 190 85 110 190 85 110 190 60 85 165 60 85 165 60 85 165 60 85 165 60 85 165 60 85 165 60 85 165 60 85 165 85 110 190 85 110 190 85 110 190 85 110 190 85 110 190 85 110 190 85 110 190 85 110 190 60 85 165 60 85 165 60 85 165 60 85 165 60 85 165 60 85 165 60 85 165 60 85 165 85 110 190 85 110 190 85 110 190 85 110 190 85 110 190 85 110 190 85 110 190 85 110 190 60 85 165 60 85 165 60 85 165 60 85 165 60 85 165 60 85 165 60 85 165 60 85 165 60 85 165 60 85 165 60 85 165 60 85 165 60 85 165 60 85 165 60 85 165 60 85 165 85 110 190 85 110 190 85 110 190 85 110 190 85 110 190 85 110 190 85 110 190 85 110 190 60 85 165 60 85 165 60 85 165 60 85 165 60 85 165 60 85 165 60 85 165 60 85 165 85 110 190 85 110 190 85 110 190 85 110 190 85 110 190 85 110 190 85 110 190 85 110 190 60 85 165 60 85 165 60 85 165 60 85 165 60 85 165 60 85 165 60 85 165 60 85 165 85 110 190 85 110 190 85 110 190 85 110 190 85 110 190 85 110 190 85 110 190 85 110 190
