P3
96 64
255
45 65 95 47 65 96 49 65 97 51 65 98 53 65 99 55 65 100 57 65 101 59 65 102 61 65 103 63 65 104 65 65 105 67 65 106 69 65 107 71 65 108 73 65 109 75 65 110 77 65 111 79 65 112 81 65 113 83 65 114 85 65 115 87 65 116 89 65 117 91 65 118 93 65 119 95 65 120 97 65 121 99 65 122 101 65 123 103 65 124 105 65 125 107 65 126 75 83 102 77 83 103 79 83 104 81 83 105 83 83 106 85 83 107 87 83 108 89 83 109 91 83 110 93 83 111 95 83 112 97 83 113 99 83 114 101 83 115 103 83 116 105 83 117 107 83 118 109 83 119 111 83 120 113 83 121 115 83 122 117 83 123 119 83 124 121 83 125 123 83 126 125 83 127 127 83 128 129 83 129 131 83 130 133 83 131 135 83 132 137 83 133 105 101 109 107 101 110 109 101 111 111 101 112 113 101 113 115 101 114 117 101 115 119 101 116 121 101 117 123 101 118 125 101 119 127 101 120 129 101 121 131 101 122 133 101 123 135 101 124 137 101 125 139 101 126 141 101 127 143 101 128 145 101 129 147 101 130 149 101 131 151 101 132 153 101 133 155 101 134 157 101 135 159 101 136 161 101 137 163 101 138 165 101 139 167 101 140
45 68 96 47 68 97 49 68 98 51 68 99 53 68 100 55 68 101 57 68 102 59 68 103 61 68 104 63 68 105 65 68 106 67 68 107 69 68 108 71 68 109 73 68 110 75 68 111 77 68 112 79 68 113 81 68 114 83 68 115 85 68 116 87 68 117 89 68 118 91 68 119 93 68 120 95 68 121 97 68 122 99 68 123 101 68 124 103 68 125 105 68 126 107 68 127 75 86 103 77 86 104 79 86 105 81 86 106 83 86 107 85 86 108 87 86 109 89 86 110 91 86 111 93 86 112 95 86 113 97 86 114 99 86 115 101 86 116 103 86 117 105 86 118 107 86 119 109 86 120 111 86 121 113 86 122 115 86 123 117 86 124 119 86 125 121 86 126 123 86 127 125 86 128 127 86 129 129 86 130 131 86 131 133 86 132 135 86 133 137 86 134 105 104 110 107 104 111 109 104 112 111 104 113 113 104 114 115 104 115 117 104 116 119 104 117 121 104 118 123 104 119 125 104 120 127 104 121 129 104 122 131 104 123 133 104 124 135 104 125 137 104 126 139 104 127 141 104 128 143 104 129 145 104 130 147 104 131 149 104 132 151 104 133 153 104 134 155 104 135 157 104 136 159 104 137 161 104 138 163 104 139 165 104 140 167 104 141
45 71 97 47 71 98 49 71 99 51 71 100 53 71 101 55 71 102 57 71 103 59 71 104 61 71 105 63 71 106 65 71 107 67 71 108 69 71 109 71 71 110 73 71 111 75 71 112 77 71 113 79 71 114 81 71 115 83 71 116 85 71 117 87 71 118 89 71 119 91 71 120 93 71 121 95 71 122 97 71 123 99 71 124 101 71 125 103 71 126 105 71 127 107 71 128 75 89 104 77 89 105 79 89 106 81 89 107 83 89 108 85 89 109 87 89 110 89 89 111 91 89 112 93 89 113 95 89 114 97 89 115 99 89 116 101 89 117 103 89 118 105 89 119 107 89 120 109 89 121 111 89 122 113 89 123 115 89 124 117 89 125 119 89 126 121 89 127 123 89 128 125 89 129 127 89 130 129 89 131 131 89 132 133 89 133 135 89 134 137 89 135 105 107 111 107 107 112 109 107 113 111 107 114 113 107 115 115 107 116 117 107 117 119 107 118 121 107 119 123 107 120 125 107 121 127 107 122 129 107 123 131 107 124 133 107 125 135 107 126 137 107 127 139 107 128 141 107 129 143 107 130 145 107 131 147 107 132 149 107 133 151 107 134 153 107 135 155 107 136 157 107 137 159 107 138 161 107 139 163 107 140 165 107 141 167 107 142
45 74 98 47 74 99 49 74 100 51 74 101 53 74 102 55 74 103 57 74 104 59 74 105 61 74 106 63 74 107 65 74 108 67 74 109 69 74 110 71 74 111 73 74 112 75 74 113 77 74 114 79 74 115 81 74 116 83 74 117 85 74 118 87 74 119 89 74 120 91 74 121 93 74 122 95 74 123 97 74 124 99 74 125 101 74 126 103 74 127 105 74 128 107 74 129 75 92 105 77 92 106 79 92 107 81 92 108 83 92 109 85 92 110 87 92 111 89 92 112 91 92 113 93 92 114 95 92 115 97 92 116 99 92 117 101 92 118 103 92 119 105 92 120 107 92 121 109 92 122 111 92 123 113 92 124 115 92 125 117 92 126 119 92 127 121 92 128 123 92 129 125 92 130 127 92 131 129 92 132 131 92 133 133 92 134 135 92 135 137 92 136 105 110 112 107 110 113 109 110 114 111 110 115 113 110 116 115 110 117 117 110 118 119 110 119 121 110 120 123 110 121 125 110 122 127 110 123 129 110 124 131 110 125 133 110 126 135 110 127 137 110 128 139 110 129 141 110 130 143 110 131 145 110 132 147 110 133 149 110 134 151 110 135 153 110 136 155 110 137 157 110 138 159 110 139 161 110 140 163 110 141 165 110 142 167 110 143
45 77 99 47 77 100 49 77 101 51 77 102 53 77 103 55 77 104 57 77 105 59 77 106 61 77 107 63 77 108 65 77 109 67 77 110 69 77 111 71 77 112 73 77 113 75 77 114 77 77 115 79 77 116 81 77 117 83 77 118 85 77 119 87 77 120 89 77 121 91 77 122 93 77 123 95 77 124 97 77 125 99 77 126 101 77 127 103 77 128 105 77 129 107 77 130 75 95 106 77 95 107 79 95 108 81 95 109 83 95 110 85 95 111 87 95 112 89 95 113 91 95 114 93 95 115 95 95 116 97 95 117 99 95 118 101 95 119 103 95 120 105 95 121 107 95 122 109 95 123 111 95 124 113 95 125 115 95 126 117 95 127 119 95 128 121 95 129 123 95 130 125 95 131 127 95 132 129 95 133 131 95 134 133 95 135 135 95 136 137 95 137 105 113 113 107 113 114 109 113 115 111 113 116 113 113 117 115 113 118 117 113 119 119 113 120 121 113 121 123 113 122 125 113 123 127 113 124 129 113 125 131 113 126 133 113 127 135 113 128 137 113 129 139 113 130 141 113 131 143 113 132 145 113 133 147 113 134 149 113 135 151 113 136 153 113 137 155 113 138 157 113 139 159 113 140 161 113 141 163 113 142 165 113 143 167 113 144
45 80 100 47 80 101 49 80 102 51 80 103 53 80 104 55 80 105 57 80 106 59 80 107 61 80 108 63 80 109 65 80 110 67 80 111 69 80 112 71 80 113 73 80 114 75 80 115 77 80 116 79 80 117 81 80 118 83 80 119 85 80 120 87 80 121 89 80 122 91 80 123 93 80 124 95 80 125 97 80 126 99 80 127 101 80 128 103 80 129 105 80 130 107 80 131 75 98 107 77 98 108 79 98 109 81 98 110 83 98 111 85 98 112 87 98 113 89 98 114 91 98 115 93 98 116 95 98 117 97 98 118 99 98 119 101 98 120 103 98 121 105 98 122 107 98 123 109 98 124 111 98 125 113 98 126 115 98 127 117 98 128 119 98 129 121 98 130 123 98 131 125 98 132 127 98 133 129 98 134 131 98 135 133 98 136 135 98 137 137 98 138 105 116 114 107 116 115 109 116 116 111 116 117 113 116 118 115 116 119 117 116 120 119 116 121 121 116 122 123 116 123 125 116 124 127 116 125 129 116 126 131 116 127 133 116 128 135 116 129 137 116 130 139 116 131 141 116 132 143 116 133 145 116 134 147 116 135 149 116 136 151 116 137 153 116 138 155 116 139 157 116 140 159 116 141 161 116 142 163 116 143 165 116 144 167 116 145
45 83 101 47 83 102 49 83 103 51 83 104 53 83 105 55 83 106 57 83 107 59 83 108 61 83 109 63 83 110 65 83 111 67 83 112 69 83 113 71 83 114 73 83 115 75 83 116 77 83 117 79 83 118 81 83 119 83 83 120 85 83 121 87 83 122 89 83 123 91 83 124 93 83 125 95 83 126 97 83 127 99 83 128 101 83 129 103 83 130 105 83 131 107 83 132 75 101 108 77 101 109 79 101 110 81 101 111 83 101 112 85 101 113 87 101 114 89 101 115 91 101 116 93 101 117 95 101 118 97 101 119 99 101 120 101 101 121 103 101 122 105 101 123 107 101 124 109 101 125 111 101 126 113 101 127 115 101 128 117 101 129 119 101 130 121 101 131 123 101 132 125 101 133 127 101 134 129 101 135 131 101 136 133 101 137 135 101 138 137 101 139 105 119 115 107 119 116 109 119 117 111 119 118 113 119 119 115 119 120 117 119 121 119 119 122 121 119 123 123 119 124 125 119 125 127 119 126 129 119 127 131 119 128 133 119 129 135 119 130 137 119 131 139 119 132 141 119 133 143 119 134 145 119 135 147 119 136 149 119 137 151 119 138 153 119 139 155 119 140 157 119 141 159 119 142 161 119 143 163 119 144 165 119 145 167 119 146
45 86 102 47 86 103 49 86 104 51 86 105 53 86 106 55 86 107 57 86 108 59 86 109 61 86 110 63 86 111 65 86 112 67 86 113 69 86 114 71 86 115 73 86 116 75 86 117 77 86 118 79 86 119 81 86 120 83 86 121 85 86 122 87 86 123 89 86 124 91 86 125 93 86 126 95 86 127 97 86 128 99 86 129 101 86 130 103 86 131 105 86 132 107 86 133 75 104 109 77 104 110 79 104 111 81 104 112 83 104 113 85 104 114 87 104 115 89 104 116 91 104 117 93 104 118 95 104 119 97 104 120 99 104 121 101 104 122 103 104 123 105 104 124 107 104 125 109 104 126 111 104 127 113 104 128 115 104 129 117 104 130 119 104 131 121 104 132 123 104 133 125 104 134 127 104 135 129 104 136 131 104 137 133 104 138 135 104 139 137 104 140 105 122 116 107 122 117 109 122 118 111 122 119 113 122 120 115 122 121 117 122 122 119 122 123 121 122 124 123 122 125 125 122 126 127 122 127 129 122 128 131 122 129 133 122 130 135 122 131 137 122 132 139 122 133 141 122 134 143 122 135 145 122 136 147 122 137 149 122 138 151 122 139 153 122 140 155 122 141 157 122 142 159 122 143 161 122 144 163 122 145 165 122 146 167 122 147
45 89 103 47 89 104 49 89 105 51 89 106 53 89 107 55 89 108 57 89 109 59 89 110 61 89 111 63 89 112 65 89 113 67 89 114 69 89 115 71 89 116 73 89 117 75 89 118 77 89 119 79 89 120 81 89 121 83 89 122 85 89 123 87 89 124 89 89 125 91 89 126 93 89 127 95 89 128 97 89 129 99 89 130 101 89 131 103 89 132 105 89 133 107 89 134 75 107 110 77 107 111 79 107 112 81 107 113 83 107 114 85 107 115 87 107 116 89 107 117 91 107 118 93 107 119 95 107 120 97 107 121 99 107 122 101 107 123 103 107 124 105 107 125 107 107 126 109 107 127 111 107 128 113 107 129 115 107 130 117 107 131 119 107 132 121 107 133 123 107 134 125 107 135 127 107 136 129 107 137 131 107 138 133 107 139 135 107 140 137 107 141 105 125 117 107 125 118 109 125 119 111 125 120 113 125 121 115 125 122 117 125 123 119 125 124 121 125 125 123 125 126 125 125 127 127 125 128 129 125 129 131 125 130 133 125 131 135 125 132 137 125 133 139 125 134 141 125 135 143 125 136 145 125 137 147 125 138 149 125 139 151 125 140 153 125 141 155 125 142 157 125 143 159 125 144 161 125 145 163 125 146 165 125 147 167 125 148
45 92 104 47 92 105 49 92 106 51 92 107 53 92 108 55 92 109 57 92 110 59 92 111 61 92 112 63 92 113 65 92 114 67 92 115 69 92 116 71 92 117 73 92 118 75 92 119 77 92 120 79 92 121 81 92 122 83 92 123 85 92 124 87 92 125 89 92 126 91 92 127 93 92 128 95 92 129 97 92 130 99 92 131 101 92 132 103 92 133 105 92 134 107 92 135 75 110 111 77 110 112 79 110 113 81 110 114 83 110 115 85 110 116 87 110 117 89 110 118 91 110 119 93 110 120 95 110 121 97 110 122 99 110 123 101 110 124 103 110 125 105 110 126 107 110 127 109 110 128 111 110 129 113 110 130 115 110 131 117 110 132 119 110 133 121 110 134 123 110 135 125 110 136 127 110 137 129 110 138 131 110 139 133 110 140 135 110 141 137 110 142 105 128 118 107 128 119 109 128 120 111 128 121 113 128 122 115 128 123 117 128 124 119 128 125 121 128 126 123 128 127 125 128 128 127 128 129 129 128 130 131 128 131 133 128 132 135 128 133 137 128 134 139 128 135 141 128 136 143 128 137 145 128 138 147 128 139 149 128 140 151 128 141 153 128 142 155 128 143 157 128 144 159 128 145 161 128 146 163 128 147 165 128 148 167 128 149
45 95 105 47 95 106 49 95 107 51 95 108 53 95 109 55 95 110 57 95 111 59 95 112 61 95 113 63 95 114 65 95 115 67 95 116 69 95 117 71 95 118 73 95 119 75 95 120 77 95 121 79 95 122 81 95 123 83 95 124 85 95 125 87 95 126 89 95 127 91 95 128 93 95 129 95 95 130 97 95 131 99 95 132 101 95 133 103 95 134 105 95 135 107 95 136 75 113 112 77 113 113 79 113 114 81 113 115 83 113 116 85 113 117 87 113 118 89 113 119 91 113 120 93 113 121 95 113 122 97 113 123 99 113 124 101 113 125 103 113 126 105 113 127 107 113 128 109 113 129 111 113 130 113 113 131 115 113 132 117 113 133 119 113 134 121 113 135 123 113 136 125 113 137 127 113 138 129 113 139 131 113 140 133 113 141 135 113 142 137 113 143 105 131 119 107 131 120 109 131 121 111 131 122 113 131 123 115 131 124 117 131 125 119 131 126 121 131 127 123 131 128 125 131 129 127 131 130 129 131 131 131 131 132 133 131 133 135 131 134 137 131 135 139 131 136 141 131 137 143 131 138 145 131 139 147 131 140 149 131 141 151 131 142 153 131 143 155 131 144 157 131 145 159 131 146 161 131 147 163 131 148 165 131 149 167 131 150
45 98 106 47 98 107 49 98 108 51 98 109 53 98 110 55 98 111 57 98 112 59 98 113 61 98 114 63 98 115 65 98 116 67 98 117 69 98 118 71 98 119 73 98 120 75 98 121 77 98 122 79 98 123 81 98 124 83 98 125 85 98 126 87 98 127 89 98 128 91 98 129 93 98 130 95 98 131 97 98 132 99 98 133 101 98 134 103 98 135 105 98 136 107 98 137 75 116 113 77 116 114 79 116 115 81 116 116 83 116 117 85 116 118 87 116 119 89 116 120 91 116 121 93 116 122 95 116 123 97 116 124 99 116 125 101 116 126 103 116 127 105 116 128 107 116 129 109 116 130 111 116 131 113 116 132 115 116 133 117 116 134 119 116 135 121 116 136 123 116 137 125 116 138 127 116 139 129 116 140 131 116 141 133 116 142 135 116 143 137 116 144 105 134 120 107 134 121 109 134 122 111 134 123 113 134 124 115 134 125 117 134 126 119 134 127 121 134 128 123 134 129 125 134 130 127 134 131 129 134 132 131 134 133 133 134 134 135 134 135 137 134 136 139 134 137 141 134 138 143 134 139 145 134 140 147 134 141 149 134 142 151 134 143 153 134 144 155 134 145 157 134 146 159 134 147 161 134 148 163 134 149 165 134 150 167 134 151
45 101 107 47 101 108 49 101 109 51 101 110 53 101 111 55 101 112 57 101 113 59 101 114 61 101 115 63 101 116 65 101 117 67 101 118 69 101 119 71 101 120 73 101 121 75 101 122 77 101 123 79 101 124 81 101 125 83 101 126 85 101 127 87 101 128 89 101 129 91 101 130 93 101 131 95 101 132 97 101 133 99 101 134 101 101 135 103 101 136 105 101 137 107 101 138 75 119 114 77 119 115 79 119 116 81 119 117 83 119 118 85 119 119 87 119 120 89 119 121 91 119 122 93 119 123 95 119 124 97 119 125 99 119 126 101 119 127 103 119 128 105 119 129 107 119 130 109 119 131 111 119 132 113 119 133 115 119 134 117 119 135 119 119 136 121 119 137 123 119 138 125 119 139 127 119 140 129 119 141 131 119 142 133 119 143 135 119 144 137 119 145 105 137 121 107 137 122 109 137 123 111 137 124 113 137 125 115 137 126 117 137 127 119 137 128 121 137 129 123 137 130 125 137 131 127 137 132 129 137 133 131 137 134 133 137 135 135 137 136 137 137 137 139 137 138 141 137 139 143 137 140 145 137 141 147 137 142 149 137 143 151 137 144 153 137 145 155 137 146 157 137 147 159 137 148 161 137 149 163 137 150 165 137 151 167 137 152
45 104 108 47 104 109 49 104 110 51 104 111 53 104 112 55 104 113 57 104 114 59 104 115 61 104 116 63 104 117 65 104 118 67 104 119 69 104 120 71 104 121 73 104 122 75 104 123 77 104 124 79 104 125 81 104 126 83 104 127 85 104 128 87 104 129 89 104 130 91 104 131 93 104 132 95 104 133 97 104 134 99 104 135 101 104 136 103 104 137 105 104 138 107 104 139 75 122 115 77 122 116 79 122 117 81 122 118 83 122 119 85 122 120 87 122 121 89 122 122 91 122 123 93 122 124 95 122 125 97 122 126 99 122 127 101 122 128 103 122 129 105 122 130 107 122 131 109 122 132 111 122 133 113 122 134 115 122 135 117 122 136 119 122 137 121 122 138 123 122 139 125 122 140 127 122 141 129 122 142 131 122 143 133 122 144 135 122 145 137 122 146 105 140 122 107 140 123 109 140 124 111 140 125 113 140 126 115 140 127 117 140 128 119 140 129 121 140 130 123 140 131 125 140 132 127 140 133 129 140 134 131 140 135 133 140 136 135 140 137 137 140 138 139 140 139 141 140 140 143 140 141 145 140 142 147 140 143 149 140 144 151 140 145 153 140 146 155 140 147 157 140 148 159 140 149 161 140 150 163 140 151 165 140 152 167 140 153
45 107 109 47 107 110 49 107 111 51 107 112 53 107 113 55 107 114 57 107 115 59 107 116 61 107 117 63 107 118 65 107 119 67 107 120 69 107 121 71 107 122 73 107 123 75 107 124 77 107 125 79 107 126 81 107 127 83 107 128 85 107 129 87 107 130 89 107 131 91 107 132 93 107 133 95 107 134 97 107 135 99 107 136 101 107 137 103 107 138 105 107 139 107 107 140 75 125 116 77 125 117 79 125 118 81 125 119 83 125 120 85 125 121 87 125 122 89 125 123 91 125 124 93 125 125 95 125 126 97 125 127 99 125 128 101 125 129 103 125 130 105 125 131 107 125 132 109 125 133 111 125 134 113 125 135 115 125 136 117 125 137 119 125 138 121 125 139 123 125 140 125 125 141 127 125 142 129 125 143 131 125 144 133 125 145 135 125 146 137 125 147 105 143 123 107 143 124 109 143 125 111 143 126 113 143 127 115 143 128 117 143 129 119 143 130 121 143 131 123 143 132 125 143 133 127 143 134 129 143 135 131 143 136 133 143 137 135 143 138 137 143 139 139 143 140 141 143 141 143 143 142 145 143 143 147 143 144 149 143 145 151 143 146 153 143 147 155 143 148 157 143 149 159 143 150 161 143 151 163 143 152 165 143 153 167 143 154
45 110 110 47 110 111 49 110 112 51 110 113 53 110 114 55 110 115 57 110 116 59 110 117 61 110 118 63 110 119 65 110 120 67 110 121 69 110 122 71 110 123 73 110 124 75 110 125 77 110 126 79 110 127 81 110 128 83 110 129 85 110 130 87 110 131 89 110 132 91 110 133 93 110 134 95 110 135 97 110 136 99 110 137 101 110 138 103 110 139 105 110 140 107 110 141 75 128 117 77 128 118 79 128 119 81 128 120 83 128 121 85 128 122 87 128 123 89 128 124 91 128 125 93 128 126 95 128 127 97 128 128 99 128 129 101 128 130 103 128 131 105 128 132 107 128 133 109 128 134 111 128 135 113 128 136 115 128 137 117 128 138 119 128 139 121 128 140 123 128 141 125 128 142 127 128 143 129 128 144 131 128 145 133 128 146 135 128 147 137 128 148 105 146 124 107 146 125 109 146 126 111 146 127 113 146 128 115 146 129 117 146 130 119 146 131 121 146 132 123 146 133 125 146 134 127 146 135 129 146 136 131 146 137 133 146 138 135 146 139 137 146 140 139 146 141 141 146 142 143 146 143 145 146 144 147 146 145 149 146 146 151 146 147 153 146 148 155 146 149 157 146 150 159 146 151 161 146 152 163 146 153 165 146 154 167 146 155
45 113 111 47 113 112 49 113 113 51 113 114 53 113 115 55 113 116 57 113 117 59 113 118 61 113 119 63 113 120 65 113 121 67 113 122 69 113 123 71 113 124 73 113 125 75 113 126 77 113 127 79 113 128 81 113 129 83 113 130 85 113 131 87 113 132 89 113 133 91 113 134 93 113 135 95 113 136 97 113 137 99 113 138 101 113 139 103 113 140 105 113 141 107 113 142 75 131 118 77 131 119 79 131 120 81 131 121 83 131 122 85 131 123 87 131 124 89 131 125 91 131 126 93 131 127 95 131 128 97 131 129 99 131 130 101 131 131 103 131 132 105 131 133 107 131 134 109 131 135 111 131 136 113 131 137 115 131 138 117 131 139 119 131 140 121 131 141 123 131 142 125 131 143 127 131 144 129 131 145 131 131 146 133 131 147 135 131 148 137 131 149 105 149 125 107 149 126 109 149 127 111 149 128 113 149 129 115 149 130 117 149 131 119 149 132 121 149 133 123 149 134 125 149 135 127 149 136 129 149 137 131 149 138 133 149 139 135 149 140 137 149 141 139 149 142 141 149 143 143 149 144 145 149 145 147 149 146 149 149 147 151 149 148 153 149 149 155 149 150 157 149 151 159 149 152 161 149 153 163 149 154 165 149 155 167 149 156
45 116 112 47 116 113 49 116 114 51 116 115 53 116 116 55 116 117 57 116 118 59 116 119 61 116 120 63 116 121 65 116 122 67 116 123 69 116 124 71 116 125 73 116 126 75 116 127 77 116 128 79 116 129 81 116 130 83 116 131 85 116 132 87 116 133 89 116 134 91 116 135 93 116 136 95 116 137 97 116 138 99 116 139 101 116 140 103 116 141 105 116 142 107 116 143 75 134 119 77 134 120 79 134 121 81 134 122 83 134 123 85 134 124 87 134 125 89 134 126 91 134 127 93 134 128 95 134 129 97 134 130 99 134 131 101 134 132 103 134 133 105 134 134 107 134 135 109 134 136 111 134 137 113 134 138 115 134 139 117 134 140 119 134 141 121 134 142 123 134 143 125 134 144 127 134 145 129 134 146 131 134 147 133 134 148 135 134 149 137 134 150 105 152 126 107 152 127 109 152 128 111 152 129 113 152 130 115 152 131 117 152 132 119 152 133 121 152 134 123 152 135 125 152 136 127 152 137 129 152 138 131 152 139 133 152 140 135 152 141 137 152 142 139 152 143 141 152 144 143 152 145 145 152 146 147 152 147 149 152 148 151 152 149 153 152 150 155 152 151 157 152 152 159 152 153 161 152 154 163 152 155 165 152 156 167 152 157
45 119 113 47 119 114 49 119 115 51 119 116 53 119 117 55 119 118 57 119 119 59 119 120 61 119 121 63 119 122 65 119 123 67 119 124 69 119 125 71 119 126 73 119 127 75 119 128 77 119 129 79 119 130 81 119 131 83 119 132 85 119 133 87 119 134 89 119 135 91 119 136 93 119 137 95 119 138 97 119 139 99 119 140 101 119 141 103 119 142 105 119 143 107 119 144 75 137 120 77 137 121 79 137 122 81 137 123 83 137 124 85 137 125 87 137 126 89 137 127 91 137 128 93 137 129 95 137 130 97 137 131 99 137 132 101 137 133 103 137 134 105 137 135 107 137 136 109 137 137 111 137 138 113 137 139 115 137 140 117 137 141 119 137 142 121 137 143 123 137 144 125 137 145 127 137 146 129 137 147 131 137 148 133 137 149 135 137 150 137 137 151 105 155 127 107 155 128 109 155 129 111 155 130 113 155 131 115 155 132 117 155 133 119 155 134 121 155 135 123 155 136 125 155 137 127 155 138 129 155 139 131 155 140 133 155 141 135 155 142 137 155 143 139 155 144 141 155 145 143 155 146 145 155 147 147 155 148 149 155 149 151 155 150 153 155 151 155 155 152 157 155 153 159 155 154 161 155 155 163 155 156 165 155 157 167 155 158
45 122 114 47 122 115 49 122 116 51 122 117 53 122 118 55 122 119 57 122 120 59 122 121 61 122 122 63 122 123 65 122 124 67 122 125 69 122 126 71 122 127 73 122 128 75 122 129 77 122 130 79 122 131 81 122 132 83 122 133 85 122 134 87 122 135 89 122 136 91 122 137 93 122 138 95 122 139 97 122 140 99 122 141 101 122 142 103 122 143 105 122 144 107 122 145 75 140 121 77 140 122 79 140 123 81 140 124 83 140 125 85 140 126 87 140 127 89 140 128 91 140 129 93 140 130 95 140 131 97 140 132 99 140 133 101 140 134 103 140 135 105 140 136 107 140 137 109 140 138 111 140 139 113 140 140 115 140 141 117 140 142 119 140 143 121 140 144 123 140 145 125 140 146 127 140 147 129 140 148 131 140 149 133 140 150 135 140 151 137 140 152 105 158 128 107 158 129 109 158 130 111 158 131 113 158 132 115 158 133 117 158 134 119 158 135 121 158 136 123 158 137 125 158 138 127 158 139 129 158 140 131 158 141 133 158 142 135 158 143 137 158 144 139 158 145 141 158 146 143 158 147 145 158 148 147 158 149 149 158 150 151 158 151 153 158 152 155 158 153 157 158 154 159 158 155 161 158 156 163 158 157 165 158 158 167 158 159
45 125 115 47 125 116 49 125 117 51 125 118 53 125 119 55 125 120 57 125 121 59 125 122 61 125 123 63 125 124 65 125 125 67 125 126 69 125 127 71 125 128 73 125 129 75 125 130 77 125 131 79 125 132 81 125 133 83 125 134 85 125 135 87 125 136 89 125 137 91 125 138 93 125 139 95 125 140 97 125 141 99 125 142 101 125 143 103 125 144 105 125 145 107 125 146 75 143 122 77 143 123 79 143 124 81 143 125 83 143 126 85 143 127 87 143 128 89 143 129 91 143 130 93 143 131 95 143 132 97 143 133 99 143 134 101 143 135 103 143 136 105 143 137 107 143 138 109 143 139 111 143 140 113 143 141 115 143 142 117 143 143 119 143 144 121 143 145 123 143 146 125 143 147 127 143 148 129 143 149 131 143 150 133 143 151 135 143 152 137 143 153 105 161 129 107 161 130 109 161 131 111 161 132 113 161 133 115 161 134 117 161 135 119 161 136 121 161 137 123 161 138 125 161 139 127 161 140 129 161 141 131 161 142 133 161 143 135 161 144 137 161 145 139 161 146 141 161 147 143 161 148 145 161 149 147 161 150 149 161 151 151 161 152 153 161 153 155 161 154 157 161 155 159 161 156 161 161 157 163 161 158 165 161 159 167 161 160
45 128 116 47 128 117 49 128 118 51 128 119 53 128 120 55 128 121 57 128 122 59 128 123 61 128 124 63 128 125 65 128 126 67 128 127 69 128 128 71 128 129 73 128 130 75 128 131 77 128 132 79 128 133 81 128 134 83 128 135 85 128 136 87 128 137 89 128 138 91 128 139 93 128 140 95 128 141 97 128 142 99 128 143 101 128 144 103 128 145 105 128 146 107 128 147 75 146 123 77 146 124 79 146 125 81 146 126 83 146 127 85 146 128 87 146 129 89 146 130 91 146 131 93 146 132 95 146 133 97 146 134 99 146 135 101 146 136 103 146 137 105 146 138 107 146 139 109 146 140 111 146 141 113 146 142 115 146 143 117 146 144 119 146 145 121 146 146 123 146 147 125 146 148 127 146 149 129 146 150 131 146 151 133 146 152 135 146 153 137 146 154 105 164 130 107 164 131 109 164 132 111 164 133 113 164 134 115 164 135 117 164 136 119 164 137 121 164 138 123 164 139 125 164 140 127 164 141 129 164 142 131 164 143 133 164 144 135 164 145 137 164 146 139 164 147 141 164 148 143 164 149 145 164 150 147 164 151 149 164 152 151 164 153 153 164 154 155 164 155 157 164 156 159 164 157 161 164 158 163 164 159 165 164 160 167 164 161
45 131 117 47 131 118 49 131 119 51 131 120 53 131 121 55 131 122 57 131 123 59 131 124 61 131 125 63 131 126 65 131 127 67 131 128 69 131 129 71 131 130 73 131 131 75 131 132 77 131 133 79 131 134 81 131 135 83 131 136 85 131 137 87 131 138 89 131 139 91 131 140 93 131 141 95 131 142 97 131 143 99 131 144 101 131 145 103 131 146 105 131 147 107 131 148 75 149 124 77 149 125 79 149 126 81 149 127 83 149 128 85 149 129 87 149 130 89 149 131 91 149 132 93 149 133 95 149 134 97 149 135 99 149 136 101 149 137 103 149 138 105 149 139 107 149 140 109 149 141 111 149 142 113 149 143 115 149 144 117 149 145 119 149 146 121 149 147 123 149 148 125 149 149 127 149 150 129 149 151 131 149 152 133 149 153 135 149 154 137 149 155 105 167 131 107 167 132 109 167 133 111 167 134 113 167 135 115 167 136 117 167 137 119 167 138 121 167 139 123 167 140 125 167 141 127 167 142 129 167 143 131 167 144 133 167 145 135 167 146 137 167 147 139 167 148 141 167 149 143 167 150 145 167 151 147 167 152 149 167 153 151 167 154 153 167 155 155 167 156 157 167 157 159 167 158 161 167 159 163 167 160 165 167 161 167 167 162
45 134 118 47 134 119 49 134 120 51 134 121 53 134 122 55 134 123 57 134 124 59 134 125 61 134 126 63 134 127 65 134 128 67 134 129 69 134 130 71 134 131 73 134 132 75 134 133 77 134 134 79 134 135 81 134 136 83 134 137 85 134 138 87 134 139 89 134 140 91 134 141 93 134 142 95 134 143 97 134 144 99 134 145 101 134 146 103 134 147 105 134 148 107 134 149 75 152 125 77 152 126 79 152 127 81 152 128 83 152 129 85 152 130 87 152 131 89 152 132 91 152 133 93 152 134 95 152 135 97 152 136 99 152 137 101 152 138 103 152 139 105 152 140 107 152 141 109 152 142 111 152 143 113 152 144 115 152 145 117 152 146 119 152 147 121 152 148 123 152 149 125 152 150 127 152 151 129 152 152 131 152 153 133 152 154 135 152 155 137 152 156 105 170 132 107 170 133 109 170 134 111 170 135 113 170 136 115 170 137 117 170 138 119 170 139 121 170 140 123 170 141 125 170 142 127 170 143 129 170 144 131 170 145 133 170 146 135 170 147 137 170 148 139 170 149 141 170 150 143 170 151 145 170 152 147 170 153 149 170 154 151 170 155 153 170 156 155 170 157 157 170 158 159 170 159 161 170 160 163 170 161 165 170 162 167 170 163
45 137 119 47 137 120 49 137 121 51 137 122 53 137 123 55 137 124 57 137 125 59 137 126 61 137 127 63 137 128 65 137 129 67 137 130 69 137 131 71 137 132 73 137 133 75 137 134 77 137 135 79 137 136 81 137 137 83 137 138 85 137 139 87 137 140 89 137 141 91 137 142 93 137 143 95 137 144 97 137 145 99 137 146 101 137 147 103 137 148 105 137 149 107 137 150 75 155 126 77 155 127 79 155 128 81 155 129 83 155 130 85 155 131 87 155 132 89 155 133 91 155 134 93 155 135 95 155 136 97 155 137 99 155 138 101 155 139 103 155 140 105 155 141 107 155 142 109 155 143 111 155 144 113 155 145 115 155 146 117 155 147 119 155 148 121 155 149 123 155 150 125 155 151 127 155 152 129 155 153 131 155 154 133 155 155 135 155 156 137 155 157 105 173 133 107 173 134 109 173 135 111 173 136 113 173 137 115 173 138 117 173 139 119 173 140 121 173 141 123 173 142 125 173 143 127 173 144 129 173 145 131 173 146 133 173 147 135 173 148 137 173 149 139 173 150 141 173 151 143 173 152 145 173 153 147 173 154 149 173 155 151 173 156 153 173 157 155 173 158 157 173 159 159 173 160 161 173 161 163 173 162 165 173 163 167 173 164
45 140 120 47 140 121 49 140 122 51 140 123 53 140 124 55 140 125 57 140 126 59 140 127 61 140 128 63 140 129 65 140 130 67 140 131 69 140 132 71 140 133 73 140 134 75 140 135 77 140 136 79 140 137 81 140 138 83 140 139 85 140 140 87 140 141 89 140 142 91 140 143 93 140 144 95 140 145 97 140 146 99 140 147 101 140 148 103 140 149 105 140 150 107 140 151 75 158 127 77 158 128 79 158 129 81 158 130 83 158 131 85 158 132 87 158 133 89 158 134 91 158 135 93 158 136 95 158 137 97 158 138 99 158 139 101 158 140 103 158 141 105 158 142 107 158 143 109 158 144 111 158 145 113 158 146 115 158 147 117 158 148 119 158 149 121 158 150 123 158 151 125 158 152 127 158 153 129 158 154 131 158 155 133 158 156 135 158 157 137 158 158 105 176 134 107 176 135 109 176 136 111 176 137 113 176 138 115 176 139 117 176 140 119 176 141 121 176 142 123 176 143 125 176 144 127 176 145 129 176 146 131 176 147 133 176 148 135 176 149 137 176 150 139 176 151 141 176 152 143 176 153 145 176 154 147 176 155 149 176 156 151 176 157 153 176 158 155 176 159 157 176 160 159 176 161 161 176 162 163 176 163 165 176 164 167 176 165
45 143 121 47 143 122 49 143 123 51 143 124 53 143 125 55 143 126 57 143 127 59 143 128 61 143 129 63 143 130 65 143 131 67 143 132 69 143 133 71 143 134 73 143 135 75 143 136 77 143 137 79 143 138 81 143 139 83 143 140 85 143 141 87 143 142 89 143 143 91 143 144 93 143 145 95 143 146 97 143 147 99 143 148 101 143 149 103 143 150 105 143 151 107 143 152 75 161 128 77 161 129 79 161 130 81 161 131 83 161 132 85 161 133 87 161 134 89 161 135 91 161 136 93 161 137 95 161 138 97 161 139 99 161 140 101 161 141 103 161 142 105 161 143 107 161 144 109 161 145 111 161 146 113 161 147 115 161 148 117 161 149 119 161 150 121 161 151 123 161 152 125 161 153 127 161 154 129 161 155 131 161 156 133 161 157 135 161 158 137 161 159 105 179 135 107 179 136 109 179 137 111 179 138 113 179 139 115 179 140 117 179 141 119 179 142 121 179 143 123 179 144 125 179 145 127 179 146 129 179 147 131 179 148 133 179 149 135 179 150 137 179 151 139 179 152 141 179 153 143 179 154 145 179 155 147 179 156 149 179 157 151 179 158 153 179 159 155 179 160 157 179 161 159 179 162 161 179 163 163 179 164 165 179 165 167 179 166
45 146 122 47 146 123 49 146 124 51 146 125 53 146 126 55 146 127 57 146 128 59 146 129 61 146 130 63 146 131 65 146 132 67 146 133 69 146 134 71 146 135 73 146 136 75 146 137 77 146 138 79 146 139 81 146 140 83 146 141 85 146 142 87 146 143 89 146 144 91 146 145 93 146 146 95 146 147 97 146 148 99 146 149 101 146 150 103 146 151 105 146 152 107 146 153 75 164 129 77 164 130 79 164 131 81 164 132 83 164 133 85 164 134 87 164 135 89 164 136 91 164 137 93 164 138 95 164 139 97 164 140 99 164 141 101 164 142 103 164 143 105 164 144 107 164 145 109 164 146 111 164 147 113 164 148 115 164 149 117 164 150 119 164 151 121 164 152 123 164 153 125 164 154 127 164 155 129 164 156 131 164 157 133 164 158 135 164 159 137 164 160 105 182 136 107 182 137 109 182 138 111 182 139 113 182 140 115 182 141 117 182 142 119 182 143 121 182 144 123 182 145 125 182 146 127 182 147 129 182 148 131 182 149 133 182 150 135 182 151 137 182 152 139 182 153 141 182 154 143 182 155 145 182 156 147 182 157 149 182 158 151 182 159 153 182 160 155 182 161 157 182 162 159 182 163 161 182 164 163 182 165 165 182 166 167 182 167
45 149 123 47 149 124 49 149 125 51 149 126 53 149 127 55 149 128 57 149 129 59 149 130 61 149 131 63 149 132 65 149 133 67 149 134 69 149 135 71 149 136 73 149 137 75 149 138 77 149 139 79 149 140 81 149 141 83 149 142 85 149 143 87 149 144 89 149 145 91 149 146 93 149 147 95 149 148 97 149 149 99 149 150 101 149 151 103 149 152 105 149 153 107 149 154 75 167 130 77 167 131 79 167 132 81 167 133 83 167 134 85 167 135 87 167 136 89 167 137 91 167 138 93 167 139 95 167 140 97 167 141 99 167 142 101 167 143 103 167 144 105 167 145 107 167 146 109 167 147 111 167 148 113 167 149 115 167 150 117 167 151 119 167 152 121 167 153 123 167 154 125 167 155 127 167 156 129 167 157 131 167 158 133 167 159 135 167 160 137 167 161 105 185 137 107 185 138 109 185 139 111 185 140 113 185 141 115 185 142 117 185 143 119 185 144 121 185 145 123 185 146 125 185 147 127 185 148 129 185 149 131 185 150 133 185 151 135 185 152 137 185 153 139 185 154 141 185 155 143 185 156 145 185 157 147 185 158 149 185 159 151 185 160 153 185 161 155 185 162 157 185 163 159 185 164 161 185 165 163 185 166 165 185 167 167 185 168
45 152 124 47 152 125 49 152 126 51 152 127 53 152 128 55 152 129 57 152 130 59 152 131 61 152 132 63 152 133 65 152 134 67 152 135 69 152 136 71 152 137 73 152 138 75 152 139 77 152 140 79 152 141 81 152 142 83 152 143 85 152 144 87 152 145 89 152 146 91 152 147 93 152 148 95 152 149 97 152 150 99 152 151 101 152 152 103 152 153 105 152 154 107 152 155 75 170 131 77 170 132 79 170 133 81 170 134 83 170 135 85 170 136 87 170 137 89 170 138 91 170 139 93 170 140 95 170 141 97 170 142 99 170 143 101 170 144 103 170 145 105 170 146 107 170 147 109 170 148 111 170 149 113 170 150 115 170 151 117 170 152 119 170 153 121 170 154 123 170 155 125 170 156 127 170 157 129 170 158 131 170 159 133 170 160 135 170 161 137 170 162 105 188 138 107 188 139 109 188 140 111 188 141 113 188 142 115 188 143 117 188 144 119 188 145 121 188 146 123 188 147 125 188 148 127 188 149 129 188 150 131 188 151 133 188 152 135 188 153 137 188 154 139 188 155 141 188 156 143 188 157 145 188 158 147 188 159 149 188 160 151 188 161 153 188 162 155 188 163 157 188 164 159 188 165 161 188 166 163 188 167 165 188 168 167 188 169
45 155 125 47 155 126 49 155 127 51 155 128 53 155 129 55 155 130 57 155 131 59 155 132 61 155 133 63 155 134 65 155 135 67 155 136 69 155 137 71 155 138 73 155 139 75 155 140 77 155 141 79 155 142 81 155 143 83 155 144 85 155 145 87 155 146 89 155 147 91 155 148 93 155 149 95 155 150 97 155 151 99 155 152 101 155 153 103 155 154 105 155 155 107 155 156 75 173 132 77 173 133 79 173 134 81 173 135 83 173 136 85 173 137 87 173 138 89 173 139 91 173 140 93 173 141 95 173 142 97 173 143 99 173 144 101 173 145 103 173 146 105 173 147 107 173 148 109 173 149 111 173 150 113 173 151 115 173 152 117 173 153 119 173 154 121 173 155 123 173 156 125 173 157 127 173 158 129 173 159 131 173 160 133 173 161 135 173 162 137 173 163 105 191 139 107 191 140 109 191 141 111 191 142 113 191 143 115 191 144 117 191 145 119 191 146 121 191 147 123 191 148 125 191 149 127 191 150 129 191 151 131 191 152 133 191 153 135 191 154 137 191 155 139 191 156 141 191 157 143 191 158 145 191 159 147 191 160 149 191 161 151 191 162 153 191 163 155 191 164 157 191 165 159 191 166 161 191 167 163 191 168 165 191 169 167 191 170
45 158 126 47 158 127 49 158 128 51 158 129 53 158 130 55 158 131 57 158 132 59 158 133 61 158 134 63 158 135 65 158 136 67 158 137 69 158 138 71 158 139 73 158 140 75 158 141 77 158 142 79 158 143 81 158 144 83 158 145 85 158 146 87 158 147 89 158 148 91 158 149 93 158 150 95 158 151 97 158 152 99 158 153 101 158 154 103 158 155 105 158 156 107 158 157 75 176 133 77 176 134 79 176 135 81 176 136 83 176 137 85 176 138 87 176 139 89 176 140 91 176 141 93 176 142 95 176 143 97 176 144 99 176 145 101 176 146 103 176 147 105 176 148 107 176 149 109 176 150 111 176 151 113 176 152 115 176 153 117 176 154 119 176 155 121 176 156 123 176 157 125 176 158 127 176 159 129 176 160 131 176 161 133 176 162 135 176 163 137 176 164 105 194 140 107 194 141 109 194 142 111 194 143 113 194 144 115 194 145 117 194 146 119 194 147 121 194 148 123 194 149 125 194 150 127 194 151 129 194 152 131 194 153 133 194 154 135 194 155 137 194 156 139 194 157 141 194 158 143 194 159 145 194 160 147 194 161 149 194 162 151 194 163 153 194 164 155 194 165 157 194 166 159 194 167 161 194 168 163 194 169 165 194 170 167 194 171
135 119 116 137 119 117 139 119 118 141 119 119 143 119 120 145 119 121 147 119 122 149 119 123 151 119 124 153 119 125 155 119 126 157 119 127 159 119 128 161 119 129 163 119 130 165 119 131 167 119 132 169 119 133 171 119 134 173 119 135 175 119 136 177 119 137 179 119 138 181 119 139 183 119 140 185 119 141 187 119 142 189 119 143 191 119 144 193 119 145 195 119 146 197 119 147 165 137 123 167 137 124 169 137 125 171 137 126 173 137 127 175 137 128 177 137 129 179 137 130 181 137 131 183 137 132 185 137 133 187 137 134 189 137 135 191 137 136 193 137 137 195 137 138 197 137 139 199 137 140 201 137 141 203 137 142 205 137 143 207 137 144 209 137 145 211 137 146 213 137 147 215 137 148 217 137 149 219 137 150 221 137 151 223 137 152 225 137 153 227 137 154 195 155 130 197 155 131 199 155 132 201 155 133 203 155 134 205 155 135 207 155 136 209 155 137 211 155 138 213 155 139 215 155 140 217 155 141 219 155 142 221 155 143 223 155 144 225 155 145 227 155 146 229 155 147 231 155 148 233 155 149 235 155 150 237 155 151 239 155 152 241 155 153 243 155 154 245 155 155 247 155 156 249 155 157 251 155 158 253 155 159 255 155 160 255 155 161
135 122 117 137 122 118 139 122 119 141 122 120 143 122 121 145 122 122 147 122 123 149 122 124 151 122 125 153 122 126 155 122 127 157 122 128 159 122 129 161 122 130 163 122 131 165 122 132 167 122 133 169 122 134 171 122 135 173 122 136 175 122 137 177 122 138 179 122 139 181 122 140 183 122 141 185 122 142 187 122 143 189 122 144 191 122 145 193 122 146 195 122 147 197 122 148 165 140 124 167 140 125 169 140 126 171 140 127 173 140 128 175 140 129 177 140 130 179 140 131 181 140 132 183 140 133 185 140 134 187 140 135 189 140 136 191 140 137 193 140 138 195 140 139 197 140 140 199 140 141 201 140 142 203 140 143 205 140 144 207 140 145 209 140 146 211 140 147 213 140 148 215 140 149 217 140 150 219 140 151 221 140 152 223 140 153 225 140 154 227 140 155 195 158 131 197 158 132 199 158 133 201 158 134 203 158 135 205 158 136 207 158 137 209 158 138 211 158 139 213 158 140 215 158 141 217 158 142 219 158 143 221 158 144 223 158 145 225 158 146 227 158 147 229 158 148 231 158 149 233 158 150 235 158 151 237 158 152 239 158 153 241 158 154 243 158 155 245 158 156 247 158 157 249 158 158 251 158 159 253 158 160 255 158 161 255 158 162
135 125 118 137 125 119 139 125 120 141 125 121 143 125 122 145 125 123 147 125 124 149 125 125 151 125 126 153 125 127 155 125 128 157 125 129 159 125 130 161 125 131 163 125 132 165 125 133 167 125 134 169 125 135 171 125 136 173 125 137 175 125 138 177 125 139 179 125 140 181 125 141 183 125 142 185 125 143 187 125 144 189 125 145 191 125 146 193 125 147 195 125 148 197 125 149 165 143 125 167 143 126 169 143 127 171 143 128 173 143 129 175 143 130 177 143 131 179 143 132 181 143 133 183 143 134 185 143 135 187 143 136 189 143 137 191 143 138 193 143 139 195 143 140 197 143 141 199 143 142 201 143 143 203 143 144 205 143 145 207 143 146 209 143 147 211 143 148 213 143 149 215 143 150 217 143 151 219 143 152 221 143 153 223 143 154 225 143 155 227 143 156 195 161 132 197 161 133 199 161 134 201 161 135 203 161 136 205 161 137 207 161 138 209 161 139 211 161 140 213 161 141 215 161 142 217 161 143 219 161 144 221 161 145 223 161 146 225 161 147 227 161 148 229 161 149 231 161 150 233 161 151 235 161 152 237 161 153 239 161 154 241 161 155 243 161 156 245 161 157 247 161 158 249 161 159 251 161 160 253 161 161 255 161 162 255 161 163
135 128 119 137 128 120 139 128 121 141 128 122 143 128 123 145 128 124 147 128 125 149 128 126 151 128 127 153 128 128 155 128 129 157 128 130 159 128 131 161 128 132 163 128 133 165 128 134 167 128 135 169 128 136 171 128 137 173 128 138 175 128 139 177 128 140 179 128 141 181 128 142 183 128 143 185 128 144 187 128 145 189 128 146 191 128 147 193 128 148 195 128 149 197 128 150 165 146 126 167 146 127 169 146 128 171 146 129 173 146 130 175 146 131 177 146 132 179 146 133 181 146 134 183 146 135 185 146 136 187 146 137 189 146 138 191 146 139 193 146 140 195 146 141 197 146 142 199 146 143 201 146 144 203 146 145 205 146 146 207 146 147 209 146 148 211 146 149 213 146 150 215 146 151 217 146 152 219 146 153 221 146 154 223 146 155 225 146 156 227 146 157 195 164 133 197 164 134 199 164 135 201 164 136 203 164 137 205 164 138 207 164 139 209 164 140 211 164 141 213 164 142 215 164 143 217 164 144 219 164 145 221 164 146 223 164 147 225 164 148 227 164 149 229 164 150 231 164 151 233 164 152 235 164 153 237 164 154 239 164 155 241 164 156 243 164 157 245 164 158 247 164 159 249 164 160 251 164 161 253 164 162 255 164 163 255 164 164
135 131 120 137 131 121 139 131 122 141 131 123 143 131 124 145 131 125 147 131 126 149 131 127 151 131 128 153 131 129 155 131 130 157 131 131 159 131 132 161 131 133 163 131 134 165 131 135 167 131 136 169 131 137 171 131 138 173 131 139 175 131 140 177 131 141 179 131 142 181 131 143 183 131 144 185 131 145 187 131 146 189 131 147 191 131 148 193 131 149 195 131 150 197 131 151 165 149 127 167 149 128 169 149 129 171 149 130 173 149 131 175 149 132 177 149 133 179 149 134 181 149 135 183 149 136 185 149 137 187 149 138 189 149 139 191 149 140 193 149 141 195 149 142 197 149 143 199 149 144 201 149 145 203 149 146 205 149 147 207 149 148 209 149 149 211 149 150 213 149 151 215 149 152 217 149 153 219 149 154 221 149 155 223 149 156 225 149 157 227 149 158 195 167 134 197 167 135 199 167 136 201 167 137 203 167 138 205 167 139 207 167 140 209 167 141 211 167 142 213 167 143 215 167 144 217 167 145 219 167 146 221 167 147 223 167 148 225 167 149 227 167 150 229 167 151 231 167 152 233 167 153 235 167 154 237 167 155 239 167 156 241 167 157 243 167 158 245 167 159 247 167 160 249 167 161 251 167 162 253 167 163 255 167 164 255 167 165
135 134 121 137 134 122 139 134 123 141 134 124 143 134 125 145 134 126 147 134 127 149 134 128 151 134 129 153 134 130 155 134 131 157 134 132 159 134 133 161 134 134 163 134 135 165 134 136 167 134 137 169 134 138 171 134 139 173 134 140 175 134 141 177 134 142 179 134 143 181 134 144 183 134 145 185 134 146 187 134 147 189 134 148 191 134 149 193 134 150 195 134 151 197 134 152 165 152 128 167 152 129 169 152 130 171 152 131 173 152 132 175 152 133 177 152 134 179 152 135 181 152 136 183 152 137 185 152 138 187 152 139 189 152 140 191 152 141 193 152 142 195 152 143 197 152 144 199 152 145 201 152 146 203 152 147 205 152 148 207 152 149 209 152 150 211 152 151 213 152 152 215 152 153 217 152 154 219 152 155 221 152 156 223 152 157 225 152 158 227 152 159 195 170 135 197 170 136 199 170 137 201 170 138 203 170 139 205 170 140 207 170 141 209 170 142 211 170 143 213 170 144 215 170 145 217 170 146 219 170 147 221 170 148 223 170 149 225 170 150 227 170 151 229 170 152 231 170 153 233 170 154 235 170 155 237 170 156 239 170 157 241 170 158 243 170 159 245 170 160 247 170 161 249 170 162 251 170 163 253 170 164 255 170 165 255 170 166
135 137 122 137 137 123 139 137 124 141 137 125 143 137 126 145 137 127 147 137 128 149 137 129 151 137 130 153 137 131 155 137 132 157 137 133 159 137 134 161 137 135 163 137 136 165 137 137 167 137 138 169 137 139 171 137 140 173 137 141 175 137 142 177 137 143 179 137 144 181 137 145 183 137 146 185 137 147 187 137 148 189 137 149 191 137 150 193 137 151 195 137 152 197 137 153 165 155 129 167 155 130 169 155 131 171 155 132 173 155 133 175 155 134 177 155 135 179 155 136 181 155 137 183 155 138 185 155 139 187 155 140 189 155 141 191 155 142 193 155 143 195 155 144 197 155 145 199 155 146 201 155 147 203 155 148 205 155 149 207 155 150 209 155 151 211 155 152 213 155 153 215 155 154 217 155 155 219 155 156 221 155 157 223 155 158 225 155 159 227 155 160 195 173 136 197 173 137 199 173 138 201 173 139 203 173 140 205 173 141 207 173 142 209 173 143 211 173 144 213 173 145 215 173 146 217 173 147 219 173 148 221 173 149 223 173 150 225 173 151 227 173 152 229 173 153 231 173 154 233 173 155 235 173 156 237 173 157 239 173 158 241 173 159 243 173 160 245 173 161 247 173 162 249 173 163 251 173 164 253 173 165 255 173 166 255 173 167
135 140 123 137 140 124 139 140 125 141 140 126 143 140 127 145 140 128 147 140 129 149 140 130 151 140 131 153 140 132 155 140 133 157 140 134 159 140 135 161 140 136 163 140 137 165 140 138 167 140 139 169 140 140 171 140 141 173 140 142 175 140 143 177 140 144 179 140 145 181 140 146 183 140 147 185 140 148 187 140 149 189 140 150 191 140 151 193 140 152 195 140 153 197 140 154 165 158 130 167 158 131 169 158 132 171 158 133 173 158 134 175 158 135 177 158 136 179 158 137 181 158 138 183 158 139 185 158 140 187 158 141 189 158 142 191 158 143 193 158 144 195 158 145 197 158 146 199 158 147 201 158 148 203 158 149 205 158 150 207 158 151 209 158 152 211 158 153 213 158 154 215 158 155 217 158 156 219 158 157 221 158 158 223 158 159 225 158 160 227 158 161 195 176 137 197 176 138 199 176 139 201 176 140 203 176 141 205 176 142 207 176 143 209 176 144 211 176 145 213 176 146 215 176 147 217 176 148 219 176 149 221 176 150 223 176 151 225 176 152 227 176 153 229 176 154 231 176 155 233 176 156 235 176 157 237 176 158 239 176 159 241 176 160 243 176 161 245 176 162 247 176 163 249 176 164 251 176 165 253 176 166 255 176 167 255 176 168
135 143 124 137 143 125 139 143 126 141 143 127 143 143 128 145 143 129 147 143 130 149 143 131 151 143 132 153 143 133 155 143 134 157 143 135 159 143 136 161 143 137 163 143 138 165 143 139 167 143 140 169 143 141 171 143 142 173 143 143 175 143 144 177 143 145 179 143 146 181 143 147 183 143 148 185 143 149 187 143 150 189 143 151 191 143 152 193 143 153 195 143 154 197 143 155 165 161 131 167 161 132 169 161 133 171 161 134 173 161 135 175 161 136 177 161 137 179 161 138 181 161 139 183 161 140 185 161 141 187 161 142 189 161 143 191 161 144 193 161 145 195 161 146 197 161 147 199 161 148 201 161 149 203 161 150 205 161 151 207 161 152 209 161 153 211 161 154 213 161 155 215 161 156 217 161 157 219 161 158 221 161 159 223 161 160 225 161 161 227 161 162 195 179 138 197 179 139 199 179 140 201 179 141 203 179 142 205 179 143 207 179 144 209 179 145 211 179 146 213 179 147 215 179 148 217 179 149 219 179 150 221 179 151 223 179 152 225 179 153 227 179 154 229 179 155 231 179 156 233 179 157 235 179 158 237 179 159 239 179 160 241 179 161 243 179 162 245 179 163 247 179 164 249 179 165 251 179 166 253 179 167 255 179 168 255 179 169
135 146 125 137 146 126 139 146 127 141 146 128 143 146 129 145 146 130 147 146 131 149 146 132 151 146 133 153 146 134 155 146 135 157 146 136 159 146 137 161 146 138 163 146 139 165 146 140 167 146 141 169 146 142 171 146 143 173 146 144 175 146 145 177 146 146 179 146 147 181 146 148 183 146 149 185 146 150 187 146 151 189 146 152 191 146 153 193 146 154 195 146 155 197 146 156 165 164 132 167 164 133 169 164 134 171 164 135 173 164 136 175 164 137 177 164 138 179 164 139 181 164 140 183 164 141 185 164 142 187 164 143 189 164 144 191 164 145 193 164 146 195 164 147 197 164 148 199 164 149 201 164 150 203 164 151 205 164 152 207 164 153 209 164 154 211 164 155 213 164 156 215 164 157 217 164 158 219 164 159 221 164 160 223 164 161 225 164 162 227 164 163 195 182 139 197 182 140 199 182 141 201 182 142 203 182 143 205 182 144 207 182 145 209 182 146 211 182 147 213 182 148 215 182 149 217 182 150 219 182 151 221 182 152 223 182 153 225 182 154 227 182 155 229 182 156 231 182 157 233 182 158 235 182 159 237 182 160 239 182 161 241 182 162 243 182 163 245 182 164 247 182 165 249 182 166 251 182 167 253 182 168 255 182 169 255 182 170
135 149 126 137 149 127 139 149 128 141 149 129 143 149 130 145 149 131 147 149 132 149 149 133 151 149 134 153 149 135 155 149 136 157 149 137 159 149 138 161 149 139 163 149 140 165 149 141 167 149 142 169 149 143 171 149 144 173 149 145 175 149 146 177 149 147 179 149 148 181 149 149 183 149 150 185 149 151 187 149 152 189 149 153 191 149 154 193 149 155 195 149 156 197 149 157 165 167 133 167 167 134 169 167 135 171 167 136 173 167 137 175 167 138 177 167 139 179 167 140 181 167 141 183 167 142 185 167 143 187 167 144 189 167 145 191 167 146 193 167 147 195 167 148 197 167 149 199 167 150 201 167 151 203 167 152 205 167 153 207 167 154 209 167 155 211 167 156 213 167 157 215 167 158 217 167 159 219 167 160 221 167 161 223 167 162 225 167 163 227 167 164 195 185 140 197 185 141 199 185 142 201 185 143 203 185 144 205 185 145 207 185 146 209 185 147 211 185 148 213 185 149 215 185 150 217 185 151 219 185 152 221 185 153 223 185 154 225 185 155 227 185 156 229 185 157 231 185 158 233 185 159 235 185 160 237 185 161 239 185 162 241 185 163 243 185 164 245 185 165 247 185 166 249 185 167 251 185 168 253 185 169 255 185 170 255 185 171
135 152 127 137 152 128 139 152 129 141 152 130 143 152 131 145 152 132 147 152 133 149 152 134 151 152 135 153 152 136 155 152 137 157 152 138 159 152 139 161 152 140 163 152 141 165 152 142 167 152 143 169 152 144 171 152 145 173 152 146 175 152 147 177 152 148 179 152 149 181 152 150 183 152 151 185 152 152 187 152 153 189 152 154 191 152 155 193 152 156 195 152 157 197 152 158 165 170 134 167 170 135 169 170 136 171 170 137 173 170 138 175 170 139 177 170 140 179 170 141 181 170 142 183 170 143 185 170 144 187 170 145 189 170 146 191 170 147 193 170 148 195 170 149 197 170 150 199 170 151 201 170 152 203 170 153 205 170 154 207 170 155 209 170 156 211 170 157 213 170 158 215 170 159 217 170 160 219 170 161 221 170 162 223 170 163 225 170 164 227 170 165 195 188 141 197 188 142 199 188 143 201 188 144 203 188 145 205 188 146 207 188 147 209 188 148 211 188 149 213 188 150 215 188 151 217 188 152 219 188 153 221 188 154 223 188 155 225 188 156 227 188 157 229 188 158 231 188 159 233 188 160 235 188 161 237 188 162 239 188 163 241 188 164 243 188 165 245 188 166 247 188 167 249 188 168 251 188 169 253 188 170 255 188 171 255 188 172
135 155 128 137 155 129 139 155 130 141 155 131 143 155 132 145 155 133 147 155 134 149 155 135 151 155 136 153 155 137 155 155 138 157 155 139 159 155 140 161 155 141 163 155 142 165 155 143 167 155 144 169 155 145 171 155 146 173 155 147 175 155 148 177 155 149 179 155 150 181 155 151 183 155 152 185 155 153 187 155 154 189 155 155 191 155 156 193 155 157 195 155 158 197 155 159 165 173 135 167 173 136 169 173 137 171 173 138 173 173 139 175 173 140 177 173 141 179 173 142 181 173 143 183 173 144 185 173 145 187 173 146 189 173 147 191 173 148 193 173 149 195 173 150 197 173 151 199 173 152 201 173 153 203 173 154 205 173 155 207 173 156 209 173 157 211 173 158 213 173 159 215 173 160 217 173 161 219 173 162 221 173 163 223 173 164 225 173 165 227 173 166 195 191 142 197 191 143 199 191 144 201 191 145 203 191 146 205 191 147 207 191 148 209 191 149 211 191 150 213 191 151 215 191 152 217 191 153 219 191 154 221 191 155 223 191 156 225 191 157 227 191 158 229 191 159 231 191 160 233 191 161 235 191 162 237 191 163 239 191 164 241 191 165 243 191 166 245 191 167 247 191 168 249 191 169 251 191 170 253 191 171 255 191 172 255 191 173
135 158 129 137 158 130 139 158 131 141 158 132 143 158 133 145 158 134 147 158 135 149 158 136 151 158 137 153 158 138 155 158 139 157 158 140 159 158 141 161 158 142 163 158 143 165 158 144 167 158 145 169 158 146 171 158 147 173 158 148 175 158 149 177 158 150 179 158 151 181 158 152 183 158 153 185 158 154 187 158 155 189 158 156 191 158 157 193 158 158 195 158 159 197 158 160 165 176 136 167 176 137 169 176 138 171 176 139 173 176 140 175 176 141 177 176 142 179 176 143 181 176 144 183 176 145 185 176 146 187 176 147 189 176 148 191 176 149 193 176 150 195 176 151 197 176 152 199 176 153 201 176 154 203 176 155 205 176 156 207 176 157 209 176 158 211 176 159 213 176 160 215 176 161 217 176 162 219 176 163 221 176 164 223 176 165 225 176 166 227 176 167 195 194 143 197 194 144 199 194 145 201 194 146 203 194 147 205 194 148 207 194 149 209 194 150 211 194 151 213 194 152 215 194 153 217 194 154 219 194 155 221 194 156 223 194 157 225 194 158 227 194 159 229 194 160 231 194 161 233 194 162 235 194 163 237 194 164 239 194 165 241 194 166 243 194 167 245 194 168 247 194 169 249 194 170 251 194 171 253 194 172 255 194 173 255 194 174
135 161 130 137 161 131 139 161 132 141 161 133 143 161 134 145 161 135 147 161 136 149 161 137 151 161 138 153 161 139 155 161 140 157 161 141 159 161 142 161 161 143 163 161 144 165 161 145 167 161 146 169 161 147 171 161 148 173 161 149 175 161 150 177 161 151 179 161 152 181 161 153 183 161 154 185 161 155 187 161 156 189 161 157 191 161 158 193 161 159 195 161 160 197 161 161 165 179 137 167 179 138 169 179 139 171 179 140 173 179 141 175 179 142 177 179 143 179 179 144 181 179 145 183 179 146 185 179 147 187 179 148 189 179 149 191 179 150 193 179 151 195 179 152 197 179 153 199 179 154 201 179 155 203 179 156 205 179 157 207 179 158 209 179 159 211 179 160 213 179 161 215 179 162 217 179 163 219 179 164 221 179 165 223 179 166 225 179 167 227 179 168 195 197 144 197 197 145 199 197 146 201 197 147 203 197 148 205 197 149 207 197 150 209 197 151 211 197 152 213 197 153 215 197 154 217 197 155 219 197 156 221 197 157 223 197 158 225 197 159 227 197 160 229 197 161 231 197 162 233 197 163 235 197 164 237 197 165 239 197 166 241 197 167 243 197 168 245 197 169 247 197 170 249 197 171 251 197 172 253 197 173 255 197 174 255 197 175
135 164 131 137 164 132 139 164 133 141 164 134 143 164 135 145 164 136 147 164 137 149 164 138 151 164 139 153 164 140 155 164 141 157 164 142 159 164 143 161 164 144 163 164 145 165 164 146 167 164 147 169 164 148 171 164 149 173 164 150 175 164 151 177 164 152 179 164 153 181 164 154 183 164 155 185 164 156 187 164 157 189 164 158 191 164 159 193 164 160 195 164 161 197 164 162 165 182 138 167 182 139 169 182 140 171 182 141 173 182 142 175 182 143 177 182 144 179 182 145 181 182 146 183 182 147 185 182 148 187 182 149 189 182 150 191 182 151 193 182 152 195 182 153 197 182 154 199 182 155 201 182 156 203 182 157 205 182 158 207 182 159 209 182 160 211 182 161 213 182 162 215 182 163 217 182 164 219 182 165 221 182 166 223 182 167 225 182 168 227 182 169 195 200 145 197 200 146 199 200 147 201 200 148 203 200 149 205 200 150 207 200 151 209 200 152 211 200 153 213 200 154 215 200 155 217 200 156 219 200 157 221 200 158 223 200 159 225 200 160 227 200 161 229 200 162 231 200 163 233 200 164 235 200 165 237 200 166 239 200 167 241 200 168 243 200 169 245 200 170 247 200 171 249 200 172 251 200 173 253 200 174 255 200 175 255 200 176
135 167 132 137 167 133 139 167 134 141 167 135 143 167 136 145 167 137 147 167 138 149 167 139 151 167 140 153 167 141 155 167 142 157 167 143 159 167 144 161 167 145 163 167 146 165 167 147 167 167 148 169 167 149 171 167 150 173 167 151 175 167 152 177 167 153 179 167 154 181 167 155 183 167 156 185 167 157 187 167 158 189 167 159 191 167 160 193 167 161 195 167 162 197 167 163 165 185 139 167 185 140 169 185 141 171 185 142 173 185 143 175 185 144 177 185 145 179 185 146 181 185 147 183 185 148 185 185 149 187 185 150 189 185 151 191 185 152 193 185 153 195 185 154 197 185 155 199 185 156 201 185 157 203 185 158 205 185 159 207 185 160 209 185 161 211 185 162 213 185 163 215 185 164 217 185 165 219 185 166 221 185 167 223 185 168 225 185 169 227 185 170 195 203 146 197 203 147 199 203 148 201 203 149 203 203 150 205 203 151 207 203 152 209 203 153 211 203 154 213 203 155 215 203 156 217 203 157 219 203 158 221 203 159 223 203 160 225 203 161 227 203 162 229 203 163 231 203 164 233 203 165 235 203 166 237 203 167 239 203 168 241 203 169 243 203 170 245 203 171 247 203 172 249 203 173 251 203 174 253 203 175 255 203 176 255 203 177
135 170 133 137 170 134 139 170 135 141 170 136 143 170 137 145 170 138 147 170 139 149 170 140 151 170 141 153 170 142 155 170 143 157 170 144 159 170 145 161 170 146 163 170 147 165 170 148 167 170 149 169 170 150 171 170 151 173 170 152 175 170 153 177 170 154 179 170 155 181 170 156 183 170 157 185 170 158 187 170 159 189 170 160 191 170 161 193 170 162 195 170 163 197 170 164 165 188 140 167 188 141 169 188 142 171 188 143 173 188 144 175 188 145 177 188 146 179 188 147 181 188 148 183 188 149 185 188 150 187 188 151 189 188 152 191 188 153 193 188 154 195 188 155 197 188 156 199 188 157 201 188 158 203 188 159 205 188 160 207 188 161 209 188 162 211 188 163 213 188 164 215 188 165 217 188 166 219 188 167 221 188 168 223 188 169 225 188 170 227 188 171 195 206 147 197 206 148 199 206 149 201 206 150 203 206 151 205 206 152 207 206 153 209 206 154 211 206 155 213 206 156 215 206 157 217 206 158 219 206 159 221 206 160 223 206 161 225 206 162 227 206 163 229 206 164 231 206 165 233 206 166 235 206 167 237 206 168 239 206 169 241 206 170 243 206 171 245 206 172 247 206 173 249 206 174 251 206 175 253 206 176 255 206 177 255 206 178
135 173 134 137 173 135 139 173 136 141 173 137 143 173 138 145 173 139 147 173 140 149 173 141 151 173 142 153 173 143 155 173 144 157 173 145 159 173 146 161 173 147 163 173 148 165 173 149 167 173 150 169 173 151 171 173 152 173 173 153 175 173 154 177 173 155 179 173 156 181 173 157 183 173 158 185 173 159 187 173 160 189 173 161 191 173 162 193 173 163 195 173 164 197 173 165 165 191 141 167 191 142 169 191 143 171 191 144 173 191 145 175 191 146 177 191 147 179 191 148 181 191 149 183 191 150 185 191 151 187 191 152 189 191 153 191 191 154 193 191 155 195 191 156 197 191 157 199 191 158 201 191 159 203 191 160 205 191 161 207 191 162 209 191 163 211 191 164 213 191 165 215 191 166 217 191 167 219 191 168 221 191 169 223 191 170 225 191 171 227 191 172 195 209 148 197 209 149 199 209 150 201 209 151 203 209 152 205 209 153 207 209 154 209 209 155 211 209 156 213 209 157 215 209 158 217 209 159 219 209 160 221 209 161 223 209 162 225 209 163 227 209 164 229 209 165 231 209 166 233 209 167 235 209 168 237 209 169 239 209 170 241 209 171 243 209 172 245 209 173 247 209 174 249 209 175 251 209 176 253 209 177 255 209 178 255 209 179
135 176 135 137 176 136 139 176 137 141 176 138 143 176 139 145 176 140 147 176 141 149 176 142 151 176 143 153 176 144 155 176 145 157 176 146 159 176 147 161 176 148 163 176 149 165 176 150 167 176 151 169 176 152 171 176 153 173 176 154 175 176 155 177 176 156 179 176 157 181 176 158 183 176 159 185 176 160 187 176 161 189 176 162 191 176 163 193 176 164 195 176 165 197 176 166 165 194 142 167 194 143 169 194 144 171 194 145 173 194 146 175 194 147 177 194 148 179 194 149 181 194 150 183 194 151 185 194 152 187 194 153 189 194 154 191 194 155 193 194 156 195 194 157 197 194 158 199 194 159 201 194 160 203 194 161 205 194 162 207 194 163 209 194 164 211 194 165 213 194 166 215 194 167 217 194 168 219 194 169 221 194 170 223 194 171 225 194 172 227 194 173 195 212 149 197 212 150 199 212 151 201 212 152 203 212 153 205 212 154 207 212 155 209 212 156 211 212 157 213 212 158 215 212 159 217 212 160 219 212 161 221 212 162 223 212 163 225 212 164 227 212 165 229 212 166 231 212 167 233 212 168 235 212 169 237 212 170 239 212 171 241 212 172 243 212 173 245 212 174 247 212 175 249 212 176 251 212 177 253 212 178 255 212 179 255 212 180
135 179 136 137 179 137 139 179 138 141 179 139 143 179 140 145 179 141 147 179 142 149 179 143 151 179 144 153 179 145 155 179 146 157 179 147 159 179 148 161 179 149 163 179 150 165 179 151 167 179 152 169 179 153 171 179 154 173 179 155 175 179 156 177 179 157 179 179 158 181 179 159 183 179 160 185 179 161 187 179 162 189 179 163 191 179 164 193 179 165 195 179 166 197 179 167 165 197 143 167 197 144 169 197 145 171 197 146 173 197 147 175 197 148 177 197 149 179 197 150 181 197 151 183 197 152 185 197 153 187 197 154 189 197 155 191 197 156 193 197 157 195 197 158 197 197 159 199 197 160 201 197 161 203 197 162 205 197 163 207 197 164 209 197 165 211 197 166 213 197 167 215 197 168 217 197 169 219 197 170 221 197 171 223 197 172 225 197 173 227 197 174 195 215 150 197 215 151 199 215 152 201 215 153 203 215 154 205 215 155 207 215 156 209 215 157 211 215 158 213 215 159 215 215 160 217 215 161 219 215 162 221 215 163 223 215 164 225 215 165 227 215 166 229 215 167 231 215 168 233 215 169 235 215 170 237 215 171 239 215 172 241 215 173 243 215 174 245 215 175 247 215 176 249 215 177 251 215 178 253 215 179 255 215 180 255 215 181
135 182 137 137 182 138 139 182 139 141 182 140 143 182 141 145 182 142 147 182 143 149 182 144 151 182 145 153 182 146 155 182 147 157 182 148 159 182 149 161 182 150 163 182 151 165 182 152 167 182 153 169 182 154 171 182 155 173 182 156 175 182 157 177 182 158 179 182 159 181 182 160 183 182 161 185 182 162 187 182 163 189 182 164 191 182 165 193 182 166 195 182 167 197 182 168 165 200 144 167 200 145 169 200 146 171 200 147 173 200 148 175 200 149 177 200 150 179 200 151 181 200 152 183 200 153 185 200 154 187 200 155 189 200 156 191 200 157 193 200 158 195 200 159 197 200 160 199 200 161 201 200 162 203 200 163 205 200 164 207 200 165 209 200 166 211 200 167 213 200 168 215 200 169 217 200 170 219 200 171 221 200 172 223 200 173 225 200 174 227 200 175 195 218 151 197 218 152 199 218 153 201 218 154 203 218 155 205 218 156 207 218 157 209 218 158 211 218 159 213 218 160 215 218 161 217 218 162 219 218 163 221 218 164 223 218 165 225 218 166 227 218 167 229 218 168 231 218 169 233 218 170 235 218 171 237 218 172 239 218 173 241 218 174 243 218 175 245 218 176 247 218 177 249 218 178 251 218 179 253 218 180 255 218 181 255 218 182
135 185 138 137 185 139 139 185 140 141 185 141 143 185 142 145 185 143 147 185 144 149 185 145 151 185 146 153 185 147 155 185 148 157 185 149 159 185 150 161 185 151 163 185 152 165 185 153 167 185 154 169 185 155 171 185 156 173 185 157 175 185 158 177 185 159 179 185 160 181 185 161 183 185 162 185 185 163 187 185 164 189 185 165 191 185 166 193 185 167 195 185 168 197 185 169 165 203 145 167 203 146 169 203 147 171 203 148 173 203 149 175 203 150 177 203 151 179 203 152 181 203 153 183 203 154 185 203 155 187 203 156 189 203 157 191 203 158 193 203 159 195 203 160 197 203 161 199 203 162 201 203 163 203 203 164 205 203 165 207 203 166 209 203 167 211 203 168 213 203 169 215 203 170 217 203 171 219 203 172 221 203 173 223 203 174 225 203 175 227 203 176 195 221 152 197 221 153 199 221 154 201 221 155 203 221 156 205 221 157 207 221 158 209 221 159 211 221 160 213 221 161 215 221 162 217 221 163 219 221 164 221 221 165 223 221 166 225 221 167 227 221 168 229 221 169 231 221 170 233 221 171 235 221 172 237 221 173 239 221 174 241 221 175 243 221 176 245 221 177 247 221 178 249 221 179 251 221 180 253 221 181 255 221 182 255 221 183
135 188 139 137 188 140 139 188 141 141 188 142 143 188 143 145 188 144 147 188 145 149 188 146 151 188 147 153 188 148 155 188 149 157 188 150 159 188 151 161 188 152 163 188 153 165 188 154 167 188 155 169 188 156 171 188 157 173 188 158 175 188 159 177 188 160 179 188 161 181 188 162 183 188 163 185 188 164 187 188 165 189 188 166 191 188 167 193 188 168 195 188 169 197 188 170 165 206 146 167 206 147 169 206 148 171 206 149 173 206 150 175 206 151 177 206 152 179 206 153 181 206 154 183 206 155 185 206 156 187 206 157 189 206 158 191 206 159 193 206 160 195 206 161 197 206 162 199 206 163 201 206 164 203 206 165 205 206 166 207 206 167 209 206 168 211 206 169 213 206 170 215 206 171 217 206 172 219 206 173 221 206 174 223 206 175 225 206 176 227 206 177 195 224 153 197 224 154 199 224 155 201 224 156 203 224 157 205 224 158 207 224 159 209 224 160 211 224 161 213 224 162 215 224 163 217 224 164 219 224 165 221 224 166 223 224 167 225 224 168 227 224 169 229 224 170 231 224 171 233 224 172 235 224 173 237 224 174 239 224 175 241 224 176 243 224 177 245 224 178 247 224 179 249 224 180 251 224 181 253 224 182 255 224 183 255 224 184
135 191 140 137 191 141 139 191 142 141 191 143 143 191 144 145 191 145 147 191 146 149 191 147 151 191 148 153 191 149 155 191 150 157 191 151 159 191 152 161 191 153 163 191 154 165 191 155 167 191 156 169 191 157 171 191 158 173 191 159 175 191 160 177 191 161 179 191 162 181 191 163 183 191 164 185 191 165 187 191 166 189 191 167 191 191 168 193 191 169 195 191 170 197 191 171 165 209 147 167 209 148 169 209 149 171 209 150 173 209 151 175 209 152 177 209 153 179 209 154 181 209 155 183 209 156 185 209 157 187 209 158 189 209 159 191 209 160 193 209 161 195 209 162 197 209 163 199 209 164 201 209 165 203 209 166 205 209 167 207 209 168 209 209 169 211 209 170 213 209 171 215 209 172 217 209 173 219 209 174 221 209 175 223 209 176 225 209 177 227 209 178 195 227 154 197 227 155 199 227 156 201 227 157 203 227 158 205 227 159 207 227 160 209 227 161 211 227 162 213 227 163 215 227 164 217 227 165 219 227 166 221 227 167 223 227 168 225 227 169 227 227 170 229 227 171 231 227 172 233 227 173 235 227 174 237 227 175 239 227 176 241 227 177 243 227 178 245 227 179 247 227 180 249 227 181 251 227 182 253 227 183 255 227 184 255 227 185
135 194 141 137 194 142 139 194 143 141 194 144 143 194 145 145 194 146 147 194 147 149 194 148 151 194 149 153 194 150 155 194 151 157 194 152 159 194 153 161 194 154 163 194 155 165 194 156 167 194 157 169 194 158 171 194 159 173 194 160 175 194 161 177 194 162 179 194 163 181 194 164 183 194 165 185 194 166 187 194 167 189 194 168 191 194 169 193 194 170 195 194 171 197 194 172 165 212 148 167 212 149 169 212 150 171 212 151 173 212 152 175 212 153 177 212 154 179 212 155 181 212 156 183 212 157 185 212 158 187 212 159 189 212 160 191 212 161 193 212 162 195 212 163 197 212 164 199 212 165 201 212 166 203 212 167 205 212 168 207 212 169 209 212 170 211 212 171 213 212 172 215 212 173 217 212 174 219 212 175 221 212 176 223 212 177 225 212 178 227 212 179 195 230 155 197 230 156 199 230 157 201 230 158 203 230 159 205 230 160 207 230 161 209 230 162 211 230 163 213 230 164 215 230 165 217 230 166 219 230 167 221 230 168 223 230 169 225 230 170 227 230 171 229 230 172 231 230 173 233 230 174 235 230 175 237 230 176 239 230 177 241 230 178 243 230 179 245 230 180 247 230 181 249 230 182 251 230 183 253 230 184 255 230 185 255 230 186
135 197 142 137 197 143 139 197 144 141 197 145 143 197 146 145 197 147 147 197 148 149 197 149 151 197 150 153 197 151 155 197 152 157 197 153 159 197 154 161 197 155 163 197 156 165 197 157 167 197 158 169 197 159 171 197 160 173 197 161 175 197 162 177 197 163 179 197 164 181 197 165 183 197 166 185 197 167 187 197 168 189 197 169 191 197 170 193 197 171 195 197 172 197 197 173 165 215 149 167 215 150 169 215 151 171 215 152 173 215 153 175 215 154 177 215 155 179 215 156 181 215 157 183 215 158 185 215 159 187 215 160 189 215 161 191 215 162 193 215 163 195 215 164 197 215 165 199 215 166 201 215 167 203 215 168 205 215 169 207 215 170 209 215 171 211 215 172 213 215 173 215 215 174 217 215 175 219 215 176 221 215 177 223 215 178 225 215 179 227 215 180 195 233 156 197 233 157 199 233 158 201 233 159 203 233 160 205 233 161 207 233 162 209 233 163 211 233 164 213 233 165 215 233 166 217 233 167 219 233 168 221 233 169 223 233 170 225 233 171 227 233 172 229 233 173 231 233 174 233 233 175 235 233 176 237 233 177 239 233 178 241 233 179 243 233 180 245 233 181 247 233 182 249 233 183 251 233 184 253 233 185 255 233 186 255 233 187
135 200 143 137 200 144 139 200 145 141 200 146 143 200 147 145 200 148 147 200 149 149 200 150 151 200 151 153 200 152 155 200 153 157 200 154 159 200 155 161 200 156 163 200 157 165 200 158 167 200 159 169 200 160 171 200 161 173 200 162 175 200 163 177 200 164 179 200 165 181 200 166 183 200 167 185 200 168 187 200 169 189 200 170 191 200 171 193 200 172 195 200 173 197 200 174 165 218 150 167 218 151 169 218 152 171 218 153 173 218 154 175 218 155 177 218 156 179 218 157 181 218 158 183 218 159 185 218 160 187 218 161 189 218 162 191 218 163 193 218 164 195 218 165 197 218 166 199 218 167 201 218 168 203 218 169 205 218 170 207 218 171 209 218 172 211 218 173 213 218 174 215 218 175 217 218 176 219 218 177 221 218 178 223 218 179 225 218 180 227 218 181 195 236 157 197 236 158 199 236 159 201 236 160 203 236 161 205 236 162 207 236 163 209 236 164 211 236 165 213 236 166 215 236 167 217 236 168 219 236 169 221 236 170 223 236 171 225 236 172 227 236 173 229 236 174 231 236 175 233 236 176 235 236 177 237 236 178 239 236 179 241 236 180 243 236 181 245 236 182 247 236 183 249 236 184 251 236 185 253 236 186 255 236 187 255 236 188
135 203 144 137 203 145 139 203 146 141 203 147 143 203 148 145 203 149 147 203 150 149 203 151 151 203 152 153 203 153 155 203 154 157 203 155 159 203 156 161 203 157 163 203 158 165 203 159 167 203 160 169 203 161 171 203 162 173 203 163 175 203 164 177 203 165 179 203 166 181 203 167 183 203 168 185 203 169 187 203 170 189 203 171 191 203 172 193 203 173 195 203 174 197 203 175 165 221 151 167 221 152 169 221 153 171 221 154 173 221 155 175 221 156 177 221 157 179 221 158 181 221 159 183 221 160 185 221 161 187 221 162 189 221 163 191 221 164 193 221 165 195 221 166 197 221 167 199 221 168 201 221 169 203 221 170 205 221 171 207 221 172 209 221 173 211 221 174 213 221 175 215 221 176 217 221 177 219 221 178 221 221 179 223 221 180 225 221 181 227 221 182 195 239 158 197 239 159 199 239 160 201 239 161 203 239 162 205 239 163 207 239 164 209 239 165 211 239 166 213 239 167 215 239 168 217 239 169 219 239 170 221 239 171 223 239 172 225 239 173 227 239 174 229 239 175 231 239 176 233 239 177 235 239 178 237 239 179 239 239 180 241 239 181 243 239 182 245 239 183 247 239 184 249 239 185 251 239 186 253 239 187 255 239 188 255 239 189
135 206 145 137 206 146 139 206 147 141 206 148 143 206 149 145 206 150 147 206 151 149 206 152 151 206 153 153 206 154 155 206 155 157 206 156 159 206 157 161 206 158 163 206 159 165 206 160 167 206 161 169 206 162 171 206 163 173 206 164 175 206 165 177 206 166 179 206 167 181 206 168 183 206 169 185 206 170 187 206 171 189 206 172 191 206 173 193 206 174 195 206 175 197 206 176 165 224 152 167 224 153 169 224 154 171 224 155 173 224 156 175 224 157 177 224 158 179 224 159 181 224 160 183 224 161 185 224 162 187 224 163 189 224 164 191 224 165 193 224 166 195 224 167 197 224 168 199 224 169 201 224 170 203 224 171 205 224 172 207 224 173 209 224 174 211 224 175 213 224 176 215 224 177 217 224 178 219 224 179 221 224 180 223 224 181 225 224 182 227 224 183 195 242 159 197 242 160 199 242 161 201 242 162 203 242 163 205 242 164 207 242 165 209 242 166 211 242 167 213 242 168 215 242 169 217 242 170 219 242 171 221 242 172 223 242 173 225 242 174 227 242 175 229 242 176 231 242 177 233 242 178 235 242 179 237 242 180 239 242 181 241 242 182 243 242 183 245 242 184 247 242 185 249 242 186 251 242 187 253 242 188 255 242 189 255 242 190
135 209 146 137 209 147 139 209 148 141 209 149 143 209 150 145 209 151 147 209 152 149 209 153 151 209 154 153 209 155 155 209 156 157 209 157 159 209 158 161 209 159 163 209 160 165 209 161 167 209 162 169 209 163 171 209 164 173 209 165 175 209 166 177 209 167 179 209 168 181 209 169 183 209 170 185 209 171 187 209 172 189 209 173 191 209 174 193 209 175 195 209 176 197 209 177 165 227 153 167 227 154 169 227 155 171 227 156 173 227 157 175 227 158 177 227 159 179 227 160 181 227 161 183 227 162 185 227 163 187 227 164 189 227 165 191 227 166 193 227 167 195 227 168 197 227 169 199 227 170 201 227 171 203 227 172 205 227 173 207 227 174 209 227 175 211 227 176 213 227 177 215 227 178 217 227 179 219 227 180 221 227 181 223 227 182 225 227 183 227 227 184 195 245 160 197 245 161 199 245 162 201 245 163 203 245 164 205 245 165 207 245 166 209 245 167 211 245 168 213 245 169 215 245 170 217 245 171 219 245 172 221 245 173 223 245 174 225 245 175 227 245 176 229 245 177 231 245 178 233 245 179 235 245 180 237 245 181 239 245 182 241 245 183 243 245 184 245 245 185 247 245 186 249 245 187 251 245 188 253 245 189 255 245 190 255 245 191
135 212 147 137 212 148 139 212 149 141 212 150 143 212 151 145 212 152 147 212 153 149 212 154 151 212 155 153 212 156 155 212 157 157 212 158 159 212 159 161 212 160 163 212 161 165 212 162 167 212 163 169 212 164 171 212 165 173 212 166 175 212 167 177 212 168 179 212 169 181 212 170 183 212 171 185 212 172 187 212 173 189 212 174 191 212 175 193 212 176 195 212 177 197 212 178 165 230 154 167 230 155 169 230 156 171 230 157 173 230 158 175 230 159 177 230 160 179 230 161 181 230 162 183 230 163 185 230 164 187 230 165 189 230 166 191 230 167 193 230 168 195 230 169 197 230 170 199 230 171 201 230 172 203 230 173 205 230 174 207 230 175 209 230 176 211 230 177 213 230 178 215 230 179 217 230 180 219 230 181 221 230 182 223 230 183 225 230 184 227 230 185 195 248 161 197 248 162 199 248 163 201 248 164 203 248 165 205 248 166 207 248 167 209 248 168 211 248 169 213 248 170 215 248 171 217 248 172 219 248 173 221 248 174 223 248 175 225 248 176 227 248 177 229 248 178 231 248 179 233 248 180 235 248 181 237 248 182 239 248 183 241 248 184 243 248 185 245 248 186 247 248 187 249 248 188 251 248 189 253 248 190 255 248 191 255 248 192
